ncols         270
nrows         380
xllcorner     -81.5
yllcorner     -18.5
cellsize      0.05
NODATA_value  -9999
1339 1816 1704 994 549 1044 1685 1527 818 413 831 1443 1367 622 216 575 1052 85 91 91 101 110 120 106 113 86 117 116 80 88 110 99 118 103 105 96 97 89 104 104 86 109 114 86 117 93 108 80 115 109 112 103 107 94 119 119 119 89 93 112 106 103 93 88 92 116 86 89 87 115 98 95 88 120 107 93 91 107 96 93 106 82 83 117 91 90 86 102 118 98 89 90 114 92 104 83 87 81 98 80 87 80 88 115 116 97 90 83 82 96 98 116 101 105 88 116 80 119 97 99 99 103 106 101 119 108 93 108 119 119 84 100 101 93 81 110 98 84 115 112 104 101 83 115 97 101 118 111 104 115 84 88 114 94 103 80 107 94 81 110 102 116 119 82 96 118 115 99 80 85 95 99 80 83 104 108 114 102 96 107 99 119 100 83 112 83 103 107 120 83 89 114 98 89 94 89 113 98 91 110 91 101 81 107 81 109 104 118 80 110 119 119 82 115 118 97 80 93 118 109 98 101 111 88 96 103 98 88 100 108 95 97 107 97 111 104 90 92 86 107 92 90 112 97 88 84 93 88 114 109 81 89 108 81 100 100 86 114 90 108 95 81 97 115 90 102 113 106 105 120
1726 2423 2152 1569 1195 1591 2211 1958 1207 960 1212 1949 1843 1006 684 1091 1665 1620 104 108 86 120 106 114 119 119 108 99 120 82 86 120 106 116 115 86 113 85 104 104 84 111 89 86 115 97 111 115 85 89 84 96 101 119 111 81 107 90 101 106 99 114 85 86 107 96 109 117 113 90 116 119 95 90 92 112 111 86 97 97 106 95 86 119 94 98 103 119 81 106 94 88 84 112 96 118 95 105 108 107 80 97 109 99 108 93 81 94 107 98 92 85 97 117 119 118 115 117 106 106 92 82 108 101 99 84 80 95 87 111 83 107 85 92 113 119 86 110 120 114 114 94 85 119 115 94 87 90 117 111 103 90 86 81 98 119 118 101 83 83 99 99 112 86 86 99 94 107 112 117 86 114 89 98 86 96 90 80 90 105 110 95 109 94 116 102 90 109 90 118 104 107 105 120 115 86 102 86 84 104 104 82 119 95 103 112 96 92 105 106 102 98 97 104 102 109 106 88 102 89 99 87 107 85 91 102 113 92 118 85 84 120 95 94 99 80 110 116 87 81 101 84 111 81 80 118 97 104 87 88 105 120 111 83 88 80 100 84 106 107 83 109 110 107 100 108 114 120 114 114
2092 2737 2605 1805 1519 1799 2446 2414 1606 1315 1600 2192 2200 1440 979 1366 1921 1826 1202 100 82 99 82 88 114 100 113 81 91 108 100 113 111 118 119 91 95 91 91 95 104 96 119 87 90 103 90 98 98 117 115 120 106 86 105 97 91 103 90 85 87 94 109 86 111 88 88 108 96 92 99 108 93 101 105 120 96 88 97 96 103 105 118 120 107 111 111 97 81 88 81 100 118 104 120 106 116 113 105 113 98 88 101 111 106 81 86 102 82 109 91 117 114 115 88 84 106 89 94 82 110 82 97 113 113 120 117 117 85 115 104 84 117 111 111 115 107 91 120 95 96 86 113 90 105 91 93 105 97 95 96 108 95 82 110 104 100 102 118 120 81 88 93 94 87 93 94 82 88 82 115 86 99 111 90 83 109 117 111 117 112 103 102 91 109 101 109 115 80 117 92 95 82 100 119 102 111 104 99 118 108 100 96 109 103 112 96 86 104 98 81 99 114 86 94 89 99 109 81 111 113 101 100 83 111 111 84 89 105 115 88 117 98 82 119 113 103 103 81 80 118 118 87 80 96 92 118 111 106 95 98 108 116 111 93 113 103 119 104 89 119 96 117 107 100 105 117 90 87 110
1904 2560 2535 1772 1370 1786 2349 2249 1589 1150 1499 2092 1942 1237 868 1273 1825 1804 1059 94 110 92 85 84 115 95 98 111 80 100 118 83 98 102 103 112 101 107 120 115 117 85 117 115 97 100 109 118 114 100 85 84 88 114 99 80 109 105 88 96 82 99 105 104 116 81 119 94 106 90 102 117 85 100 86 87 91 105 86 96 80 102 86 106 116 90 116 108 98 90 90 91 98 89 90 98 118 91 106 96 117 99 99 85 108 87 91 115 89 95 114 114 103 87 101 94 94 110 100 81 92 117 112 108 100 83 112 103 110 120 118 89 100 98 109 96 111 85 93 111 84 81 81 119 83 80 86 103 109 92 102 80 90 108 94 95 116 91 118 103 91 96 106 98 103 117 99 80 93 81 92 108 105 86 86 95 113 114 116 86 98 102 94 107 84 108 100 110 108 117 80 105 85 115 105 104 101 82 99 83 115 113 100 103 97 92 114 89 106 87 99 105 91 88 82 96 113 103 91 119 80 110 100 107 98 108 117 99 103 105 89 91 93 109 100 84 120 118 86 120 94 84 106 99 116 87 108 115 91 95 89 113 94 114 102 113 87 81 104 80 90 114 105 109 106 83 105 109 86 117
1513 2150 2095 1318 879 1357 1913 1852 1077 739 1008 1691 1604 933 451 726 1515 1368 743 247 97 107 116 86 80 104 85 91 119 104 111 103 82 99 91 106 115 83 92 95 119 80 114 84 92 108 117 116 107 94 111 88 81 110 92 94 107 114 114 87 112 114 93 109 109 97 87 110 90 101 89 106 117 97 95 94 107 83 86 80 85 107 114 85 91 116 86 101 115 83 94 81 114 108 98 103 93 101 95 119 120 106 102 111 84 80 101 103 80 89 80 99 113 84 103 93 113 120 120 106 92 103 119 115 114 113 97 81 114 95 97 84 83 97 93 107 100 80 118 116 83 93 86 119 103 108 93 102 84 101 81 120 102 92 87 117 103 102 97 87 117 87 85 81 90 93 118 89 120 82 93 118 103 108 100 119 119 83 92 80 84 106 80 104 113 81 107 102 114 102 109 81 83 84 82 96 89 120 80 107 97 92 91 89 80 101 111 120 118 90 89 101 86 81 96 101 101 113 113 82 108 109 106 118 97 101 83 97 109 114 101 109 104 101 98 111 82 87 111 90 111 105 93 103 115 98 92 101 104 81 83 93 104 109 101 92 112 98 110 110 91 98 112 110 93 95 80 83 81 96
1245 1878 1782 922 590 951 1667 1535 687 409 743 1304 1212 494 164 502 1097 967 410 100 171 101 111 101 106 96 99 114 81 118 91 118 94 86 108 88 87 103 100 103 88 90 112 87 80 90 101 93 87 103 101 99 84 108 80 110 105 118 106 86 100 116 87 120 102 102 104 104 94 95 95 83 117 118 88 81 96 81 118 89 91 115 92 106 80 116 87 82 104 89 110 117 90 113 89 110 90 119 116 91 88 110 95 80 118 113 111 82 93 120 113 96 116 83 95 107 91 119 83 118 103 82 116 114 117 114 117 100 98 106 115 116 119 88 116 119 115 88 92 119 104 99 115 115 99 89 114 82 88 96 85 119 93 96 120 120 82 105 80 87 101 88 118 110 90 88 97 114 110 109 88 84 90 97 118 111 81 107 99 87 114 91 117 115 98 101 96 96 120 85 111 105 99 120 81 116 82 100 109 112 118 117 116 98 107 99 88 118 104 104 116 99 91 118 100 85 100 80 109 116 99 118 109 112 100 115 101 83 94 84 95 86 90 99 108 87 115 118 92 87 93 86 80 103 87 110 80 114 90 94 91 95 104 97 97 114 92 84 103 98 94 101 81 90 96 108 108 82 104 116
1347 2058 1819 1131 791 1107 1771 1646 937 437 993 1419 1481 796 214 596 1248 1260 567 100 329 1047 114 101 91 95 112 100 101 95 118 94 116 90 116 114 115 108 84 106 110 116 99 107 91 117 114 114 100 81 106 120 99 88 116 88 97 97 116 90 86 95 116 98 107 102 108 93 120 93 90 98 89 100 82 103 112 119 85 113 103 96 111 104 102 97 111 94 114 86 92 103 104 101 113 94 110 101 102 93 112 81 82 82 86 116 91 88 95 112 114 103 86 81 98 98 84 104 102 91 85 106 95 91 87 95 97 110 116 101 81 99 97 84 117 82 91 81 116 106 117 83 85 117 106 102 112 80 100 112 99 94 105 110 106 113 91 97 110 96 115 103 82 120 120 87 109 116 89 91 100 103 107 119 92 96 102 109 114 87 118 100 92 98 83 102 101 101 97 90 106 103 93 91 117 105 83 81 106 102 97 92 101 108 97 94 81 119 89 109 87 120 100 117 92 114 89 88 102 107 82 117 89 98 109 119 92 94 101 102 104 104 119 80 115 91 98 85 90 93 84 91 103 118 84 109 88 117 80 115 108 80 105 109 83 90 118 94 84 92 106 86 81 99 95 109 119 100 114 98
1852 2388 2302 1671 1275 1668 2214 2170 1358 1083 1444 1985 1902 1168 823 1181 1747 1770 876 520 864 1560 1496 106 111 91 93 86 109 104 105 86 82 87 87 114 110 108 86 112 86 112 109 119 83 80 99 96 87 116 92 100 101 86 106 96 107 120 97 93 88 112 88 116 104 116 108 112 107 116 90 100 113 119 105 111 90 100 120 83 111 116 94 112 110 117 115 115 117 85 118 119 118 111 98 118 104 103 87 102 96 120 111 111 114 102 84 91 112 117 100 98 118 120 95 89 88 100 80 110 95 85 86 91 95 101 119 109 98 89 110 111 80 106 108 116 115 119 92 89 103 94 83 87 120 91 92 105 92 104 98 105 95 119 92 113 100 92 99 84 83 87 117 118 97 113 83 116 106 116 83 115 87 109 100 97 80 89 96 105 97 116 84 91 118 101 81 113 90 89 107 91 97 117 112 95 104 113 109 115 105 95 82 80 99 97 111 101 90 111 82 111 116 96 97 105 97 90 80 100 82 105 116 94 112 83 116 80 84 115 95 120 111 84 93 117 83 97 92 113 103 91 116 101 93 99 112 111 100 88 118 116 107 106 84 114 99 120 95 88 105 94 85 102 82 83 120 110 105 120
2363 2837 2758 1942 1698 2017 2686 2459 1832 1308 1862 2377 2293 1639 1171 1594 2227 2119 1331 884 1263 1993 1973 1176 102 95 104 120 88 83 112 80 115 112 90 82 102 87 105 107 105 116 117 114 102 112 109 91 98 115 113 94 86 105 107 103 95 110 100 89 113 109 113 80 118 120 106 88 84 104 116 98 96 91 99 81 117 96 115 80 109 88 107 115 108 97 112 112 101 107 110 120 102 107 104 101 106 114 96 81 86 89 84 90 95 100 87 90 110 96 86 107 117 103 120 94 91 101 105 86 98 94 101 83 111 94 89 97 101 84 86 116 105 112 120 110 110 103 120 110 88 93 110 91 114 84 93 92 112 119 80 86 85 107 92 106 104 99 107 104 109 83 88 109 84 82 109 116 98 96 109 113 107 117 102 94 80 112 94 114 89 90 100 100 108 108 107 83 101 96 116 110 89 101 99 117 98 93 99 90 86 118 101 106 106 107 107 101 115 103 89 96 85 103 98 83 105 86 111 113 98 113 94 103 111 112 116 84 96 99 80 112 101 111 91 93 112 102 119 108 94 89 90 113 106 102 89 84 115 84 103 84 119 117 110 105 90 108 119 95 108 120 119 92 84 92 102 114 104 94
2298 2960 2773 2040 1661 1978 2758 2634 1753 1487 1801 2391 2430 1510 1122 1635 2129 2202 1420 944 1342 1868 1962 1202 102 100 80 112 113 92 109 116 84 96 95 87 114 109 85 90 100 97 107 97 116 85 116 93 98 95 116 116 114 86 106 98 110 100 118 104 80 107 86 81 96 115 86 98 108 108 83 107 108 103 88 102 92 90 104 95 116 90 117 119 102 100 100 98 118 88 104 85 120 102 101 110 93 88 98 112 98 113 83 113 112 118 86 103 89 116 101 118 84 89 116 119 88 87 94 119 101 110 110 95 86 110 95 81 95 99 93 82 115 102 107 85 117 102 114 95 113 117 98 105 83 88 87 104 117 107 88 81 86 83 81 90 110 82 83 107 103 99 98 100 118 118 111 97 100 114 101 104 105 109 112 100 96 85 98 92 112 90 116 116 94 87 92 90 101 98 113 115 115 102 98 113 120 107 89 113 111 110 103 80 81 89 86 107 118 117 104 83 100 82 82 82 102 90 100 96 83 110 120 108 99 111 113 120 84 116 98 117 88 85 90 98 101 116 82 95 98 118 81 83 96 116 90 111 80 106 83 98 93 96 117 92 104 112 111 113 100 87 97 80 81 98 85 90 112 119
1898 2489 2445 1637 1164 1736 2281 2074 1355 1016 1463 2140 2035 1277 810 1182 1783 1743 1021 647 972 1502 1426 853 279 118 113 81 99 100 97 86 106 114 86 93 92 100 88 94 99 97 117 81 120 91 120 107 88 91 90 81 102 115 81 103 107 89 89 112 93 106 103 114 107 88 113 112 80 98 116 105 87 92 113 97 115 117 83 107 101 97 86 95 97 116 82 90 111 112 82 104 113 118 94 109 94 106 94 111 109 117 118 119 89 91 104 102 120 120 114 107 89 118 105 85 105 97 113 86 113 105 83 99 82 109 110 105 119 86 120 104 81 95 102 86 114 86 89 90 96 89 103 100 87 82 80 116 83 109 107 116 115 95 108 110 80 106 98 110 97 103 87 112 93 88 92 84 96 100 116 94 109 102 111 103 95 116 110 119 115 85 90 120 93 107 109 93 119 118 109 89 118 88 95 88 89 88 119 115 89 115 108 110 93 111 98 106 115 83 89 118 118 85 108 91 118 85 99 89 90 101 110 112 81 84 100 91 103 97 88 115 86 107 104 108 104 96 98 84 91 88 81 96 94 111 120 81 120 112 110 119 113 85 84 81 93 100 100 84 108 118 95 112 94 108 116 96 100 92
1510 2124 1915 1290 832 1338 1896 1767 958 665 1072 1678 1562 810 468 708 1510 1259 579 134 504 1109 1087 331 100 235 104 110 103 111 109 99 113 97 116 106 105 96 80 87 113 96 115 85 109 104 95 94 95 119 111 80 89 97 80 118 83 101 113 101 96 89 89 84 109 117 82 85 107 95 83 118 110 119 92 87 91 114 101 97 80 86 112 93 102 105 105 87 116 83 112 96 93 109 98 83 114 102 107 92 118 88 93 115 101 92 92 81 115 92 109 93 92 119 85 118 99 86 119 87 105 94 114 85 81 119 100 85 95 108 119 103 120 80 110 100 117 84 105 97 114 115 93 101 119 89 98 92 90 114 106 99 113 88 112 96 83 109 108 103 107 118 104 103 106 93 80 98 101 93 105 113 105 103 106 111 84 98 86 91 92 112 105 101 101 87 113 92 102 80 112 113 83 83 119 109 115 105 92 104 86 83 109 116 89 109 106 81 87 111 93 93 97 109 81 86 86 104 110 83 80 95 100 110 89 106 99 99 103 83 80 120 106 88 120 82 80 114 101 88 96 84 94 104 82 86 102 109 108 86 104 91 96 101 105 83 87 92 97 87 83 113 108 96 85 100 101 97 95 117
1647 2060 1976 1200 863 1404 1992 1732 1074 634 1038 1678 1623 910 369 741 1398 1449 698 253 542 1156 1094 517 100 365 973 81 94 88 95 89 99 115 114 87 106 83 112 110 91 111 104 104 100 83 80 93 94 100 89 96 116 80 95 110 105 109 92 102 87 84 88 102 104 99 91 103 98 91 115 93 81 86 81 96 109 91 98 89 116 115 95 111 88 116 115 81 94 105 119 101 93 82 98 81 87 103 96 114 88 80 120 119 85 110 107 82 107 112 100 96 101 113 120 109 113 82 103 106 100 96 112 116 83 84 106 87 120 85 92 110 103 100 93 99 105 88 84 90 80 97 88 115 100 80 99 94 89 81 83 81 118 97 85 107 117 97 83 108 117 106 110 93 109 99 112 92 108 105 85 118 107 115 99 106 96 105 99 84 82 100 109 103 101 119 107 113 86 80 103 81 106 118 85 81 110 109 88 108 90 116 89 99 113 112 87 120 96 118 112 119 81 112 106 104 109 102 97 110 93 102 118 91 112 96 83 81 107 99 98 106 115 115 88 112 119 85 95 103 113 101 98 101 119 87 100 117 104 103 103 110 105 90 110 96 99 107 101 110 106 102 117 116 101 111 109 109 103 106
1918 2496 2482 1793 1311 1819 2413 2117 1432 1131 1570 2029 2083 1235 750 1182 1825 1824 981 554 1032 1536 1484 901 399 647 1412 1409 106 93 118 95 109 117 89 109 82 99 109 118 81 80 104 82 119 112 85 107 94 108 109 104 92 90 88 102 88 101 92 119 90 98 100 109 119 88 81 90 86 114 111 101 108 80 104 118 107 103 112 87 119 94 120 117 83 95 84 112 81 120 103 111 97 101 88 110 83 96 98 80 116 89 119 85 104 113 90 94 117 91 83 101 118 95 93 105 92 115 93 116 92 112 101 119 104 120 97 80 98 101 112 82 85 96 85 106 96 100 81 105 120 80 103 110 92 115 114 120 109 108 84 85 99 115 90 83 91 86 82 95 114 112 95 101 82 89 106 111 103 110 88 108 111 110 108 113 89 86 108 106 92 97 93 102 107 103 89 108 90 85 97 111 106 109 96 85 80 92 81 104 112 119 115 96 101 80 118 115 97 99 101 111 111 86 120 112 93 119 117 82 102 106 119 95 104 103 103 87 92 117 120 120 114 118 100 110 83 115 94 105 88 83 110 105 81 96 111 115 116 84 114 95 97 97 86 117 83 116 80 107 108 105 99 111 95 99 120 116 100 85
2385 3128 2981 2191 1845 2264 2730 2792 1965 1578 1929 2501 2385 1788 1377 1717 2293 2321 1513 1085 1486 2154 2077 1352 840 1215 1838 1864 1144 92 119 112 95 89 106 99 90 109 112 85 93 103 117 116 97 116 116 82 113 116 102 80 96 120 98 92 99 80 112 80 108 80 119 110 109 100 99 83 82 97 115 116 95 111 112 81 96 119 91 82 111 102 92 113 110 104 110 99 114 111 90 87 95 102 100 98 96 111 90 97 106 98 111 116 90 110 114 103 102 107 99 114 101 96 110 98 113 90 95 114 115 83 80 98 89 80 103 111 89 89 106 96 101 104 114 117 94 119 99 92 99 87 97 102 100 87 92 111 103 88 92 94 115 114 88 104 96 117 114 87 102 83 85 82 91 90 82 112 116 87 97 111 101 81 88 101 112 111 86 107 105 103 84 107 99 101 101 108 115 89 96 80 96 104 114 105 105 112 119 117 115 81 111 101 109 99 100 89 112 94 99 103 88 94 95 118 97 84 94 82 119 89 94 116 98 106 104 119 94 102 118 115 95 85 85 83 120 114 99 113 85 98 111 89 84 83 89 114 91 85 90 93 91 86 105 89 93 114 95 96 110 115 103 93 116 113 106 80 116 90
2585 3226 2982 2424 2006 2454 2904 2821 2089 1715 2016 2624 2699 1865 1444 1788 2547 2394 1765 1272 1560 2166 2270 1537 1091 1290 1963 1881 1281 86 107 97 92 82 104 118 88 88 119 88 113 87 106 80 113 118 99 113 119 98 93 117 86 115 104 88 100 92 86 108 120 87 96 96 118 81 95 81 118 96 87 98 108 114 110 89 82 119 106 98 107 91 119 98 87 111 99 88 91 80 84 117 100 87 89 85 117 100 111 81 104 84 84 113 114 116 104 105 99 111 110 117 91 98 89 95 101 99 111 80 97 86 85 106 90 87 114 101 107 117 100 103 117 106 103 117 103 89 114 102 100 120 116 93 81 100 97 93 94 93 84 83 81 88 89 106 89 103 84 114 100 93 117 97 100 89 102 90 101 111 94 102 109 120 96 102 93 118 100 110 114 87 85 117 110 115 92 80 111 115 110 95 80 86 98 111 86 106 100 95 110 112 85 96 110 110 113 101 88 89 92 98 84 105 107 111 106 118 111 119 97 108 105 90 100 80 83 87 96 90 86 84 96 109 85 105 109 83 92 93 99 110 114 85 112 115 89 82 110 80 87 119 100 102 97 111 109 89 115 99 85 89 108 93 89 116 90 104 84 109
2355 2930 2772 2086 1539 2086 2672 2632 1807 1316 1873 2468 2323 1518 1191 1555 2109 2197 1288 879 1261 2017 1863 1185 802 991 1779 1640 1033 542 100 107 107 98 95 88 104 115 83 81 82 114 82 101 94 89 87 103 119 101 87 87 113 118 92 110 109 112 84 93 114 82 84 115 82 94 85 95 85 115 104 104 83 91 99 82 118 102 85 106 110 83 103 80 90 109 118 115 107 95 99 90 102 110 118 106 98 106 112 103 91 113 92 98 107 83 80 91 85 98 80 84 116 97 118 100 114 112 89 80 110 93 112 107 81 110 83 81 117 117 93 117 116 112 119 81 113 92 102 84 109 110 83 96 114 115 93 120 119 108 116 81 101 118 84 119 94 82 100 98 108 114 118 95 83 103 110 86 108 110 92 118 101 97 113 84 104 113 102 82 99 113 84 84 105 94 104 118 118 112 101 81 89 89 84 94 99 115 104 95 86 112 89 82 118 86 113 100 81 101 108 101 84 106 90 119 116 92 90 91 83 88 109 109 95 106 105 94 87 83 93 97 120 111 116 114 116 111 95 117 81 109 114 108 117 96 82 110 99 93 85 109 94 100 106 92 110 92 119 111 91 85 108 107 101 120 84 93 115 95
1868 2398 2238 1561 1247 1709 2217 2201 1360 953 1433 2045 1836 1177 748 1210 1775 1726 988 529 882 1446 1356 756 359 551 1164 1231 542 100 408 111 102 82 91 80 101 118 82 84 119 97 106 91 120 111 106 118 95 104 93 100 106 92 97 113 81 93 85 120 83 93 96 93 98 113 95 111 117 103 103 86 86 95 96 120 114 83 98 112 109 106 112 103 90 92 116 120 104 82 109 84 104 109 118 106 105 93 100 97 106 114 94 119 91 102 88 86 105 118 117 104 90 94 103 81 95 95 116 101 97 110 101 110 99 115 86 105 95 114 106 108 85 104 117 92 87 90 101 115 101 99 111 109 95 101 118 80 114 90 86 104 83 107 102 116 100 111 120 94 92 98 103 100 112 112 102 89 89 90 98 119 94 117 119 113 120 102 101 101 94 87 106 103 113 91 107 101 84 114 115 106 114 89 99 115 87 84 104 113 115 95 87 113 117 117 90 98 109 112 81 103 85 92 111 82 99 83 115 97 110 111 108 107 106 120 108 105 80 103 87 95 112 100 113 109 102 91 110 102 83 81 83 87 83 91 117 113 94 107 115 115 119 111 118 119 116 105 105 97 107 97 91 115 106 88 86 87 115 83
1700 2432 2196 1471 989 1483 2061 1891 1325 783 1238 1906 1818 1016 645 1062 1700 1540 739 398 718 1460 1400 696 151 550 1106 1078 503 100 330 968 116 87 106 96 80 88 110 119 85 110 110 91 107 95 89 102 95 120 110 104 88 99 100 116 98 92 88 96 110 80 100 87 96 116 96 97 97 84 88 97 97 110 85 108 84 108 100 106 99 116 80 88 108 119 82 101 97 111 94 112 103 100 113 89 104 104 120 86 85 97 99 109 116 105 105 88 80 105 113 96 94 103 116 110 102 95 96 112 92 107 103 104 111 98 119 109 105 83 93 105 104 85 91 108 105 113 116 117 117 97 119 114 110 82 87 103 112 116 85 111 98 87 120 91 111 120 117 101 110 104 92 90 84 87 113 95 108 118 82 89 89 100 84 96 113 83 93 103 99 94 120 117 101 91 95 90 93 85 81 95 95 87 105 117 108 111 118 118 95 92 103 94 94 92 90 111 85 114 111 89 118 109 108 117 90 116 107 100 120 83 117 90 109 92 105 110 102 120 117 83 120 113 109 83 96 116 104 113 96 103 83 93 105 109 112 118 110 111 82 104 111 115 83 103 100 116 93 80 82 92 96 98 84 110 108 119 104 99
2034 2597 2466 1838 1427 1735 2466 2388 1663 1189 1651 2182 2107 1272 1008 1386 1991 1959 1160 643 1020 1655 1658 914 522 889 1446 1531 676 246 674 1178 1168 114 107 111 83 102 117 102 98 81 106 90 96 117 113 103 116 82 90 86 112 95 118 105 104 102 100 118 117 97 107 98 101 88 113 106 98 115 90 82 101 94 102 99 97 85 92 85 102 83 113 107 112 88 90 105 88 118 110 98 83 93 103 95 95 89 93 90 104 80 101 110 107 90 100 97 94 106 102 87 116 91 95 88 80 85 106 108 112 88 103 118 94 115 94 82 109 84 85 98 111 117 110 108 105 81 120 99 120 107 115 109 107 94 96 87 109 100 104 105 108 89 98 80 93 115 90 92 119 89 83 109 99 86 86 97 108 102 117 115 95 111 112 86 80 82 106 115 87 89 115 114 82 114 114 106 94 105 113 119 107 120 99 103 119 95 109 92 101 94 117 116 111 113 101 118 109 113 93 96 86 81 111 95 112 103 89 94 110 116 94 98 99 80 112 82 98 115 93 100 99 113 117 111 113 92 120 103 98 109 96 109 96 104 87 114 82 96 114 110 87 105 86 84 102 108 94 83 120 99 117 84 95 80 84 86 118 101
2522 3119 2957 2406 1954 2367 2960 2745 2148 1612 2042 2678 2632 1973 1434 1802 2466 2375 1632 1264 1625 2195 2159 1416 1089 1351 1996 1996 1265 755 1127 1690 1642 1119 106 96 119 82 85 90 117 111 113 99 119 81 86 120 115 113 105 84 84 111 84 85 110 117 91 94 88 106 120 85 101 113 86 110 118 120 102 85 102 92 98 98 105 119 117 84 115 118 104 120 119 83 102 98 118 85 84 101 90 101 116 110 106 115 85 110 120 83 115 112 108 100 87 111 93 120 97 94 92 99 96 115 106 105 81 116 108 86 114 115 109 103 115 117 105 81 110 102 91 109 80 111 104 101 86 88 95 112 96 83 80 115 117 116 97 86 80 119 98 90 94 105 100 119 86 83 120 80 109 95 113 116 108 89 115 107 116 87 105 80 107 104 98 84 85 85 99 109 102 110 101 119 89 87 101 97 104 108 109 100 105 112 91 111 111 88 107 88 87 108 111 112 86 95 109 106 97 119 94 108 98 83 107 89 80 84 98 83 88 97 92 96 83 81 94 97 96 80 110 98 113 101 108 110 106 112 99 111 104 100 93 81 117 93 90 92 93 106 110 105 83 119 91 114 117 82 82 105 101 85 112 82 98 91 98 103
2921 3475 3275 2496 2282 2636 3175 3043 2415 1922 2405 2938 2792 2193 1785 2174 2812 2611 1959 1412 1768 2427 2495 1796 1223 1539 2220 2185 1450 1052 1331 2042 1912 1357 92 96 110 106 113 92 116 108 97 83 98 113 80 86 118 117 95 92 85 93 108 85 83 102 112 114 93 104 100 80 104 92 86 107 96 108 85 98 107 91 111 120 100 90 103 92 83 108 89 107 94 114 98 116 113 106 80 102 110 88 92 102 109 96 98 104 93 81 114 99 80 119 103 116 119 117 80 117 99 101 100 94 94 96 90 89 80 112 100 109 95 94 85 106 112 111 82 84 120 91 93 86 112 119 116 91 95 102 106 115 83 88 107 100 115 90 97 110 97 112 114 119 96 91 83 104 81 105 109 92 115 102 90 87 88 113 98 99 93 106 113 116 94 82 114 112 119 95 120 81 102 90 84 99 101 120 81 103 84 96 97 83 113 106 115 81 102 80 91 88 88 102 114 118 104 87 96 100 82 97 96 120 120 116 110 117 87 102 88 116 108 81 86 110 83 95 103 108 104 117 113 108 111 98 114 107 102 120 119 107 102 98 113 106 83 83 97 113 102 101 119 115 102 87 100 87 113 80 105 90 97 93 113 96 101 81
2730 3195 3126 2400 1999 2451 2985 2997 2242 1756 2246 2734 2754 1900 1536 1922 2474 2401 1798 1338 1581 2353 2228 1507 1143 1476 2041 2089 1396 746 1144 1736 1891 1209 561 117 101 85 98 112 118 91 120 105 116 104 100 94 86 109 97 117 92 86 114 108 95 89 93 105 97 97 108 118 114 85 102 101 80 112 87 104 115 96 101 115 109 112 96 120 97 106 99 119 112 112 96 110 112 111 104 80 98 97 94 117 112 81 107 87 106 116 117 116 91 114 84 86 91 95 114 120 120 110 102 113 93 82 83 105 97 102 93 102 97 98 105 92 103 89 119 83 109 101 113 85 98 87 90 97 98 111 84 94 111 93 117 83 119 120 112 111 102 107 119 107 100 118 86 107 115 117 93 97 108 83 80 92 87 113 90 101 86 87 84 119 116 109 107 112 98 114 97 93 96 110 108 91 86 116 114 106 86 111 81 119 96 85 99 109 112 89 115 119 84 114 82 95 83 100 108 98 100 119 111 95 105 86 115 90 119 84 99 101 98 101 117 115 104 97 120 89 114 105 110 93 105 89 95 107 84 104 113 106 102 91 110 119 84 91 119 89 87 118 111 91 98 84 99 111 87 115 111 89 84 102 112 113 116 110
2213 2873 2721 1999 1574 1999 2548 2404 1720 1276 1693 2310 2290 1538 1048 1406 2048 2019 1356 859 1289 1786 1764 1038 649 922 1563 1562 874 361 732 1321 1410 703 103 423 90 100 98 98 107 104 89 93 116 90 83 116 109 108 120 116 111 102 109 108 91 111 99 98 84 80 94 81 108 83 108 110 118 119 116 91 91 103 120 104 111 106 93 109 114 99 119 89 80 80 113 82 115 80 114 112 103 116 88 108 94 83 116 97 113 117 102 106 93 102 109 102 119 118 102 89 105 86 103 81 104 98 97 99 93 96 109 89 93 114 106 102 120 104 108 81 113 109 115 114 119 83 101 115 103 106 98 118 105 92 110 92 91 98 112 120 103 117 103 91 84 101 94 93 93 80 113 103 88 84 116 117 112 120 92 89 99 84 109 106 102 101 119 113 87 99 103 81 111 118 117 95 116 81 85 83 91 80 112 85 94 95 117 106 107 85 112 89 98 120 115 101 98 101 119 97 83 102 100 108 120 117 102 80 85 103 80 91 113 109 104 118 81 82 96 91 111 85 106 120 97 111 88 84 92 81 93 111 83 103 80 116 95 109 81 92 81 105 107 100 104 86 119 112 87 80 105 80 89 93 95 115 104 100
1970 2630 2414 1784 1208 1641 2276 2265 1401 1139 1472 2053 2057 1295 850 1271 1873 1771 1056 661 920 1608 1642 938 453 782 1348 1362 641 236 563 1113 1067 465 100 297 877 90 84 111 106 118 80 101 85 89 112 85 91 103 85 103 113 120 103 85 100 80 102 87 98 84 83 117 107 88 86 81 86 112 120 90 95 80 91 80 100 80 117 113 115 110 89 82 118 119 117 114 117 113 103 83 99 88 112 91 113 98 102 110 101 108 119 112 108 91 109 116 113 99 99 118 114 87 120 115 105 88 106 107 116 105 99 105 88 108 99 92 115 83 88 91 87 92 100 94 98 98 89 90 96 91 120 101 95 114 101 117 99 103 81 103 118 88 116 100 108 84 88 97 93 111 97 84 113 92 80 98 97 109 119 102 89 99 98 105 84 94 87 83 115 90 97 102 109 118 89 94 85 112 85 101 98 97 86 94 82 88 83 90 91 83 88 111 83 95 100 102 88 89 105 89 93 119 102 119 102 86 88 115 81 107 103 81 91 108 117 116 86 111 98 83 90 94 94 109 81 81 107 94 102 107 116 91 88 86 80 88 88 81 105 109 111 112 91 116 94 119 88 110 113 91 108 104 89 116 119 113 83 90
2188 2780 2545 1931 1601 2003 2562 2337 1737 1204 1776 2294 2301 1541 1080 1449 1961 1890 1226 791 1092 1824 1823 1061 578 987 1504 1468 809 269 679 1346 1293 670 100 350 1167 1039 112 120 113 95 117 114 83 100 83 107 120 113 95 83 84 119 118 118 80 91 85 85 104 93 83 81 106 101 115 115 102 120 110 98 119 89 115 82 104 118 101 109 92 85 80 93 114 112 96 111 99 95 119 98 106 84 106 80 86 82 81 119 80 95 120 102 98 104 88 81 81 108 107 116 100 97 120 94 95 120 97 80 106 89 116 86 105 90 104 100 84 92 97 117 115 113 80 111 102 105 97 119 103 115 115 118 83 86 114 108 107 84 94 117 93 109 84 110 83 91 90 83 93 86 118 119 87 107 91 88 95 86 89 120 101 99 113 120 99 109 115 107 89 95 120 95 102 102 84 103 108 88 90 118 119 92 95 119 108 108 96 101 82 109 111 95 118 82 92 97 89 117 118 93 95 91 101 95 107 94 104 104 88 108 100 96 91 95 94 96 81 80 94 83 91 120 104 83 94 81 89 106 96 103 98 120 108 110 112 82 86 92 94 101 113 120 87 120 101 110 92 105 110 95 115 117 96 86 92 89 93 82
2735 3210 3057 2443 2073 2450 2940 2919 2195 1847 2154 2778 2782 1989 1607 1845 2498 2590 1776 1404 1597 2380 2350 1641 1145 1415 1998 2062 1442 873 1234 1744 1826 1210 608 993 1505 1539 884 100 97 99 100 107 93 81 109 105 95 90 94 119 115 115 98 95 101 109 84 117 112 101 111 98 104 92 101 97 80 110 96 114 91 118 116 111 92 119 116 98 94 86 97 114 115 115 88 82 84 91 116 87 103 82 90 118 101 120 90 120 112 106 104 81 96 110 87 108 102 100 83 99 110 82 103 96 88 118 83 110 80 101 92 81 110 109 88 88 93 87 87 84 99 95 83 82 114 87 106 95 103 93 101 101 105 104 106 119 101 116 91 113 113 107 84 118 86 111 101 109 110 94 113 96 95 106 97 83 95 118 88 101 81 84 101 111 99 108 88 119 111 119 98 99 109 115 88 91 105 83 113 92 103 80 91 118 102 81 102 95 106 106 88 96 118 120 82 84 80 91 80 98 99 104 102 84 115 114 86 106 119 101 108 114 91 98 91 111 92 113 110 115 116 110 116 102 114 96 119 98 92 112 87 90 103 111 112 81 119 101 120 119 87 107 92 94 102 115 83 83 90 94 100 86 89 119 87 116 102 91
3045 3697 3517 2883 2491 2770 3472 3333 2488 2161 2524 3179 3023 2291 1845 2279 3015 2843 2240 1654 2017 2667 2577 1991 1514 1882 2505 2480 1643 1143 1655 2136 2232 1546 1023 1313 2045 1936 1376 96 84 81 91 85 85 117 99 94 103 95 101 110 105 114 92 109 110 114 93 113 84 100 102 112 97 111 113 101 87 120 84 100 105 113 100 92 89 94 100 113 96 88 87 100 94 120 85 99 111 103 106 103 83 85 96 97 100 98 95 86 114 112 109 102 111 105 115 113 95 117 111 88 80 82 86 119 106 118 97 84 88 81 81 115 105 89 80 120 104 117 87 105 115 97 118 100 80 114 115 86 90 106 109 117 104 111 101 83 118 99 119 117 93 86 83 97 118 82 85 85 119 119 106 115 104 84 97 92 97 99 88 98 109 89 98 102 95 87 86 83 80 82 91 95 115 112 82 97 92 94 106 104 80 117 95 90 94 96 120 114 88 96 106 113 120 91 91 107 98 89 111 113 81 119 105 103 110 103 88 88 95 93 102 97 80 94 92 86 104 111 110 104 103 119 109 109 85 82 93 87 111 98 84 84 116 81 90 88 88 112 94 115 91 92 117 110 102 108 83 103 89 86 120 92 108 81 100 85 109 112
2998 3568 3463 2728 2369 2837 3252 3310 2440 2048 2599 3128 3103 2357 1890 2257 2801 2877 2083 1703 2015 2557 2618 1787 1474 1837 2289 2381 1716 1148 1499 2097 2119 1477 861 1167 1903 1841 1276 655 104 117 102 94 81 85 111 118 102 102 97 104 95 120 111 85 119 85 100 94 85 101 112 90 95 92 97 98 82 94 103 114 85 112 113 94 86 87 108 85 83 83 81 113 119 111 106 80 88 112 80 83 80 102 116 93 117 93 113 109 99 106 119 113 85 112 87 116 115 81 104 117 98 119 100 120 109 114 113 85 101 82 99 109 86 96 120 90 117 106 107 105 120 112 110 87 115 86 110 99 107 119 95 117 106 80 111 109 117 80 87 85 92 115 106 101 90 88 109 106 88 107 105 116 116 111 85 108 102 114 110 117 81 108 120 86 113 85 86 110 89 103 106 103 97 87 117 96 98 110 104 95 89 107 104 101 111 110 116 105 92 118 101 120 107 114 103 99 103 116 84 112 81 108 102 100 85 101 81 97 111 101 92 110 81 90 100 109 93 99 91 102 119 89 112 92 89 83 118 108 103 100 95 84 112 87 89 103 99 91 94 95 83 85 104 97 95 89 107 119 117 90 110 96 86 92 86 118 100 104
2587 3259 3019 2354 1942 2427 2872 2864 2001 1583 2112 2729 2557 1824 1459 1768 2364 2475 1586 1314 1508 2189 2174 1408 1086 1426 1936 2022 1169 822 1066 1803 1668 991 587 866 1579 1530 785 334 608 105 93 103 95 89 94 103 108 98 94 90 103 83 102 105 104 109 110 104 114 83 114 100 83 101 99 86 104 86 83 101 100 119 120 83 111 116 103 118 80 90 105 95 109 105 108 96 115 89 91 80 109 116 86 89 103 110 86 95 108 103 90 92 82 116 116 104 93 88 120 96 115 117 88 118 101 118 120 113 104 85 95 110 85 98 107 117 86 99 81 102 89 113 105 88 97 116 118 108 103 81 112 110 117 107 105 83 93 95 108 83 118 116 80 90 102 89 105 120 80 84 103 83 84 93 120 109 86 87 88 86 92 95 95 97 118 83 99 83 110 100 89 92 103 111 111 110 80 92 86 85 100 109 99 91 96 100 102 83 113 117 97 105 114 98 100 116 110 108 89 98 95 91 82 92 89 114 107 117 81 97 114 107 89 82 94 94 98 90 107 97 108 120 111 90 115 103 100 113 89 90 86 109 87 108 91 114 91 87 83 85 86 106 90 104 111 95 109 109 88 82 83 113 92 114 89 114 99 116
2296 2809 2756 1956 1533 2032 2670 2507 1772 1339 1832 2362 2167 1455 1198 1571 2167 1949 1363 937 1316 1868 1868 1104 661 1015 1543 1656 964 450 843 1394 1312 647 221 538 1221 1208 508 100 344 959 93 102 110 98 106 87 85 115 91 83 95 82 113 113 111 117 93 114 113 89 102 89 92 112 120 82 110 99 105 92 109 114 83 93 100 101 96 94 91 95 102 112 105 102 105 87 116 109 112 116 89 111 103 85 105 104 102 91 98 93 120 110 110 84 88 90 118 115 111 104 103 119 117 81 107 81 111 117 101 95 98 85 92 119 107 110 110 103 117 113 109 114 112 91 111 116 91 88 97 82 104 102 102 94 115 96 118 113 86 111 118 101 120 104 81 112 116 105 80 97 120 93 83 115 107 97 85 119 94 117 82 87 101 95 107 89 103 80 112 110 94 89 108 103 89 97 103 88 94 96 114 105 109 114 116 115 117 89 89 88 104 89 98 85 106 90 89 105 92 108 85 116 83 91 84 120 115 85 94 114 96 115 119 83 103 113 88 88 118 103 89 84 100 85 110 93 92 93 102 91 104 84 92 91 95 89 104 85 99 84 93 94 118 115 92 82 107 108 101 96 99 82 119 96 83 102 87 115
2359 2819 2678 2060 1580 2091 2616 2460 1740 1367 1863 2366 2311 1695 1191 1556 2254 2209 1431 1035 1297 1942 1930 1110 815 1042 1759 1763 1010 421 920 1421 1389 860 357 528 1190 1334 572 100 256 1011 1007 104 92 88 97 89 111 111 102 81 96 84 98 118 114 106 100 96 87 83 80 114 119 81 96 115 94 91 114 105 112 111 86 104 120 94 113 92 95 105 105 98 86 120 95 80 96 88 112 83 106 80 103 97 98 120 108 97 90 100 96 117 110 96 115 109 98 89 120 82 93 100 102 113 84 106 86 99 92 118 83 119 100 82 96 110 120 84 88 110 102 104 83 100 82 107 102 80 116 82 117 100 107 97 87 93 101 99 109 85 118 89 118 115 118 91 95 114 85 95 118 113 92 99 96 111 100 99 82 96 95 115 84 115 112 119 86 119 88 114 105 109 94 101 94 84 90 113 95 96 99 84 90 107 99 111 108 92 86 89 103 110 113 104 89 81 91 93 98 96 120 80 115 80 119 108 82 90 96 113 105 90 118 119 116 107 91 107 110 83 116 101 119 108 110 106 93 107 102 81 84 109 95 101 97 109 99 85 80 100 99 89 113 90 108 94 120 110 91 80 107 105 98 115 106 105 113 117
2870 3387 3239 2558 2093 2447 3222 2945 2254 1976 2326 2931 2856 2131 1648 2017 2623 2490 1845 1495 1785 2360 2408 1658 1223 1483 2169 2185 1405 922 1369 1869 1877 1134 732 1000 1592 1620 1017 523 777 1436 1541 849 113 113 101 95 81 105 80 102 109 97 80 102 103 96 107 114 114 105 83 85 84 109 82 97 108 115 96 85 90 100 83 90 94 88 110 116 88 116 96 89 81 113 87 111 115 102 103 100 118 103 94 113 89 111 95 120 90 101 114 107 105 119 114 115 96 104 101 94 81 80 99 80 86 109 88 93 114 111 108 95 113 92 119 118 105 85 104 96 97 107 93 93 81 96 97 107 115 110 104 114 97 105 120 85 117 81 82 111 105 103 93 102 114 108 97 87 95 118 85 97 115 100 115 102 105 80 110 113 110 107 103 102 120 108 101 81 112 100 80 85 84 89 101 83 109 106 98 108 96 84 110 116 80 93 93 114 112 99 101 100 94 89 114 103 82 83 99 111 114 81 96 102 98 83 113 83 88 89 83 117 101 82 117 108 105 82 83 97 110 103 83 80 107 115 96 105 91 119 90 81 81 111 96 115 111 100 92 114 108 96 111 87 100 107 88 89 117 87 94 85 104 91 110 91 93 115
3307 3920 3644 3027 2599 2931 3612 3468 2766 2426 2834 3254 3349 2473 2112 2528 3031 3003 2250 1796 2182 2861 2785 2058 1737 2067 2620 2688 1984 1400 1663 2395 2354 1653 1092 1396 2056 2226 1410 899 1283 1935 1858 1250 108 94 120 115 89 82 85 101 85 93 93 114 111 105 87 93 102 114 92 110 89 120 97 117 119 94 113 94 94 102 108 89 86 91 118 94 109 94 109 113 112 120 102 104 95 116 101 110 106 104 80 80 114 87 81 92 92 112 81 95 93 85 94 95 100 102 106 85 95 91 83 94 92 115 120 90 100 96 91 103 99 84 113 82 92 92 84 80 116 89 115 109 120 89 83 87 115 99 89 110 86 107 108 101 83 107 87 103 112 118 120 112 99 95 106 115 82 108 97 109 106 86 105 95 87 80 96 112 90 90 84 99 119 113 99 95 118 108 102 89 113 86 107 82 80 109 98 112 103 108 105 110 96 83 100 102 117 105 103 90 87 96 119 107 81 101 97 89 119 93 91 91 86 94 99 109 103 83 97 83 90 110 88 110 84 108 102 96 111 117 100 89 101 82 102 103 94 94 113 119 101 94 103 107 101 101 111 90 106 99 109 81 117 109 118 83 81 111 112 95 120 101 82 103 89 114
3252 3933 3822 3110 2680 3070 3612 3633 2737 2503 2728 3403 3341 2643 2254 2492 3172 3185 2474 1925 2219 3015 2876 2193 1697 1984 2758 2715 1883 1464 1836 2401 2421 1849 1158 1496 2122 2301 1626 1051 1387 1906 2100 1261 755 84 83 100 101 114 94 93 95 107 117 80 86 88 90 82 100 89 110 95 117 96 91 106 109 82 91 86 82 100 112 88 117 100 114 84 96 113 102 106 88 86 97 91 101 112 84 119 91 95 118 109 120 113 114 95 80 107 108 111 113 119 115 105 114 81 116 92 97 106 105 119 91 88 81 104 90 94 102 98 92 81 92 81 116 90 102 107 89 110 90 98 120 102 90 115 120 94 95 99 92 87 96 111 99 89 99 96 116 107 93 80 103 80 80 92 83 89 102 87 80 119 99 103 91 102 118 117 102 109 86 109 80 120 95 89 85 108 95 103 117 100 91 97 110 100 112 95 84 116 99 85 108 114 120 86 95 104 116 100 81 83 114 106 98 87 113 99 117 120 93 101 112 98 108 82 112 115 114 87 87 116 101 104 101 85 91 111 92 119 115 89 91 115 90 106 119 112 86 104 108 83 98 93 95 96 103 114 99 84 112 106 107 86 95 100 105 97 100 94 84 120 95 94 118 109
3016 3635 3487 2615 2345 2765 3253 3176 2491 2079 2545 3023 2923 2309 1820 2167 2736 2842 2037 1533 1873 2516 2582 1874 1443 1803 2339 2376 1708 1032 1384 2051 2144 1462 979 1178 1920 1817 1212 578 999 1651 1670 1028 506 697 119 118 115 106 95 99 106 93 108 90 98 116 93 116 100 113 106 116 95 93 85 92 86 98 116 88 111 90 100 97 95 104 115 90 87 88 118 96 119 110 91 83 95 102 100 104 116 86 88 111 102 115 90 101 85 81 115 120 94 99 91 92 109 97 89 93 98 84 88 112 101 113 80 91 87 115 89 106 112 81 100 108 83 83 118 106 95 109 86 107 103 105 109 104 83 97 88 106 112 81 83 99 85 99 120 86 107 119 111 97 88 84 87 119 104 93 110 108 90 103 99 98 80 96 104 81 83 98 96 81 82 87 81 117 83 82 110 99 118 116 115 81 120 113 88 117 86 93 89 99 102 101 110 107 81 111 111 84 102 119 110 115 107 117 109 102 83 115 111 98 98 111 103 94 98 98 81 91 108 85 87 93 103 119 118 85 87 108 91 80 118 104 114 105 82 110 114 105 108 104 119 111 83 106 120 99 106 117 119 91 86 113 87 106 118 110 90 102 87 80 92 94 88 84
2603 3174 2947 2278 1854 2297 2887 2716 2012 1587 2038 2670 2515 1941 1450 1753 2323 2398 1614 1188 1617 2121 2152 1329 1044 1369 1924 1954 1308 740 1070 1652 1618 939 564 904 1507 1447 841 195 570 1278 1196 661 100 223 921 92 84 84 103 92 112 99 107 98 96 104 112 111 105 96 98 102 114 108 115 96 99 81 89 80 91 116 101 95 120 112 119 104 85 116 89 90 80 81 97 106 86 85 81 84 105 105 104 103 96 118 88 118 114 90 111 114 83 85 105 108 95 81 81 80 99 84 94 80 101 113 100 112 93 87 96 84 98 94 106 87 114 96 96 91 103 118 100 105 92 99 90 100 85 107 102 109 102 99 118 88 82 112 113 108 80 86 88 84 117 103 117 85 96 101 99 85 106 80 105 107 113 102 106 116 106 106 104 109 103 114 104 96 93 104 120 108 109 103 114 118 115 80 104 87 95 98 115 109 109 99 117 84 106 97 87 81 84 99 103 88 101 101 104 115 104 97 80 83 83 106 94 82 91 118 89 86 102 84 115 89 99 115 88 118 114 81 86 95 85 103 118 100 84 83 89 104 86 83 82 109 102 99 90 115 87 82 83 115 97 100 104 96 86 91 86 104 112 100 119 110 109 87
2554 3005 2891 2252 1807 2239 2819 2808 1937 1556 2067 2535 2530 1780 1418 1796 2319 2310 1665 1040 1479 2142 2096 1462 900 1284 1932 1813 1092 576 965 1577 1614 1037 505 733 1324 1335 797 130 529 1095 1216 466 100 160 824 1047 113 110 88 85 120 97 109 84 98 90 89 109 88 110 81 98 115 83 108 96 91 106 99 111 111 115 85 111 108 111 112 92 94 102 110 101 94 112 110 112 80 94 114 120 104 106 82 105 90 103 94 114 113 99 113 102 108 86 104 80 100 81 101 86 85 120 95 80 110 106 99 108 99 90 107 82 90 105 116 86 93 105 120 102 91 107 118 94 94 87 88 84 118 90 108 93 106 114 115 98 90 94 107 91 93 90 100 107 85 83 117 112 111 94 94 119 111 85 104 115 105 80 102 90 114 107 119 117 110 106 117 98 99 97 115 97 118 94 86 90 91 115 97 101 104 110 116 84 111 112 106 112 120 111 82 100 80 101 120 104 90 101 82 90 97 102 91 117 104 113 106 103 115 115 84 95 114 115 119 101 120 112 82 94 105 98 113 115 103 117 108 99 100 93 83 93 89 89 81 92 118 97 117 106 84 86 91 104 106 95 97 89 83 83 115 89 92 110 120 87 101 97
2950 3552 3245 2622 2205 2574 3322 3086 2422 1871 2312 2995 2836 2087 1810 2217 2733 2598 2037 1449 1822 2593 2413 1750 1180 1676 2160 2199 1594 957 1472 2060 2015 1393 828 1070 1721 1697 1191 617 911 1427 1524 999 279 670 1189 1396 771 103 84 112 111 96 89 107 105 113 111 114 111 111 116 102 93 114 86 94 116 117 99 99 82 104 98 85 80 81 92 97 90 80 80 110 120 115 113 99 81 95 105 101 105 84 113 110 99 81 102 110 80 114 83 95 91 97 99 81 80 95 108 97 105 91 109 109 111 93 116 111 90 103 81 115 81 100 103 96 81 109 104 97 97 80 109 98 88 116 92 115 80 101 118 89 111 95 115 112 85 82 119 104 84 92 87 87 87 86 119 100 106 84 81 107 120 82 82 96 118 102 88 88 111 87 99 110 86 91 95 115 108 120 86 117 89 88 107 102 80 107 94 97 109 108 87 114 107 101 84 80 81 111 109 101 115 90 107 80 112 82 80 109 104 119 120 108 92 103 80 88 104 82 120 92 115 105 120 105 120 102 95 116 97 119 95 96 95 111 87 103 88 109 82 90 109 101 81 106 84 90 112 120 98 118 87 96 84 116 90 106 90 84 120 119 104 92 94 93 85 81
3303 4015 3823 3074 2762 3132 3690 3710 2886 2488 2963 3524 3375 2608 2260 2538 3162 3240 2395 2017 2306 3041 3033 2323 1732 2075 2824 2649 2029 1513 1968 2452 2572 1910 1257 1730 2229 2343 1580 1041 1481 1937 2173 1393 851 1224 1861 1789 1197 113 102 83 103 100 106 111 113 81 108 117 84 98 112 104 106 95 95 103 84 93 100 114 114 115 87 84 100 82 86 96 114 98 89 80 105 116 82 107 95 111 109 110 119 117 115 86 96 112 89 90 101 96 89 111 94 108 110 80 96 82 85 91 106 95 111 82 100 113 109 92 100 99 106 101 88 85 113 119 88 110 115 81 106 104 120 108 111 103 113 112 110 109 102 81 120 81 88 84 98 114 91 108 90 91 104 120 100 105 113 120 114 80 92 99 86 119 82 99 113 106 85 104 109 81 108 108 93 110 95 87 97 83 105 106 115 117 110 86 114 80 115 117 119 120 101 105 84 91 94 104 90 100 87 96 119 86 111 111 80 88 119 101 112 95 82 103 87 117 120 82 111 106 109 119 94 105 105 101 102 106 93 104 80 108 103 120 103 110 98 87 96 83 113 101 86 87 82 84 80 94 80 118 94 106 110 119 108 97 107 83 93 106 117 97 90 107 84 117 87 98
3539 4104 3950 3357 2950 3400 3917 3841 3064 2741 3061 3641 3501 2902 2350 2785 3358 3301 2738 2230 2650 3171 3246 2377 1964 2352 3028 2854 2323 1707 1993 2784 2660 2098 1551 1809 2430 2550 1792 1225 1585 2133 2252 1672 1077 1381 2059 2092 1461 783 85 93 97 115 86 104 86 102 82 86 113 105 110 98 120 98 118 94 112 80 111 95 102 90 99 88 82 108 91 89 120 93 112 109 92 88 107 85 115 116 117 95 115 108 89 109 101 84 115 107 112 112 87 87 89 89 101 116 115 111 97 85 111 109 86 101 100 117 107 107 104 87 114 109 113 92 82 98 85 113 91 120 106 118 82 85 92 98 89 88 101 117 91 120 116 117 87 120 101 119 116 106 98 96 92 111 95 87 101 96 104 89 118 96 108 84 104 95 98 99 96 94 92 106 108 87 87 98 106 96 109 109 98 116 103 108 91 84 106 84 120 88 108 101 100 92 81 84 87 107 112 90 113 109 86 87 105 92 107 117 117 117 81 91 89 103 103 105 112 98 101 101 117 96 81 115 80 112 85 103 109 118 112 104 103 116 108 108 116 91 85 116 108 94 118 98 86 119 94 81 113 113 86 81 98 111 108 115 119 117 117 117 94 81 83 103 107 112 97 97
3369 3920 3766 3019 2710 3083 3731 3584 2817 2505 2841 3410 3421 2676 2123 2491 3274 3210 2311 1987 2384 2925 2969 2156 1657 2011 2627 2695 2002 1436 1832 2473 2532 1814 1231 1625 2309 2149 1643 1125 1357 1971 1940 1395 790 1165 1726 1856 1187 515 906 89 114 109 107 94 85 101 89 90 119 116 95 106 119 103 114 106 106 92 98 116 109 112 83 85 117 115 86 89 96 109 91 90 84 99 94 111 116 110 110 95 105 114 101 91 84 92 119 101 98 80 104 87 111 114 119 106 84 106 91 80 117 98 113 86 107 108 94 99 99 109 86 119 84 118 108 107 94 93 111 109 93 85 81 101 116 86 90 86 109 97 92 107 99 110 80 115 102 115 101 102 106 92 80 106 110 82 80 103 112 107 83 84 116 101 82 106 118 96 86 103 114 93 100 119 84 105 114 95 115 106 83 119 104 97 114 102 102 113 105 102 106 94 115 104 119 113 87 83 92 82 88 95 91 80 105 104 118 110 84 117 102 94 98 87 110 119 89 118 85 82 113 86 91 100 103 108 95 87 100 116 92 103 90 84 104 120 101 85 84 95 96 113 115 114 108 116 110 94 80 114 101 103 90 113 85 82 116 82 100 114 91 105 115 82 85 99 89 118
2948 3486 3419 2675 2233 2651 3295 3192 2487 1987 2452 2951 2930 2107 1783 2234 2678 2763 1888 1555 1939 2515 2484 1718 1304 1706 2344 2256 1502 1031 1371 2068 1989 1386 828 1233 1770 1839 1194 654 804 1527 1586 824 310 582 1233 1344 742 100 357 957 89 111 115 108 83 110 103 106 104 84 100 84 101 112 87 110 103 110 97 89 118 91 118 90 88 97 114 82 117 82 99 95 82 100 95 85 119 91 120 117 96 87 100 98 96 107 99 115 103 120 118 100 95 109 119 90 116 93 84 98 115 117 110 97 85 89 113 107 84 109 95 82 120 114 118 120 104 87 101 82 114 86 85 110 91 90 109 98 98 103 117 98 102 89 101 94 94 105 91 91 101 106 120 99 100 107 116 100 83 89 102 108 118 82 115 102 105 81 103 114 119 95 120 93 104 111 93 86 88 120 94 104 104 120 102 85 82 99 97 86 109 92 100 102 84 98 112 120 95 84 86 95 120 80 101 82 80 104 88 119 119 110 98 120 81 120 117 107 82 98 91 92 103 82 109 103 83 108 97 116 104 90 109 114 102 112 107 97 92 115 85 109 115 100 118 94 113 102 83 114 95 117 91 100 99 82 92 111 83 109 120 113 85 105 85 112 112 90
2699 3191 3146 2321 2059 2381 2951 2893 2257 1742 2293 2729 2710 2002 1570 1918 2573 2466 1854 1313 1613 2266 2190 1602 1031 1444 2023 1978 1397 959 1287 1750 1917 1146 628 1000 1553 1583 944 514 736 1447 1393 751 178 452 1152 1274 512 100 139 789 1042 100 117 97 88 92 113 85 112 110 103 99 103 81 86 84 80 89 113 119 112 112 83 111 106 98 116 93 116 113 102 102 88 111 104 116 92 102 118 109 89 109 81 112 81 114 99 90 102 98 113 119 91 81 107 96 101 91 108 120 83 107 111 95 104 119 88 114 99 115 92 96 114 101 116 97 120 82 95 85 84 92 114 91 85 112 115 114 112 102 115 117 92 102 97 113 84 95 114 89 117 115 81 104 85 116 82 95 111 94 97 83 119 113 119 110 102 95 103 111 88 109 80 86 87 120 106 82 92 106 119 89 80 109 110 106 108 103 81 99 93 112 98 109 97 119 80 87 97 97 97 106 101 108 97 100 100 105 115 91 95 111 115 80 117 104 97 106 87 100 87 100 113 95 117 110 100 107 117 92 92 91 81 115 109 108 83 108 110 95 113 103 101 105 87 111 86 118 94 100 110 109 103 92 80 105 80 85 113 112 86 92 85 88 89 99 82 105
2888 3658 3392 2733 2207 2728 3354 3269 2417 2155 2547 3165 2976 2358 1881 2147 2920 2741 2075 1531 1959 2524 2631 1857 1315 1681 2282 2313 1587 1094 1435 2084 2063 1419 963 1260 1901 1872 1298 650 966 1553 1678 902 454 828 1408 1494 710 222 571 1080 1300 647 99 88 117 102 82 81 85 104 114 94 119 81 81 120 107 99 88 120 98 93 88 101 90 90 120 94 107 118 95 114 104 114 82 87 81 100 114 97 97 116 90 88 108 83 115 107 100 118 113 92 92 105 105 87 107 87 100 115 114 110 112 117 86 84 91 114 95 106 88 91 98 81 97 87 109 85 113 86 115 98 91 93 120 105 92 92 113 85 80 113 119 115 85 104 104 83 98 98 107 90 82 119 112 99 117 112 84 110 96 107 87 98 90 80 95 95 105 103 104 101 108 81 100 95 113 108 92 106 84 81 92 82 101 98 94 87 102 83 92 94 120 94 83 93 115 111 100 87 87 113 83 112 100 87 80 90 91 116 111 93 90 87 109 112 83 91 84 93 81 106 95 115 102 110 112 84 119 111 106 101 116 112 109 88 95 80 116 99 93 118 82 104 96 104 97 107 108 110 99 99 84 80 80 110 86 94 107 111 85 94 91 104 84 103 115 102
3586 4122 4038 3180 2782 3250 3882 3772 2911 2685 2927 3650 3558 2883 2331 2722 3450 3337 2492 2129 2588 3075 3113 2417 1836 2297 2953 2894 2231 1637 1961 2534 2645 1885 1499 1845 2396 2419 1708 1185 1560 2060 2146 1516 923 1351 1970 2053 1361 807 1059 1683 1777 1196 118 116 115 111 115 100 98 103 90 116 104 113 114 84 106 99 86 81 109 92 95 91 108 112 114 120 120 84 89 109 92 120 95 110 92 117 106 118 84 88 81 99 90 111 117 95 99 91 101 86 96 116 114 96 111 87 86 106 93 92 105 81 116 113 109 120 93 100 83 109 120 103 108 101 83 89 111 84 95 89 84 80 94 96 105 99 109 99 89 115 102 101 90 112 85 104 100 101 103 108 119 101 82 95 120 112 119 83 83 119 86 95 113 119 84 115 88 120 85 97 95 103 119 87 104 110 81 113 105 107 104 115 110 91 101 118 95 84 86 91 101 93 89 112 106 114 118 100 90 104 105 104 106 112 98 94 110 114 107 119 116 113 109 103 93 90 111 101 86 100 120 93 104 118 113 91 103 95 105 104 81 110 111 89 92 92 113 80 87 110 81 114 98 97 112 119 99 85 118 99 109 115 118 104 94 96 99 108 85 109 120 80 93 89 80 98
3811 4424 4234 3516 3126 3518 4224 4082 3297 2880 3359 3916 3739 3062 2583 3051 3691 3611 2843 2357 2812 3351 3449 2591 2211 2491 3273 3212 2555 1922 2260 2896 2881 2186 1668 2147 2689 2815 2010 1593 1911 2386 2539 1829 1360 1607 2266 2349 1570 1141 1338 1936 2010 1516 898 80 113 81 102 112 87 93 86 108 85 90 86 100 92 93 119 89 86 119 116 115 120 101 102 87 81 115 96 102 89 87 99 92 95 92 84 95 83 105 82 89 101 95 91 87 87 97 96 100 95 96 112 117 115 97 91 103 94 112 106 103 106 119 111 114 98 91 118 103 119 93 115 114 85 85 93 113 94 93 109 106 112 101 92 93 83 106 95 95 102 93 84 113 95 102 111 83 107 90 103 85 99 105 83 117 93 115 116 111 103 83 102 93 87 112 118 82 91 88 118 89 114 98 114 86 98 94 118 110 91 93 104 113 86 81 85 99 94 80 82 92 111 101 115 84 104 85 115 105 91 84 101 110 92 83 118 92 85 82 105 111 115 90 116 111 92 107 114 99 93 91 95 98 95 87 111 97 109 103 113 105 111 92 111 114 98 119 83 112 113 94 84 104 92 96 104 120 87 80 104 118 93 117 119 95 85 101 85 98 87 82 87 93 112 97
3636 4172 4130 3392 2953 3473 4010 3946 3084 2846 3168 3814 3622 3044 2622 3019 3580 3516 2856 2345 2703 3381 3214 2583 1992 2387 3065 2941 2264 1749 2174 2833 2774 2068 1548 1902 2539 2663 1838 1362 1625 2389 2405 1632 1141 1529 2182 2104 1581 870 1227 1919 1871 1185 765 846 106 112 108 90 106 84 118 87 83 84 86 83 105 107 91 116 86 83 93 91 80 117 86 80 107 118 80 89 87 96 116 106 87 110 114 83 80 88 101 102 85 80 119 119 112 85 111 92 87 113 119 85 108 94 84 100 112 92 82 87 100 102 93 117 109 80 101 88 100 82 83 87 98 97 102 92 102 97 111 100 96 116 107 95 102 94 95 98 116 84 85 105 114 95 116 113 96 95 86 108 84 111 93 113 112 96 105 101 120 89 106 95 83 87 116 109 93 117 100 83 93 120 115 85 100 84 105 102 105 83 98 103 111 105 100 95 95 105 117 106 99 117 105 117 96 95 90 113 116 109 120 95 116 112 98 89 108 80 105 82 106 118 120 96 107 83 117 94 114 80 90 89 107 100 90 111 98 91 84 96 98 84 90 95 118 118 83 101 83 81 110 103 107 86 85 90 103 87 112 83 116 114 115 90 98 94 99 88 108 85 99 110 120 100
3160 3818 3616 2876 2594 3028 3518 3446 2817 2292 2669 3254 3189 2548 2048 2568 3056 3011 2242 1846 2266 2771 2871 2162 1623 2067 2556 2544 1930 1383 1720 2295 2331 1766 1174 1477 2069 2105 1447 952 1187 1916 1962 1361 639 1046 1619 1712 1084 591 702 1406 1458 819 350 512 1084 104 117 112 114 109 115 114 107 93 114 103 112 110 84 85 83 85 118 116 88 105 95 107 91 119 101 99 108 114 85 101 111 101 87 111 120 114 92 109 108 119 98 97 110 92 97 107 120 80 114 117 83 107 108 96 118 93 92 109 80 89 118 90 112 101 113 119 107 91 85 108 89 107 88 103 119 116 116 103 104 82 108 118 88 104 117 82 101 80 101 116 84 85 99 99 103 116 94 117 110 91 110 80 83 115 92 106 107 100 99 120 88 104 101 84 102 83 91 100 102 101 110 98 103 103 98 115 108 82 83 120 105 84 100 119 109 111 100 111 102 105 94 120 105 102 115 99 86 106 87 95 106 95 84 91 115 116 84 93 109 92 98 100 87 107 92 90 87 118 105 95 112 83 109 89 92 91 85 93 86 84 96 85 114 111 104 120 92 98 111 100 92 113 109 93 110 110 117 119 94 86 98 99 80 120 81 101 85 98 113 117 82 101
2968 3632 3397 2685 2261 2752 3248 3266 2384 1976 2382 3043 2955 2330 1750 2290 2729 2710 1958 1631 1923 2585 2618 1806 1281 1750 2299 2242 1657 1098 1553 2172 2159 1409 829 1188 1754 1920 1116 580 881 1675 1670 912 477 626 1265 1408 743 282 553 1083 1211 567 100 213 898 946 89 104 83 117 82 117 97 92 85 113 89 102 117 84 111 103 85 84 105 87 88 106 118 80 106 118 119 117 108 96 96 101 110 80 85 116 107 111 82 106 97 89 105 96 117 113 120 107 112 98 106 86 96 105 120 83 98 110 85 114 91 104 88 106 83 86 101 86 83 81 112 85 113 89 83 94 91 109 90 113 83 117 100 117 112 108 96 84 105 112 109 81 117 102 116 84 105 105 97 93 90 92 85 95 102 90 82 87 105 83 108 102 101 95 96 117 120 115 92 106 112 95 86 112 115 87 84 111 111 93 118 83 115 91 102 101 107 89 96 100 114 99 119 98 115 112 108 97 91 97 85 98 105 104 108 83 119 113 83 114 81 98 93 95 91 116 86 93 100 97 96 113 92 99 92 84 96 117 114 112 88 115 97 102 117 83 90 112 86 84 83 110 81 98 111 105 83 85 101 108 100 113 110 101 118 89 107 93 105 115 105 113
3046 3712 3466 2733 2515 2807 3430 3260 2639 2177 2556 3283 3107 2491 1952 2273 2992 2987 2216 1706 2129 2789 2595 1982 1471 1824 2541 2403 1730 1221 1514 2298 2276 1520 943 1416 2039 2082 1432 800 1100 1742 1847 1206 558 758 1507 1657 920 291 615 1221 1400 686 222 392 934 1161 415 112 88 92 101 103 83 85 96 118 82 82 86 105 102 83 119 103 108 118 91 112 83 104 119 110 88 103 120 112 83 99 113 112 105 80 103 113 92 115 119 102 95 80 115 104 86 91 117 105 100 114 92 115 110 91 95 99 107 110 101 98 80 89 104 88 91 114 82 89 116 94 83 101 117 97 118 89 118 95 115 101 116 88 117 95 86 108 93 86 100 120 96 105 95 95 101 100 96 117 105 102 91 80 113 118 102 112 80 96 85 117 120 108 81 106 101 100 96 101 116 88 88 112 80 82 81 115 103 110 88 114 89 110 80 118 115 91 114 87 81 104 94 110 83 104 90 94 115 91 120 85 83 101 96 114 115 95 104 98 85 95 120 81 109 112 103 102 110 83 112 100 119 81 120 82 105 111 87 95 119 98 96 85 109 86 95 96 81 83 108 95 105 99 92 104 83 111 111 97 98 84 101 112 116 92 106 92 84 119 104 119
3493 4151 3956 3322 2871 3309 3948 3873 3144 2758 3065 3653 3706 2890 2442 2829 3415 3301 2606 2214 2577 3169 3122 2480 2027 2377 2957 3016 2328 1786 2002 2797 2783 2054 1511 1834 2563 2550 1877 1371 1638 2240 2255 1570 1133 1263 1979 2040 1345 809 1000 1668 1776 1101 658 766 1517 1531 1039 97 113 97 96 80 91 119 82 80 84 120 90 93 108 92 82 107 102 93 107 97 99 111 96 84 96 120 110 81 108 110 109 109 89 106 91 98 101 114 110 82 93 89 101 89 98 100 83 120 81 105 90 97 100 87 116 111 80 83 93 115 82 105 96 98 113 100 117 83 107 99 96 82 103 80 118 94 111 80 101 100 81 96 97 116 118 117 115 104 99 99 106 116 100 109 107 96 96 87 108 96 95 91 108 91 91 120 97 115 82 119 120 108 90 120 103 119 116 109 89 93 104 114 100 104 112 108 116 117 88 119 83 89 84 84 93 103 85 112 115 118 86 82 82 107 109 115 103 84 98 84 87 104 109 92 97 89 104 108 116 102 104 92 107 118 102 93 91 95 112 116 119 118 97 103 110 98 98 101 106 106 120 96 111 111 86 102 117 96 112 101 116 105 109 95 116 119 117 88 96 118 110 102 112 86 116 104 114 87 105 113
4038 4580 4423 3687 3300 3785 4303 4180 3563 3143 3507 4035 4098 3373 2820 3189 3841 3895 2994 2737 3002 3588 3621 2778 2413 2772 3419 3419 2597 2233 2465 3065 3064 2481 1888 2233 2974 2883 2166 1755 1979 2593 2689 1951 1447 1691 2436 2531 1782 1351 1552 2223 2332 1617 1128 1196 1957 2070 1381 751 90 93 117 83 87 81 118 83 113 84 116 102 114 83 106 86 89 107 113 87 97 112 86 116 95 90 106 102 80 120 86 110 111 97 94 97 80 107 91 119 109 116 110 106 91 118 92 113 115 103 117 117 88 113 87 100 80 109 109 90 101 99 93 80 108 108 117 101 82 115 108 105 90 87 119 111 119 110 104 83 94 93 113 106 98 91 81 104 102 117 119 100 118 89 93 112 84 100 91 101 95 112 102 100 113 115 85 105 116 119 97 95 88 85 80 120 119 111 93 82 113 87 111 90 113 115 111 109 88 92 115 115 97 101 101 87 113 114 110 103 108 103 113 89 111 117 82 97 85 117 107 85 85 110 85 82 112 104 105 111 102 119 103 117 116 87 102 85 96 97 100 117 111 102 81 100 107 97 89 118 112 101 106 85 81 109 99 92 115 98 85 85 86 93 90 115 109 91 96 104 92 113 99 103 116 94 110 109 111 81
4101 4605 4390 3694 3272 3840 4418 4274 3491 3024 3504 4031 4049 3268 2927 3203 3796 3863 3089 2567 2962 3696 3636 2920 2466 2721 3305 3339 2589 2105 2479 3101 3122 2398 1954 2175 2871 2912 2277 1644 1928 2662 2756 2096 1455 1820 2464 2499 1907 1161 1451 2160 2231 1614 944 1215 1903 2121 1443 786 990 100 99 105 83 106 95 111 97 80 85 114 87 90 85 119 101 101 120 90 112 88 115 90 98 108 98 93 97 81 80 101 108 118 84 113 81 89 106 110 96 120 88 84 116 100 102 96 99 93 94 92 119 85 105 96 96 85 89 84 80 119 80 93 103 89 81 90 82 81 107 87 108 118 82 99 96 119 100 120 108 110 106 104 115 99 112 88 92 97 111 84 115 113 93 84 117 84 112 88 112 106 92 91 114 105 114 118 93 115 108 84 91 90 87 107 96 112 95 103 117 111 113 111 116 96 120 118 104 101 86 86 118 81 101 106 111 84 110 115 87 104 116 103 92 101 80 85 88 99 84 86 91 98 102 114 97 99 92 82 110 107 105 101 89 89 83 101 93 108 103 91 90 96 89 117 80 101 101 112 100 89 84 83 81 120 83 92 91 120 84 104 91 98 103 109 99 93 94 119 112 115 110 83 116 102 87 83 118 84
3715 4268 4031 3421 2973 3297 3994 3897 3125 2758 3125 3817 3586 2987 2539 2769 3467 3405 2718 2319 2654 3275 3237 2501 1934 2346 2970 3025 2354 1732 2165 2749 2711 2013 1514 1942 2529 2593 1788 1378 1685 2322 2408 1684 1072 1338 2009 2107 1412 809 1185 1804 1916 1152 646 811 1509 1640 918 330 680 1337 87 96 96 104 104 108 110 108 91 101 113 118 117 113 84 85 86 98 102 95 80 83 85 101 97 105 88 95 95 110 107 105 106 97 109 120 95 86 86 115 84 96 115 99 103 106 85 83 120 90 116 115 109 116 99 110 95 83 81 95 105 99 94 116 81 89 89 95 108 91 86 96 87 120 106 82 81 90 106 104 93 84 85 104 92 115 91 109 106 107 112 110 117 101 90 84 93 115 117 90 87 87 104 93 105 92 108 99 91 85 100 93 99 118 100 86 101 120 85 82 95 107 118 95 98 119 120 84 82 105 81 110 85 118 95 103 88 90 80 117 92 118 102 113 94 82 120 92 117 95 89 103 82 96 108 90 89 91 86 88 99 93 87 82 80 84 102 112 99 119 92 88 112 115 96 114 106 84 83 112 100 100 103 114 90 88 103 117 92 108 91 89 103 85 96 103 95 87 85 92 82 89 87 107 118 92 118 99
3208 3891 3728 2912 2558 2946 3636 3478 2647 2405 2654 3293 3193 2438 2014 2497 3156 2940 2396 1917 2321 2848 2774 2112 1617 2063 2527 2574 1845 1499 1811 2395 2340 1597 1126 1511 2224 2161 1385 1046 1198 1969 2036 1297 791 949 1648 1699 1034 556 699 1311 1558 877 250 546 1078 1345 588 100 258 924 974 84 96 89 107 92 109 118 116 80 89 102 114 86 116 108 106 90 110 117 102 115 119 110 91 91 90 109 80 117 105 87 117 100 84 107 119 111 110 97 114 96 114 98 86 94 113 112 105 111 109 108 105 114 90 100 120 90 105 111 111 108 99 90 97 101 102 83 105 113 120 109 100 99 108 110 93 116 99 109 118 92 85 107 114 115 102 105 91 95 85 104 93 120 95 99 96 108 81 92 106 85 81 96 91 94 87 93 108 98 114 92 110 118 101 94 113 100 83 96 110 82 99 106 117 111 80 107 81 84 90 116 105 83 85 102 101 80 97 96 81 92 101 118 81 83 100 119 117 113 80 117 92 96 98 113 86 120 112 82 105 90 92 86 87 107 84 89 109 82 108 92 107 109 119 111 109 89 105 98 101 101 102 114 108 112 100 120 82 119 119 81 83 105 83 120 92 93 114 116 98 113 103 84 102 104 99 109
3230 3822 3603 2894 2511 3042 3605 3440 2670 2343 2708 3288 3358 2620 2178 2465 3023 3067 2235 1913 2267 2878 2807 2024 1702 1910 2691 2536 1836 1400 1812 2348 2435 1782 1124 1576 2170 2135 1540 980 1275 1884 1869 1323 759 1107 1573 1792 995 607 702 1402 1418 842 355 553 1077 1301 623 100 271 907 1029 472 107 98 93 92 110 87 104 96 100 87 116 95 95 84 105 85 109 104 86 115 119 114 91 93 117 88 114 101 80 90 86 86 118 102 95 114 81 96 120 98 83 86 109 98 87 98 104 84 110 93 106 98 115 98 80 115 100 92 114 108 108 119 102 95 116 81 92 107 101 100 116 106 83 109 113 83 92 119 93 98 89 116 92 90 94 92 109 107 88 95 104 96 81 89 101 81 92 110 104 83 87 97 94 99 83 83 81 117 106 83 114 101 112 119 98 120 89 91 87 85 115 85 85 111 104 108 120 114 97 87 114 115 105 83 90 90 114 88 108 87 111 99 101 83 103 99 106 102 118 105 92 83 117 80 106 114 99 87 100 87 85 120 110 116 110 111 111 109 108 102 108 93 88 86 106 98 96 87 95 80 98 109 94 80 97 90 98 94 103 118 100 118 80 109 94 86 111 88 92 80 85 101 85 120 100 118
3755 4308 4135 3341 2912 3468 4116 3910 3233 2867 3143 3786 3679 3012 2590 2910 3564 3487 2809 2218 2681 3311 3299 2564 2075 2379 3018 3085 2432 1790 2093 2854 2814 2076 1655 1969 2515 2648 2008 1382 1681 2256 2428 1630 1197 1470 2031 2244 1520 1004 1256 1759 1867 1259 807 891 1660 1673 1078 568 735 1251 1515 805 98 106 113 108 83 88 106 116 95 111 119 105 80 116 118 86 83 106 83 118 119 85 106 88 109 101 85 82 100 105 85 91 86 113 111 116 106 103 93 95 115 94 106 90 107 80 103 119 83 114 91 115 104 117 88 84 100 100 80 108 111 92 91 91 105 92 83 107 91 104 109 103 82 106 98 97 87 102 118 103 89 82 80 81 90 84 119 119 95 87 90 117 114 117 111 95 94 99 115 101 91 100 107 94 106 111 115 103 88 92 109 93 100 90 110 85 87 93 115 100 110 94 110 94 98 116 103 87 91 100 83 87 85 114 119 83 111 85 104 107 116 118 114 98 94 119 97 103 81 85 84 98 96 114 80 112 85 94 95 96 109 106 117 104 100 119 97 93 117 108 92 83 120 83 92 98 117 113 109 92 89 97 83 95 113 108 111 119 105 104 111 107 103 116 90 114 115 110 109 105 93 109 82 91 101 114
4170 4692 4678 3925 3510 3872 4587 4332 3658 3301 3704 4200 4239 3546 3085 3364 3998 4026 3156 2848 3136 3839 3812 2944 2567 2963 3535 3485 2722 2269 2671 3227 3297 2587 2177 2336 2975 3167 2369 1862 2079 2741 2826 2223 1733 1868 2611 2563 1996 1494 1720 2319 2412 1805 1208 1491 2018 2276 1524 998 1241 1901 1998 1330 699 83 90 105 108 107 100 108 112 109 95 119 100 107 81 114 94 115 80 103 104 82 100 85 100 96 109 120 102 112 109 91 91 114 107 110 102 113 85 93 116 90 82 120 82 119 106 81 85 82 115 114 96 88 101 114 103 105 89 87 112 116 93 94 108 110 84 88 84 85 90 110 103 107 117 108 99 101 110 119 95 106 111 108 102 89 108 102 92 83 113 117 111 117 101 93 97 115 110 102 94 98 96 119 90 107 83 114 92 91 115 88 101 108 101 120 116 87 81 84 86 84 94 116 84 107 96 111 93 103 108 105 120 91 112 88 109 97 88 101 102 93 108 115 113 120 107 105 109 83 101 87 84 86 108 105 116 82 104 89 80 95 100 117 82 106 118 88 94 87 95 104 92 82 80 93 91 116 93 108 94 92 93 86 88 86 97 119 106 84 102 101 85 108 90 120 110 103 103 113 81 111 119 83 111 93
4324 4784 4792 3915 3632 4011 4559 4455 3868 3446 3698 4453 4319 3559 3229 3518 4214 4138 3306 2921 3378 3956 3825 3236 2782 2998 3723 3611 2867 2505 2812 3483 3428 2780 2204 2605 3090 3155 2527 2020 2363 2918 2990 2328 1708 2035 2621 2701 2180 1523 1757 2544 2584 1951 1329 1509 2278 2311 1680 1159 1262 2009 2014 1534 950 1001 84 83 81 92 116 112 117 92 84 83 108 112 113 95 88 106 82 89 83 112 85 101 94 85 81 88 97 104 102 84 104 113 118 85 82 92 90 103 120 87 97 118 94 93 97 103 119 96 100 94 94 113 105 85 110 116 82 95 86 116 112 91 106 95 109 113 116 115 120 108 92 97 107 110 108 93 89 103 86 97 111 90 107 96 120 105 118 102 92 105 83 93 119 106 82 107 101 118 101 91 84 98 108 100 98 87 90 102 90 100 82 84 90 103 116 117 85 97 88 116 97 118 108 118 80 97 119 114 96 107 101 91 96 106 94 116 95 87 110 85 112 93 110 83 108 89 110 110 115 107 81 101 105 101 112 89 93 106 90 112 96 119 80 84 118 94 106 108 91 87 83 108 85 98 107 94 113 115 99 107 119 107 115 116 87 115 111 107 100 84 81 92 84 92 98 86 106 113 105 95 115 116 115 85
3890 4524 4466 3750 3380 3824 4348 4245 3408 3065 3539 3998 4083 3217 2906 3172 3803 3882 3166 2681 2963 3696 3491 2932 2422 2798 3437 3324 2608 2167 2540 3028 3121 2529 1945 2143 2856 2974 2302 1623 2073 2617 2680 1951 1547 1829 2342 2548 1732 1175 1512 2133 2282 1541 1056 1322 1870 1945 1377 730 1055 1612 1799 1182 604 732 1359 118 94 102 106 104 108 89 89 110 106 107 116 116 117 83 109 80 111 116 109 108 87 115 114 113 84 118 88 94 81 98 88 120 111 112 100 90 90 119 118 86 108 87 109 86 102 96 102 100 82 85 81 87 112 91 96 81 86 120 98 102 101 120 89 118 109 95 117 85 98 105 113 105 113 90 98 83 102 115 116 99 106 80 102 112 86 115 115 96 95 83 104 91 120 85 113 99 91 104 81 80 98 96 86 120 107 100 81 102 84 88 102 112 112 80 87 105 87 91 113 82 101 99 114 118 110 83 102 94 118 89 119 105 84 83 102 89 109 109 114 91 81 84 97 95 106 80 97 99 86 85 110 115 117 100 87 109 84 103 98 91 116 102 113 114 118 80 109 117 105 92 82 93 84 97 120 91 118 96 94 92 114 89 110 108 91 103 102 97 86 113 86 98 110 110 97 84 91 92 82 110 106 89
3654 4078 3975 3234 2965 3338 3845 3793 3032 2663 3012 3635 3489 2932 2360 2828 3486 3406 2710 2166 2504 3111 3225 2515 1937 2321 3037 2978 2252 1728 1983 2715 2772 1966 1412 1818 2420 2468 1758 1310 1640 2255 2255 1614 1142 1303 1888 2108 1289 849 1073 1668 1762 1109 659 869 1515 1613 919 414 643 1180 1305 646 142 407 950 1242 96 118 113 114 97 80 120 83 105 119 95 88 95 119 92 101 95 86 95 114 107 89 91 116 118 110 114 113 110 110 112 120 90 89 117 112 116 98 80 105 102 105 99 111 83 105 116 117 94 83 80 105 81 90 83 86 103 110 114 87 87 98 100 88 116 107 108 84 108 80 87 114 93 85 86 102 97 94 116 107 94 83 98 120 100 94 115 116 106 104 94 109 116 117 81 88 89 112 120 80 119 120 85 117 95 88 109 99 101 109 97 119 93 114 114 89 104 116 114 116 111 90 88 102 112 107 98 110 95 83 89 106 117 114 90 110 113 104 117 107 112 95 117 107 87 86 93 92 112 93 81 91 84 109 114 105 105 94 116 98 89 97 116 116 103 104 112 110 119 118 116 104 86 94 102 86 89 112 90 89 109 115 101 99 93 87 116 96 93 103 104 114 87 115 85 102 82 87 104 83 109 105
3467 4104 3822 3129 2754 3186 3808 3651 2859 2529 2861 3524 3432 2799 2298 2747 3294 3331 2528 2116 2347 2999 2997 2253 1819 2224 2744 2901 1997 1700 2042 2480 2601 1900 1469 1722 2429 2390 1713 1136 1468 2039 2134 1427 940 1161 1775 1823 1301 635 875 1564 1636 996 458 643 1267 1522 829 173 479 1113 1319 699 100 132 869 957 490 98 107 85 108 87 95 107 102 91 89 107 92 113 117 104 80 95 113 109 89 104 118 97 114 95 90 82 80 120 80 106 92 111 107 119 81 97 117 118 98 89 92 83 82 80 114 99 111 87 101 98 102 91 101 81 95 103 101 97 87 86 110 111 92 86 106 91 99 118 95 120 89 97 118 90 108 92 110 80 109 103 101 88 81 107 104 99 109 94 80 99 107 87 100 110 87 101 118 104 80 83 80 109 89 86 94 98 82 108 88 107 95 90 103 98 105 106 107 112 99 82 100 96 84 113 107 113 89 98 103 99 93 101 98 86 91 115 111 109 87 105 106 104 104 111 114 116 95 109 81 97 102 106 81 92 81 101 103 81 84 115 113 98 102 111 90 86 107 119 106 110 87 119 112 115 104 104 87 86 119 115 82 94 100 114 83 92 101 87 93 120 118 100 80 107 91 95 84 119 104 81
3712 4355 4299 3570 3166 3476 4049 3909 3226 2885 3257 3928 3781 3050 2676 3014 3679 3582 2873 2433 2685 3408 3391 2637 2112 2615 3172 3121 2513 1888 2331 2971 2945 2274 1651 2071 2629 2703 1981 1538 1681 2435 2432 1722 1283 1613 2261 2297 1680 1114 1303 1917 1943 1397 812 1104 1645 1784 1194 601 704 1501 1587 957 287 561 1264 1332 794 85 93 98 96 91 84 109 92 84 107 86 110 114 94 114 94 85 105 86 82 81 99 119 91 108 82 94 82 99 115 95 111 115 92 106 82 120 115 95 82 110 119 91 120 108 109 112 91 115 119 107 80 99 114 117 94 116 99 107 102 99 113 97 92 112 86 116 107 106 120 94 83 119 83 94 83 81 108 114 116 120 114 90 112 118 98 112 120 102 103 101 100 90 113 86 90 103 85 91 108 81 85 103 104 81 90 87 114 102 116 112 102 85 113 119 90 99 114 85 105 105 88 84 94 83 96 98 90 109 120 105 98 111 101 106 103 80 92 80 113 99 109 85 109 98 87 81 110 98 107 105 99 117 99 82 117 110 95 103 103 87 111 113 108 112 87 98 118 113 83 93 95 107 84 99 86 110 81 80 109 93 113 120 86 103 103 87 103 102 91 113 87 110 101 90 111 96 84 113 91 111
4331 4814 4771 3943 3552 3967 4731 4580 3769 3474 3874 4456 4351 3559 3052 3598 4225 4024 3365 2967 3345 3957 3804 3121 2668 2984 3614 3694 3010 2430 2701 3509 3457 2718 2289 2548 3122 3283 2552 1998 2333 2990 2911 2396 1807 2089 2749 2756 2096 1545 1703 2425 2447 1932 1279 1588 2165 2381 1766 1069 1400 1974 2109 1568 849 982 1631 1905 1249 585 116 91 99 95 90 113 80 102 103 100 84 87 115 85 104 83 105 108 97 95 100 80 81 116 89 101 113 111 120 117 108 112 101 82 89 119 117 115 108 115 87 95 80 106 104 101 119 114 88 94 115 113 104 80 112 84 111 108 117 102 100 114 94 99 93 116 119 118 95 111 92 99 100 106 105 95 85 118 95 84 83 97 83 91 90 98 114 88 106 106 98 108 100 91 80 104 117 96 82 100 116 84 93 118 112 103 88 114 87 80 106 91 81 102 97 106 83 84 91 113 100 85 111 96 91 120 90 116 95 103 108 110 99 87 118 108 116 117 110 115 95 89 107 82 120 99 120 100 96 120 112 101 117 80 118 113 90 80 83 118 112 109 95 100 85 107 82 107 86 109 91 97 104 104 93 85 96 110 119 97 86 92 85 94 107 108 115 106 101 106 85 99 108 89 95 107 98 120 118 88
4526 5113 4947 4175 3866 4340 4857 4817 3977 3591 4096 4693 4567 3830 3466 3813 4486 4266 3687 3096 3633 4175 4129 3385 2908 3291 3844 3852 3156 2775 3144 3721 3605 3073 2443 2796 3401 3469 2876 2256 2650 3160 3244 2637 2098 2381 2879 2942 2344 1830 2017 2698 2812 2097 1640 1874 2441 2539 1852 1414 1516 2271 2284 1664 1192 1327 2013 2069 1442 995 1141 82 96 120 109 80 94 95 113 88 83 87 105 109 98 113 92 114 97 118 120 83 100 109 92 82 94 106 101 103 92 80 113 87 91 80 109 109 90 88 85 109 104 118 119 116 85 105 119 102 112 115 113 115 95 112 117 109 118 89 93 113 85 88 113 108 107 87 101 80 101 115 93 86 103 89 115 116 90 92 99 102 85 89 118 104 85 101 87 80 103 80 85 109 104 106 102 84 99 85 108 89 90 95 112 85 95 80 120 96 111 99 110 112 94 91 94 84 99 99 83 91 104 112 118 113 85 93 95 90 111 85 93 111 85 119 87 99 88 107 87 98 81 119 108 115 98 99 80 91 117 111 97 92 102 92 116 82 111 83 119 91 99 90 108 103 92 108 116 119 106 98 90 110 102 111 104 94 88 118 106 99 83 89 114 91 89 119 95 84 117 92 92 92 103 118 105 87 105 81
4433 4877 4877 4123 3689 4052 4651 4511 3937 3530 3901 4462 4376 3604 3131 3587 4286 4204 3524 2912 3381 3949 3864 3231 2655 3152 3787 3718 3025 2529 2904 3527 3576 2754 2197 2503 3176 3363 2511 2031 2376 2954 2972 2363 1818 2094 2673 2842 2258 1581 1909 2592 2637 1953 1467 1525 2295 2288 1829 1086 1341 1995 2255 1543 963 1146 1740 1945 1228 702 922 1492 94 105 108 95 117 108 102 115 119 110 118 114 119 116 92 103 109 111 120 109 96 80 119 82 112 93 114 81 94 95 115 114 107 82 92 81 92 82 85 110 88 82 116 112 93 107 91 90 87 89 115 107 104 85 100 95 116 109 111 115 108 97 83 99 90 108 91 118 104 84 96 103 111 87 115 85 85 95 88 101 103 104 117 118 81 106 102 89 97 87 87 113 88 95 98 107 119 100 90 88 115 103 85 95 85 93 88 105 89 114 95 113 104 114 112 117 106 104 111 84 99 95 84 87 93 89 101 111 113 90 118 84 114 88 90 93 93 99 108 112 83 89 87 101 119 99 114 95 95 102 103 114 92 91 88 81 84 107 82 81 111 104 115 96 109 82 98 115 88 92 94 107 94 81 97 116 80 110 117 90 108 112 106 101 85 92 98 118 92 101 95 82 117 106 116 118 83 83
3891 4476 4282 3628 3306 3652 4350 4220 3430 3030 3369 4050 3946 3207 2721 3159 3766 3670 2983 2560 2840 3605 3387 2718 2258 2754 3264 3350 2665 2105 2310 3080 3107 2404 1877 2230 2822 2761 2105 1539 1870 2526 2707 1967 1322 1762 2246 2437 1802 1128 1331 1978 2198 1449 904 1200 1901 1913 1225 809 886 1579 1661 1089 528 707 1411 1416 855 214 458 1077 1326 120 108 114 96 80 111 83 96 97 110 82 95 120 93 90 92 98 93 81 81 111 88 116 117 115 91 92 109 83 94 80 119 82 114 118 97 96 119 114 106 82 97 106 102 88 117 93 82 103 98 85 112 81 100 98 109 93 81 82 94 97 94 109 92 105 110 80 88 92 100 82 109 105 84 103 105 104 100 118 111 96 102 117 106 85 109 88 86 92 114 106 81 111 115 95 120 105 111 83 82 112 118 86 93 83 80 108 110 91 100 87 108 108 116 119 114 102 118 83 104 101 87 117 84 86 89 113 89 90 86 114 109 80 83 115 101 96 84 102 100 89 113 81 89 83 96 104 110 97 88 98 98 99 105 109 105 97 84 88 113 91 97 102 93 84 87 105 86 119 91 85 101 114 90 90 97 85 102 102 83 114 87 98 106 96 104 80 93 93 81 83 82 113 116 99 81 90
3747 4300 4085 3407 2984 3516 3950 3821 3095 2681 3165 3755 3676 2921 2521 2861 3463 3531 2821 2344 2590 3335 3213 2500 2061 2486 3039 3084 2334 1804 2122 2854 2711 2089 1643 1988 2473 2664 1827 1386 1720 2297 2308 1626 1150 1323 2059 2142 1491 901 1252 1727 1946 1209 653 836 1622 1706 966 446 745 1270 1494 927 186 438 1095 1297 658 100 100 929 1103 526 104 95 106 87 116 98 103 88 107 105 90 91 98 96 108 101 92 118 92 90 114 101 111 93 84 88 87 93 108 101 97 82 88 119 94 100 95 89 119 99 96 100 99 114 108 115 115 90 84 81 105 97 95 103 96 87 113 87 96 101 109 109 81 105 99 81 117 115 93 103 116 104 82 107 93 101 120 117 119 97 82 89 93 107 88 102 116 110 113 109 91 103 97 118 110 88 89 81 116 112 87 84 104 112 105 101 111 86 90 110 107 86 84 100 117 109 116 116 91 87 114 105 80 101 106 105 92 116 106 111 112 105 118 106 87 100 83 85 104 81 85 86 92 116 84 95 85 106 98 86 92 89 116 100 82 114 104 88 111 102 85 91 96 109 112 106 92 114 87 98 88 89 111 118 85 88 97 94 119 111 90 90 85 105 108 117 117 95 109 85 120 106 100 105 93 117
3936 4405 4343 3550 3275 3691 4259 4110 3456 3054 3451 4039 3858 3107 2647 3159 3848 3652 2907 2601 2922 3465 3553 2670 2271 2649 3326 3315 2517 2091 2449 2970 3073 2410 1775 2180 2738 2836 2153 1632 1901 2618 2485 1862 1376 1545 2237 2321 1685 1062 1410 2135 2227 1547 982 1059 1716 1988 1315 687 865 1601 1664 1102 379 651 1288 1445 850 241 311 1018 1148 645 115 105 107 114 93 105 96 94 110 83 92 99 120 110 86 110 115 111 106 106 108 106 112 81 97 117 105 112 91 114 120 117 90 118 82 107 115 117 80 88 115 106 108 113 116 94 105 82 120 120 108 101 111 104 102 80 84 116 90 83 87 110 91 91 95 104 93 80 97 119 100 84 95 90 82 92 84 99 109 83 117 118 82 104 89 111 118 103 108 92 93 102 115 104 111 102 93 118 92 106 83 99 109 84 83 118 97 88 84 80 97 111 83 84 88 109 110 88 94 91 93 91 81 100 103 89 118 86 110 107 95 109 90 113 86 101 118 90 98 105 98 95 95 112 80 96 94 83 101 98 113 103 115 119 91 85 81 107 88 104 93 115 120 95 120 84 86 96 83 114 100 90 109 109 82 120 110 102 98 115 113 101 115 94 111 94 102 120 97 107 106 94 81 97 107 112
4362 4897 4939 4087 3675 4232 4728 4636 3971 3514 3859 4511 4315 3749 3211 3613 4208 4211 3526 2960 3463 4068 3954 3223 2869 3196 3710 3712 3132 2651 2809 3508 3566 2812 2247 2548 3380 3404 2660 2058 2414 2975 3105 2482 1907 2206 2734 2887 2133 1643 1941 2618 2675 2061 1326 1667 2278 2481 1755 1099 1357 2102 2191 1640 933 1214 1812 1919 1371 783 962 1510 1761 1104 566 80 97 101 112 98 91 102 97 99 93 109 108 81 93 91 114 111 108 113 98 81 120 119 115 119 91 98 89 116 81 80 81 106 80 105 85 98 108 80 116 111 110 118 119 98 111 113 97 107 82 94 88 97 87 117 110 114 105 113 92 95 88 120 104 98 82 100 112 96 120 81 102 120 113 85 106 80 104 89 90 116 80 83 104 100 119 105 110 115 114 81 120 112 104 93 101 109 87 92 91 83 101 80 102 98 91 82 102 89 85 118 117 92 88 91 106 110 112 112 89 91 93 93 97 114 101 82 80 89 120 111 89 101 110 105 82 118 99 83 93 84 81 88 102 115 109 96 100 99 93 101 96 89 91 118 80 118 104 109 119 95 89 120 111 113 84 120 90 92 103 107 104 112 83 103 119 113 95 92 91 88 113 117 117 107 105 106 101 117 93 86 112 91 89 99
4803 5387 5231 4438 4099 4439 5154 4967 4175 3815 4347 4841 4753 4088 3638 4102 4704 4571 3912 3439 3802 4429 4393 3636 3138 3433 4133 4189 3447 2989 3232 3911 3806 3170 2625 2919 3557 3724 3019 2517 2696 3351 3497 2726 2341 2541 3110 3169 2621 1971 2264 2919 2952 2441 1828 1970 2613 2803 2183 1657 1780 2499 2569 1949 1411 1608 2191 2329 1686 1200 1211 1955 2156 1504 851 1132 118 92 86 96 111 119 95 120 90 89 118 105 101 88 94 80 95 118 105 84 109 90 89 99 98 85 112 83 110 104 86 99 118 100 90 100 80 84 120 87 106 100 89 98 118 112 119 107 81 94 94 87 99 98 101 92 101 115 84 94 80 103 116 110 101 93 101 92 88 92 94 81 92 95 117 93 112 88 91 108 95 117 97 94 103 118 104 89 110 118 99 104 99 111 104 120 103 106 100 119 117 112 104 110 93 113 94 87 112 113 94 111 80 109 108 81 120 98 101 111 101 100 82 101 99 95 87 116 96 93 89 105 82 93 97 83 87 91 96 88 80 117 106 88 95 103 101 120 109 98 92 95 98 88 94 92 83 117 114 91 104 95 102 103 95 107 120 120 90 117 114 100 113 87 114 81 101 86 120 101 100 111 80 113 105 104 92 102 91 88 119 108 105 90
4713 5350 5194 4321 4096 4477 5003 4867 4139 3756 4135 4876 4642 3925 3617 3870 4480 4447 3855 3295 3711 4213 4346 3539 3129 3398 4097 4061 3394 2758 3095 3873 3840 3138 2538 2973 3608 3659 2954 2346 2665 3365 3423 2789 2252 2368 3177 3100 2473 1965 2254 2867 2862 2301 1817 2024 2567 2748 2162 1470 1794 2329 2440 1821 1200 1358 2071 2290 1746 1046 1155 1930 1968 1366 739 1054 1527 82 106 99 102 109 93 83 103 104 105 94 116 85 94 94 102 93 116 112 87 86 91 91 82 102 109 91 96 90 88 98 95 98 95 93 108 111 104 82 101 120 89 97 88 82 114 84 112 87 111 88 102 101 117 107 98 93 120 112 91 99 116 82 87 120 112 120 110 114 82 106 117 103 104 113 109 96 96 117 85 93 117 105 84 82 102 114 101 109 89 93 108 99 107 84 118 120 119 108 105 83 103 113 95 90 90 84 105 89 101 94 114 85 92 100 98 120 115 108 90 117 100 106 113 105 105 119 103 88 94 91 90 87 115 109 112 85 109 98 106 103 102 116 111 99 108 94 85 109 110 99 94 81 97 119 86 114 98 118 112 92 93 111 85 120 111 86 112 86 103 81 100 113 108 90 108 86 81 92 108 88 119 97 103 91 91 87 95 116 97 97 81 102
4359 4814 4705 4054 3561 4031 4647 4446 3828 3307 3837 4335 4326 3645 3185 3516 4206 4086 3267 2980 3348 3952 3831 3139 2598 3105 3660 3595 2853 2350 2680 3359 3470 2701 2202 2478 3262 3144 2555 2007 2180 2882 2895 2349 1796 1959 2689 2765 2149 1516 1793 2500 2587 1882 1219 1533 2101 2303 1672 1148 1357 1855 2179 1518 826 1121 1782 1877 1261 696 799 1468 1566 993 469 603 1166 1469 114 80 104 100 109 85 84 80 117 118 100 98 94 80 120 115 92 88 97 120 106 100 114 95 117 101 89 89 96 92 80 108 100 101 107 97 114 91 103 96 101 115 93 80 87 82 82 120 92 99 105 113 100 108 115 117 97 87 100 81 100 117 97 100 120 85 88 113 107 96 117 93 115 116 113 87 102 116 84 85 82 89 96 116 95 93 97 110 101 92 100 80 90 111 93 93 107 115 105 97 96 113 97 102 97 80 106 102 106 111 91 112 85 82 92 108 120 115 108 90 83 103 105 86 107 117 86 80 116 118 113 92 86 109 84 82 102 104 82 85 110 94 110 120 118 113 99 108 91 81 98 118 84 90 101 110 97 87 106 88 92 83 89 87 100 95 104 86 88 103 89 99 108 115 90 100 94 120 88 104 120 115 97 86 106 81 114 120 97 93 83 84
3962 4472 4341 3656 3315 3626 4196 4201 3456 2967 3401 3955 3941 3153 2785 3282 3780 3674 3002 2580 2897 3469 3608 2893 2335 2649 3241 3337 2668 2117 2361 3080 3156 2419 1926 2093 2884 2924 2215 1569 1990 2665 2682 1865 1389 1590 2255 2334 1715 1267 1520 2047 2152 1598 993 1105 1760 1872 1231 807 982 1648 1762 1045 419 742 1340 1589 821 383 419 1134 1361 602 127 290 959 1074 569 88 101 98 120 89 116 97 89 102 90 96 82 83 85 103 119 110 100 112 85 99 118 95 104 103 96 92 104 82 112 101 97 116 120 115 89 94 112 111 104 84 103 107 95 100 83 91 94 112 114 80 80 106 104 110 92 97 117 89 93 104 98 86 110 83 101 91 82 102 118 107 87 113 117 111 116 84 117 113 83 90 95 107 89 118 111 88 83 107 98 86 94 91 98 101 99 108 112 115 116 85 115 115 102 114 120 119 105 94 105 90 103 96 86 88 103 102 117 103 80 97 111 102 117 118 109 116 115 94 97 120 84 109 104 107 85 81 107 93 93 93 108 101 86 94 104 114 102 89 98 95 120 113 102 105 91 108 87 83 102 83 120 101 97 90 103 90 113 84 102 117 89 84 105 109 105 98 119 101 107 101 114 92 111 88 119 105 80 85 91 90
4018 4524 4512 3776 3437 3778 4266 4209 3567 3072 3505 4030 4004 3375 2960 3292 3926 3900 3138 2584 2966 3673 3631 2826 2422 2738 3319 3375 2772 2130 2621 3229 3217 2548 2058 2231 2912 3025 2215 1793 2007 2598 2737 2126 1568 1693 2522 2559 1778 1356 1594 2260 2305 1633 1018 1183 1914 2121 1380 809 962 1635 1891 1205 685 708 1398 1551 1046 353 452 1224 1372 717 132 297 927 1222 631 105 89 91 107 88 120 103 90 97 120 93 110 95 91 104 90 95 110 109 100 94 94 101 80 93 98 90 107 111 112 82 95 88 96 101 101 98 95 118 101 85 81 115 102 87 97 80 109 85 99 88 102 120 110 99 105 120 104 89 91 85 83 82 81 120 88 91 91 107 94 112 95 100 86 114 107 107 98 114 110 81 102 96 84 114 107 87 116 81 103 118 114 84 107 120 82 93 100 94 118 80 96 84 120 89 92 103 119 120 82 104 90 106 87 82 107 90 115 104 110 91 99 105 84 111 87 116 96 114 86 113 85 96 96 110 120 109 100 110 95 102 105 118 83 105 103 111 91 106 80 93 117 99 95 92 95 87 96 103 83 93 120 111 102 114 100 89 81 118 100 94 82 95 102 112 94 101 108 120 117 83 85 90 99 97 94 89 112 96 90 91
4310 4921 4843 4214 3716 4170 4902 4747 3970 3613 3894 4646 4422 3848 3331 3801 4290 4266 3480 3040 3459 4151 3978 3359 2895 3212 3842 3789 3137 2647 2987 3712 3575 2883 2344 2736 3416 3335 2812 2158 2562 3204 3170 2588 2020 2179 2876 3020 2370 1787 1960 2722 2702 2044 1420 1683 2340 2462 1907 1294 1522 2110 2358 1574 1019 1320 1900 2055 1525 867 951 1636 1847 1217 581 758 1494 1681 1044 418 95 84 94 105 114 110 81 106 89 89 86 103 86 115 109 96 98 91 95 99 106 80 90 84 98 90 97 107 120 91 110 114 90 83 87 88 104 106 105 108 111 86 119 80 97 89 80 94 80 116 96 118 117 80 120 97 114 117 118 80 118 82 112 99 113 102 106 120 82 82 115 81 119 119 101 101 88 101 111 112 84 109 114 94 120 93 98 80 83 120 103 103 91 112 85 84 120 99 92 117 120 90 111 91 111 85 112 96 101 93 81 102 90 118 96 111 110 82 89 107 96 118 81 94 101 90 90 85 103 86 104 105 102 108 87 88 120 80 83 85 119 99 105 100 96 96 87 118 107 93 92 118 89 117 80 104 96 113 118 103 118 89 91 114 80 87 94 92 105 107 99 105 85 101 91 94 108 111 104 94 111 84 109 100 99 101 102 91 109 118
4621 5329 5417 4554 4345 4614 5331 5160 4352 3966 4450 5041 4900 4232 3789 4223 4883 4710 4066 3505 3924 4626 4570 3821 3394 3649 4242 4380 3644 3197 3533 4044 4149 3426 2826 3192 3754 3804 3075 2617 3017 3629 3681 2924 2379 2697 3354 3450 2687 2121 2363 3061 3101 2609 1964 2139 2822 3028 2390 1739 1874 2641 2721 2147 1589 1710 2414 2466 1812 1278 1406 2019 2282 1670 979 1120 1848 2052 1393 819 878 94 98 108 109 91 80 120 111 98 115 95 92 86 104 80 101 103 94 103 84 118 101 116 87 116 93 100 112 88 119 107 94 108 94 120 93 99 119 102 112 86 87 80 89 93 88 101 112 107 86 119 95 85 109 112 91 107 116 80 83 93 113 118 89 90 80 99 86 91 96 112 92 88 108 113 90 89 87 106 102 93 106 110 90 119 83 84 100 93 80 91 99 111 92 101 96 115 109 95 109 98 103 90 91 117 86 81 84 91 89 115 88 107 94 105 113 86 80 118 104 91 103 92 85 114 106 90 109 107 83 120 107 91 87 86 103 109 82 113 88 120 101 86 103 106 97 96 120 110 96 117 119 120 84 84 111 83 87 107 117 81 96 94 109 93 80 116 96 115 80 120 115 104 88 99 104 102 107 115 118 96 98 97 91 118 103 117 104 82
4681 5380 5391 4743 4382 4764 5431 5174 4469 4156 4538 5011 5106 4350 3828 4242 4810 4797 4119 3579 3982 4520 4629 3817 3417 3658 4310 4386 3716 3191 3473 4222 4041 3495 2889 3245 3888 3827 3304 2634 2974 3712 3658 3096 2560 2777 3447 3528 2859 2199 2530 3062 3307 2635 1986 2233 2934 2932 2376 1880 2025 2731 2769 2222 1667 1693 2409 2537 1913 1417 1453 2084 2408 1734 1118 1285 1935 2233 1518 969 1011 1679 89 102 96 84 99 120 93 111 114 96 90 103 111 81 110 89 118 108 101 94 102 80 102 104 97 98 92 103 112 92 98 95 118 106 117 88 102 101 90 97 85 91 106 94 119 109 101 114 81 96 92 94 101 91 95 110 106 113 105 105 101 94 120 104 102 109 94 87 80 114 85 116 97 97 101 120 119 95 82 84 110 104 92 108 91 85 115 98 88 119 100 113 98 108 86 113 107 107 112 93 93 87 110 112 87 101 117 118 105 94 100 82 107 118 103 80 105 90 97 111 98 95 84 96 104 86 109 95 101 117 80 115 87 91 83 110 102 98 80 100 100 99 111 93 104 103 93 107 108 106 95 86 119 119 82 84 91 104 105 86 97 83 112 84 118 120 113 113 101 99 100 106 103 110 107 80 91 85 102 106 106 107 89 117 84 118 94 120
4178 4909 4866 4236 3971 4297 4963 4840 4220 3684 4129 4721 4602 4002 3425 3826 4580 4541 3689 3181 3594 4308 4303 3492 3054 3428 4059 4009 3233 2901 3244 3765 3868 3174 2559 2903 3588 3527 2787 2426 2639 3341 3405 2698 2140 2304 3057 3061 2387 1949 2236 2869 2965 2255 1716 1931 2467 2721 2093 1472 1737 2374 2496 1913 1159 1386 2129 2321 1636 949 1183 1829 1994 1456 785 961 1597 1723 1201 511 648 1400 1593 81 80 108 81 113 120 86 89 106 99 120 107 87 99 100 80 106 92 111 104 92 92 94 104 111 105 101 82 81 106 105 118 90 98 83 113 84 88 108 85 96 80 119 84 93 113 116 92 116 101 118 106 90 86 116 115 109 81 80 107 80 85 115 81 91 106 114 81 115 110 102 92 88 87 119 86 109 112 104 80 104 82 111 81 119 105 97 109 86 85 120 115 108 85 106 119 84 84 90 114 117 119 90 88 99 115 104 114 117 80 102 119 104 114 97 89 92 113 98 109 80 119 83 98 104 95 86 107 103 109 88 104 83 105 92 111 118 113 102 115 120 88 104 101 107 108 96 89 118 118 93 112 93 118 86 90 105 102 87 102 85 118 116 116 113 82 98 102 93 100 119 84 118 104 106 102 95 99 99 89 96 93 102 105 111 95 93
3683 4512 4409 3701 3463 3965 4585 4558 3758 3397 3821 4318 4244 3516 3099 3543 4111 3959 3307 2814 3255 3956 3768 3102 2726 2962 3612 3519 2952 2459 2785 3417 3419 2748 2238 2581 3152 3199 2378 1860 2268 2835 3003 2261 1644 2001 2725 2641 2100 1518 1649 2389 2472 1760 1213 1549 2233 2368 1560 961 1223 1943 2082 1462 757 920 1654 1728 1171 531 772 1354 1517 1090 330 536 1174 1385 713 107 262 882 1237 516 87 83 119 103 116 95 105 90 93 102 92 94 91 92 119 83 112 81 95 120 81 105 110 80 101 106 111 116 88 99 115 106 92 94 112 119 96 110 83 81 112 92 80 111 111 90 100 118 83 110 111 119 91 107 120 116 106 111 99 93 111 99 80 92 97 119 100 114 108 80 91 106 87 108 91 80 100 113 88 106 92 100 92 81 98 89 84 98 97 89 96 83 96 109 82 110 110 88 95 88 99 85 91 116 108 102 89 104 96 104 120 84 106 105 81 105 81 105 83 119 113 105 89 118 85 108 85 95 86 82 104 87 83 115 120 91 93 101 96 90 92 82 82 118 89 118 112 92 103 118 92 105 92 95 107 109 98 94 95 105 91 86 106 107 115 120 82 108 119 110 102 115 108 108 84 88 119 113 87 88 92 97 82 95 83 111
3729 4280 4210 3604 3438 3919 4469 4327 3615 3347 3649 4310 4123 3536 3074 3493 4133 4011 3328 2794 3238 3783 3670 3099 2676 2867 3540 3642 2812 2313 2731 3306 3233 2698 2031 2341 3098 3141 2510 1861 2165 2934 2907 2188 1588 1851 2687 2706 1977 1447 1764 2325 2384 1713 1135 1362 2093 2185 1633 1089 1192 1765 2094 1269 751 989 1705 1796 1187 604 707 1454 1540 928 332 390 1018 1359 779 167 162 770 1016 452 103 93 115 97 96 116 106 115 101 117 112 114 82 97 107 116 88 83 95 115 101 88 81 105 85 95 90 93 96 99 97 118 106 98 103 89 81 108 89 83 84 97 99 97 95 88 99 110 97 81 86 95 117 115 95 114 84 114 112 83 87 84 111 88 84 92 95 82 92 93 119 104 105 97 88 101 96 99 104 89 114 112 103 109 119 103 110 93 101 99 90 112 96 112 87 88 112 83 84 81 114 101 115 119 108 100 104 115 107 104 111 108 120 81 102 84 116 80 88 94 96 85 84 98 110 115 110 99 90 104 117 119 96 105 104 92 88 81 103 112 86 80 97 92 99 89 107 85 91 86 81 106 93 88 88 81 102 95 98 94 115 102 87 105 95 93 82 108 89 106 114 92 117 118 112 117 111 86 99 98 90 108 102 93 106 102
4030 4685 4648 3969 3644 4130 4873 4717 4099 3736 4106 4619 4612 3928 3434 3853 4503 4402 3629 3116 3556 4196 4064 3374 2937 3336 3976 4017 3260 2777 3059 3808 3776 2985 2552 2766 3549 3419 2801 2253 2652 3294 3218 2606 2129 2384 2902 3135 2398 1748 2068 2773 2835 2213 1610 1842 2562 2522 2063 1381 1629 2210 2354 1831 1194 1398 2042 2083 1556 963 1025 1701 1856 1385 640 891 1559 1647 1055 477 535 1291 1518 882 270 83 104 117 83 95 82 83 97 88 119 80 120 84 103 102 113 92 111 96 116 97 80 86 91 95 84 83 83 105 94 102 101 101 96 106 114 106 119 117 119 91 83 115 85 92 103 92 119 106 84 86 108 120 101 84 97 95 101 117 120 102 80 106 119 112 90 109 116 88 93 92 113 98 87 91 102 107 95 82 108 80 120 83 91 109 110 94 106 117 116 85 86 106 95 111 90 102 106 83 112 119 111 114 80 114 85 118 87 113 110 96 113 85 96 95 104 101 80 101 97 110 97 104 89 95 106 87 112 92 120 107 99 115 118 96 102 82 85 113 96 111 99 90 85 108 103 111 100 101 118 105 104 111 88 97 118 93 81 99 91 96 116 92 107 98 107 117 99 82 84 87 108 87 113 110 106 99 119 104 120 95 102 106 102 109
4413 5088 5096 4400 4020 4518 5369 5168 4642 4205 4508 5187 5095 4284 3932 4342 5038 4924 4153 3779 4152 4604 4693 3889 3419 3867 4547 4487 3689 3315 3586 4299 4147 3611 3039 3409 3957 3994 3279 2781 3135 3705 3699 3134 2604 2912 3538 3598 2815 2275 2586 3283 3238 2695 2116 2271 2985 3103 2464 1902 2188 2669 2950 2219 1619 1879 2475 2569 2051 1441 1552 2343 2390 1802 1300 1315 2075 2208 1691 898 1006 1784 1922 1365 769 781 88 88 117 114 97 81 95 109 83 108 116 105 88 92 109 90 115 106 113 109 119 83 103 108 112 119 80 99 104 102 87 90 106 82 112 115 90 104 80 96 104 83 97 87 115 99 91 115 96 86 116 98 87 87 82 107 115 80 117 110 85 112 85 80 117 114 81 120 101 85 93 85 92 82 114 81 95 109 94 85 88 84 86 87 105 90 85 117 110 119 111 119 85 80 120 92 104 104 97 120 106 94 100 93 102 113 87 88 89 85 86 107 107 114 84 104 91 84 89 106 98 80 81 106 101 90 107 103 101 108 82 84 102 103 99 89 100 114 95 91 104 105 88 81 114 86 103 93 94 119 92 114 85 111 80 90 100 110 87 91 113 111 101 120 107 104 97 83 101 88 91 84 98 99 84 95 93 108 109 80 83 92 104 93
4462 5093 5234 4584 4173 4748 5365 5439 4673 4449 4860 5279 5301 4629 4146 4547 5158 5045 4348 3836 4339 4881 4911 4234 3576 4005 4587 4678 3850 3404 3788 4309 4433 3681 3126 3441 4196 4097 3491 3024 3247 3952 4060 3261 2755 2992 3686 3807 2997 2532 2845 3418 3463 2800 2335 2575 3209 3244 2663 2109 2349 2964 3000 2375 1913 2025 2762 2884 2305 1577 1773 2361 2618 1998 1469 1614 2165 2467 1832 1177 1298 2030 2092 1628 969 1035 1715 81 96 112 104 115 86 118 120 104 90 109 106 120 94 118 112 90 109 95 102 119 95 86 117 87 106 101 108 104 88 87 110 91 94 101 91 117 116 80 106 93 103 93 91 119 81 89 114 107 106 84 84 116 108 107 86 120 83 116 120 80 96 116 81 110 105 91 86 93 90 104 87 94 103 94 105 93 91 90 101 83 92 115 85 98 101 86 90 86 101 118 80 91 113 118 92 109 83 92 119 80 118 113 113 98 104 100 102 90 119 98 107 101 96 88 102 109 107 89 113 87 100 94 100 90 95 94 86 86 86 113 93 85 109 111 94 82 104 92 111 93 92 102 85 118 82 95 80 103 119 105 117 91 84 105 102 101 80 99 115 102 92 97 83 104 92 120 115 87 90 120 103 102 91 80 104 119 110 120 118 86 108 93
4088 4870 4802 4221 3922 4366 5095 5043 4369 4149 4595 5107 5115 4220 3918 4309 4845 4807 4094 3727 3975 4677 4689 3955 3482 3795 4293 4405 3684 3197 3505 4062 4132 3368 3010 3332 3923 3897 3326 2754 2937 3584 3723 3131 2404 2802 3492 3510 2786 2225 2449 3211 3199 2576 1994 2183 3007 3111 2437 1721 1963 2713 2784 2171 1587 1747 2343 2577 2032 1460 1492 2093 2344 1793 1178 1254 1936 2136 1631 962 1124 1624 1834 1394 742 863 1454 1628 114 87 109 105 86 86 116 116 106 94 90 95 118 83 112 101 114 102 120 102 115 93 80 101 100 109 100 99 101 108 85 106 108 101 98 97 109 104 116 87 90 106 101 82 82 84 87 95 120 111 114 80 85 114 80 111 119 104 117 115 105 106 81 98 100 84 95 107 116 84 118 88 118 89 103 84 110 80 113 84 83 107 102 119 92 85 91 102 81 86 116 102 84 107 110 103 109 91 95 91 110 88 104 108 109 95 112 82 98 100 89 96 94 81 107 108 117 117 93 87 103 94 116 80 109 91 95 110 102 80 103 104 91 95 101 117 111 91 119 109 94 80 86 106 82 97 116 97 93 107 105 91 94 96 119 84 88 88 95 111 86 102 91 82 106 119 118 92 97 107 90 95 114 105 87 115 114 103 118 108 92 81
3612 4388 4230 3557 3353 3943 4493 4576 3802 3597 3997 4762 4540 3772 3354 3734 4374 4338 3569 3127 3655 4100 4133 3403 3060 3396 3921 3919 3163 2734 3052 3720 3616 2981 2459 2784 3383 3553 2781 2188 2504 3238 3247 2516 1985 2381 3043 3120 2410 1846 2007 2688 2796 2248 1551 1842 2484 2540 2057 1291 1507 2164 2435 1748 1198 1303 2066 2136 1445 1003 1153 1798 1897 1345 715 855 1401 1639 1192 441 595 1198 1450 852 313 349 1014 1230 711 120 86 83 116 103 92 102 116 83 83 98 95 119 106 86 106 117 94 90 97 116 94 114 86 110 107 120 119 87 100 114 92 88 98 92 119 87 108 89 98 98 89 113 83 97 94 114 101 118 113 93 99 82 80 118 101 102 84 105 93 83 81 115 95 120 83 116 118 89 99 97 86 98 86 94 87 85 120 105 84 86 92 85 104 82 91 88 99 111 104 104 113 88 99 119 118 94 118 113 101 104 80 87 105 110 102 119 82 113 93 85 81 80 97 108 85 113 99 107 88 96 104 102 98 102 113 119 80 81 118 103 90 83 83 99 85 113 83 116 109 110 104 102 107 84 113 94 104 89 103 109 120 98 87 98 87 107 94 91 119 82 107 96 84 99 88 120 86 91 93 90 110 95 104 106 93 106 118 96 114 96
3425 4041 3972 3397 3098 3680 4208 4234 3604 3391 3872 4520 4416 3660 3214 3655 4225 4139 3451 3073 3490 3988 3965 3216 2732 3222 3749 3810 3111 2530 2940 3572 3613 2819 2308 2623 3347 3255 2703 2156 2441 2961 3121 2450 1977 2212 2828 2904 2208 1586 1967 2573 2587 2000 1490 1609 2389 2501 1715 1295 1345 2061 2124 1641 926 1179 1910 2031 1442 675 930 1562 1713 1202 493 727 1402 1476 930 349 488 1131 1266 698 131 203 783 1107 490 101 105 90 114 80 87 108 105 99 97 109 112 99 101 110 80 111 117 91 96 93 105 103 118 90 95 120 107 105 92 99 106 113 105 118 90 104 120 102 101 106 103 95 105 104 119 102 111 97 101 104 107 120 104 101 81 117 107 81 87 83 106 103 100 88 106 91 97 105 110 100 115 107 108 89 94 87 110 94 88 109 116 81 88 116 104 82 82 84 83 105 115 83 88 91 108 120 86 97 110 95 89 99 103 88 105 108 100 102 113 99 103 116 111 92 96 112 81 95 91 94 112 114 104 107 91 98 106 92 98 103 92 114 95 118 102 83 112 117 100 109 106 105 83 80 89 118 94 107 107 93 117 110 99 100 91 83 87 100 84 107 92 114 95 99 96 99 109 114 92 113 86 100 83 111 82 112 116 97 108 101
3535 4355 4243 3637 3327 3841 4597 4402 3815 3599 4068 4640 4751 3915 3480 3850 4495 4413 3737 3247 3731 4349 4283 3629 3048 3490 3989 4099 3256 2914 3092 3858 3825 3042 2594 2857 3640 3671 2867 2403 2635 3339 3412 2768 2114 2384 3102 3196 2406 1951 2200 2734 2841 2237 1613 1883 2534 2726 2162 1425 1705 2334 2404 1791 1285 1353 2004 2257 1719 958 1150 1867 2130 1532 788 864 1701 1743 1162 587 764 1353 1597 958 353 375 1147 1345 860 126 83 83 84 82 91 113 101 93 100 106 82 85 94 91 115 116 112 94 80 98 112 86 100 111 118 114 96 89 108 119 82 110 101 99 112 99 115 85 119 120 87 115 89 99 113 97 95 92 106 105 116 101 98 114 119 90 99 101 110 107 119 81 88 91 106 103 80 116 88 81 85 97 93 97 95 113 107 113 107 115 118 106 91 100 107 109 115 95 112 93 106 86 120 91 82 104 90 107 96 104 104 120 114 93 93 96 95 110 86 81 87 105 115 118 80 119 110 83 120 95 105 102 97 94 100 104 104 80 104 93 92 118 118 110 115 95 111 97 115 92 107 104 91 110 82 104 94 118 101 81 90 93 87 93 85 82 114 103 107 116 107 102 81 100 89 120 82 82 80 112 89 91 113 107 89 82 83 119 118 90
4092 4657 4736 3969 3718 4265 4869 4958 4340 3878 4383 5059 5070 4398 4023 4355 5075 5038 4301 3884 4258 4909 4839 4145 3585 4025 4482 4470 3812 3431 3760 4256 4415 3701 3136 3487 4041 4121 3474 2887 3254 3741 3811 3306 2742 2993 3674 3603 2950 2451 2766 3261 3474 2818 2255 2458 3111 3300 2679 2053 2260 2854 2976 2474 1690 1926 2601 2701 2094 1515 1684 2413 2552 1975 1231 1536 2133 2412 1796 1138 1129 1963 2003 1566 898 1006 1556 1780 1300 737 681 84 84 113 118 117 119 100 105 104 104 88 93 91 85 100 85 118 111 113 102 108 108 95 88 108 93 117 98 105 99 100 107 95 83 102 105 84 86 118 100 115 86 81 82 104 83 112 93 100 83 98 87 103 96 96 101 111 86 115 82 111 92 106 103 108 93 85 111 100 81 111 120 97 108 108 92 102 90 98 102 105 102 85 88 119 111 98 82 103 112 103 97 103 113 94 116 94 113 112 107 101 113 115 113 104 117 114 107 95 85 92 87 91 118 89 102 96 91 95 107 94 89 97 101 84 106 94 82 116 119 102 102 97 107 91 93 87 98 110 117 100 108 112 91 98 109 84 88 116 114 106 110 87 115 89 109 112 97 87 109 100 106 108 118 118 86 86 81 94 95 100 80 116 117 102 110 91 116 93
4182 4935 5007 4365 4029 4466 5172 5056 4487 4209 4747 5361 5494 4714 4412 4665 5371 5358 4654 4116 4595 5146 5153 4336 3814 4351 4909 4851 4104 3616 3990 4551 4722 3971 3540 3735 4444 4521 3750 3135 3578 4102 4148 3603 3044 3282 3919 4022 3331 2705 3079 3583 3749 3112 2462 2754 3383 3602 2954 2409 2508 3194 3281 2782 1998 2179 2942 3168 2542 1885 1985 2735 2804 2220 1621 1878 2402 2565 2047 1419 1448 2161 2472 1904 1107 1358 1890 2205 1575 1038 986 1780 103 104 105 103 84 87 87 111 97 103 81 88 112 115 118 108 100 86 116 106 118 99 108 85 97 92 82 119 87 119 93 97 109 98 90 80 101 109 101 84 91 80 114 84 106 95 116 115 97 90 83 113 116 109 112 111 106 110 90 92 100 87 94 115 111 104 111 107 91 110 96 107 85 119 87 118 103 115 97 92 104 115 102 107 103 109 82 96 105 113 86 95 102 104 98 86 118 97 99 116 84 92 84 96 113 115 104 98 103 95 84 105 112 110 116 98 88 110 90 111 96 102 86 115 84 119 110 103 106 92 81 80 115 80 80 84 108 95 115 117 109 100 104 83 91 103 90 82 94 84 92 95 104 80 120 103 90 109 93 114 107 97 98 93 104 100 81 95 110 105 80 115 118 92 92 112 88 117
4098 4799 4697 4003 3751 4283 5004 4986 4285 4064 4522 5188 5270 4468 4120 4637 5176 5114 4355 3903 4335 5008 5025 4158 3734 4063 4662 4813 4054 3559 3893 4525 4417 3822 3271 3671 4299 4349 3694 3058 3317 4037 3975 3362 2942 3043 3762 3740 3145 2590 2918 3457 3602 2951 2422 2659 3347 3450 2661 2158 2400 3034 3079 2611 1981 2223 2735 2987 2419 1690 1859 2540 2711 2197 1519 1676 2199 2443 1979 1185 1320 1947 2350 1681 1145 1235 1817 2052 1553 801 830 1484 1761 96 113 99 103 81 93 110 103 90 103 90 81 98 112 95 95 118 87 86 100 97 93 89 119 100 95 92 87 87 113 97 93 107 80 87 88 81 97 90 94 115 97 116 95 80 84 96 110 102 81 104 109 119 87 112 82 100 120 90 85 109 112 90 113 118 94 81 117 114 98 86 118 82 113 119 112 104 94 115 99 110 102 88 91 93 85 112 109 102 93 103 81 105 93 90 119 101 90 93 100 101 95 84 105 98 84 114 105 99 90 104 86 88 87 101 114 101 111 104 103 116 86 97 113 84 97 89 106 116 83 107 103 108 99 87 85 91 119 109 93 102 107 120 112 104 118 109 114 99 90 82 114 120 106 104 106 117 101 98 103 116 111 120 88 110 104 106 111 80 120 103 113 96 94 83 109 86
3484 4265 4198 3539 3332 3751 4536 4433 3866 3550 3871 4732 4733 3994 3673 4248 4760 4813 4019 3530 3831 4568 4529 3772 3264 3724 4237 4255 3543 3000 3392 4058 4102 3474 2773 3137 3730 3905 3237 2669 2851 3542 3572 2908 2395 2738 3427 3412 2839 2192 2454 3004 3247 2526 1954 2155 2845 2864 2398 1750 1968 2623 2677 2046 1502 1654 2380 2583 1877 1277 1422 2031 2246 1768 1028 1281 1812 2039 1563 818 881 1564 1877 1353 616 626 1415 1682 1015 426 544 1070 1403 850 115 103 82 93 102 86 81 99 108 110 117 114 115 104 107 120 97 91 91 91 100 118 110 114 109 111 108 85 105 82 96 88 116 92 117 93 107 110 80 89 119 114 94 87 96 111 90 92 116 94 117 83 112 110 113 119 103 97 114 110 117 104 99 111 95 92 98 88 93 116 115 118 92 97 87 112 94 82 105 99 100 106 80 85 96 108 111 100 117 101 113 114 119 104 91 107 97 97 118 93 116 86 86 107 117 88 116 110 97 97 98 99 97 111 112 87 114 99 104 110 104 99 83 119 92 82 101 91 83 102 112 118 119 109 108 102 106 106 97 106 93 108 119 111 85 80 90 97 112 91 108 109 114 116 112 111 103 87 116 95 90 86 87 108 117 87 96 95 87 94 92 81 92 111 114 112
3177 3826 3718 3239 2825 3471 4044 4025 3441 3090 3683 4204 4392 3576 3365 3898 4542 4342 3791 3256 3660 4245 4284 3544 3131 3487 4107 3901 3256 2842 3159 3768 3819 3061 2546 2901 3528 3579 2886 2338 2641 3328 3252 2652 2094 2380 3107 3189 2519 1801 2205 2723 2970 2343 1697 1970 2457 2579 2078 1380 1683 2217 2526 1875 1204 1427 2061 2283 1656 899 1153 1900 2100 1312 674 938 1488 1863 1115 525 691 1339 1465 901 232 435 1018 1276 703 100 152 728 1104 570 83 115 85 84 118 84 107 89 105 86 96 98 110 118 107 110 84 98 108 88 91 114 115 85 106 102 110 92 118 93 110 87 94 105 83 82 82 88 96 86 120 92 115 91 100 106 96 107 115 110 87 115 99 111 110 90 91 105 113 96 87 108 114 108 115 120 82 118 91 113 107 104 117 106 112 112 106 91 94 120 117 87 115 87 119 99 109 117 108 80 120 90 116 120 93 84 98 97 84 105 113 104 115 85 105 116 112 80 93 89 103 100 90 83 110 90 88 103 87 82 119 92 110 92 83 116 106 95 120 101 107 83 97 85 89 106 110 92 120 104 117 85 117 99 109 83 113 115 118 98 94 107 86 99 87 105 93 105 104 119 100 99 81 118 105 94 98 115 86 88 88 115 113 95 109 87
3161 3861 3807 3267 3053 3479 4192 4234 3406 3107 3726 4442 4384 3786 3470 3814 4652 4556 3976 3503 3869 4485 4405 3601 3115 3603 4138 4246 3376 2961 3392 3889 3991 3271 2712 3138 3780 3769 3008 2474 2796 3476 3438 2756 2325 2617 3128 3271 2576 2147 2225 2956 2996 2352 1886 2051 2724 2772 2225 1556 1734 2415 2592 1957 1293 1540 2166 2299 1671 1085 1223 1935 2234 1478 931 1166 1743 1989 1444 743 729 1545 1778 1233 429 600 1233 1407 898 280 361 899 1191 744 100 114 107 107 97 84 94 110 109 113 117 115 101 96 120 119 106 84 113 120 87 90 87 102 90 101 106 111 112 120 97 82 116 111 87 92 110 114 115 99 95 99 106 109 81 96 113 109 87 80 114 100 118 89 89 118 94 99 90 105 84 114 99 100 90 80 86 84 108 117 104 107 101 93 91 118 118 97 84 100 110 83 90 107 105 96 108 110 98 103 92 99 106 80 84 102 108 87 83 91 97 97 104 89 120 113 81 103 119 119 113 108 101 120 104 97 95 84 87 93 116 117 95 86 117 103 82 117 95 114 82 98 115 80 85 104 93 82 95 88 85 115 89 115 113 109 82 84 83 111 95 82 109 99 120 107 111 108 87 99 105 112 111 116 113 95 103 80 113 83 119 119 80 103 115 115
3591 4382 4321 3595 3290 3843 4547 4530 3882 3657 4150 4780 4882 4132 3814 4257 4971 4942 4352 3938 4374 4922 4886 4070 3773 3989 4647 4662 3952 3406 3858 4426 4387 3813 3292 3633 4204 4274 3523 3020 3227 3838 3940 3411 2701 2949 3599 3780 3172 2636 2746 3376 3552 2905 2311 2477 3127 3261 2758 2001 2392 3045 3033 2524 1791 2025 2780 2971 2228 1682 1793 2424 2698 2144 1468 1470 2286 2416 1765 1227 1347 1940 2151 1669 934 1116 1792 1947 1499 703 778 1386 1830 1111 554 562 83 113 83 118 83 101 115 116 98 104 93 86 96 116 93 107 81 82 119 86 97 84 110 83 116 114 119 108 93 86 114 119 80 90 104 88 102 120 102 89 94 107 95 114 105 109 113 82 104 111 102 106 82 102 89 116 94 114 106 116 95 81 89 106 115 95 107 90 100 82 103 105 117 88 117 82 90 112 87 103 119 101 113 117 108 95 105 119 111 104 116 114 119 95 91 104 85 100 99 97 110 82 87 113 80 106 119 112 120 118 100 110 106 111 114 105 117 102 105 107 86 110 98 100 85 94 91 103 92 96 83 86 97 112 86 95 82 103 116 110 91 84 106 92 85 113 104 88 92 102 81 110 90 91 99 118 112 118 116 107 99 88 103 105 114 83 90 84 119 93 100 88 84 88
4052 4643 4587 4088 3606 4234 4829 4978 4264 3960 4509 5221 5042 4495 4160 4691 5335 5439 4707 4362 4684 5299 5283 4529 4086 4496 5171 4978 4316 3858 4117 4839 4904 4209 3566 3935 4557 4561 3951 3499 3757 4436 4321 3721 3112 3363 4062 4139 3596 3017 3222 3780 3995 3364 2742 3049 3684 3782 3192 2424 2719 3286 3568 2897 2237 2531 3152 3230 2659 2120 2237 2967 3024 2553 1750 2017 2564 2740 2219 1525 1737 2414 2593 2099 1437 1487 2109 2482 1805 1105 1247 1936 2190 1653 1031 1093 1628 101 102 87 87 113 116 107 83 118 89 97 114 119 82 115 87 116 104 90 108 106 83 87 91 91 103 103 101 116 81 94 86 106 96 106 110 87 107 118 119 81 118 82 108 108 99 92 92 103 100 110 112 98 103 82 80 105 97 99 116 106 99 115 119 90 92 110 116 96 85 83 108 89 115 92 105 92 112 92 84 94 100 102 84 89 111 112 84 97 90 114 111 107 116 101 105 86 113 84 92 103 106 118 115 86 120 117 96 94 82 81 94 84 86 84 81 90 96 111 84 119 103 88 116 103 107 99 105 119 105 105 87 87 112 88 100 103 92 95 120 114 93 91 82 112 93 118 118 112 114 112 98 92 97 85 117 96 92 117 104 101 120 117 120 110 111 84 104 85 102 101 93 109
3923 4500 4474 3860 3580 4185 4770 4725 4227 3792 4365 4973 5037 4502 4136 4544 5227 5210 4605 4205 4633 5391 5237 4468 4030 4439 5083 5042 4405 3914 4177 4729 4802 4097 3688 3851 4627 4616 3954 3432 3729 4269 4438 3740 3210 3511 4154 4257 3527 3010 3232 3851 3854 3241 2661 2977 3613 3761 3137 2454 2617 3335 3469 2840 2315 2376 3030 3296 2637 2107 2137 2908 3079 2454 1793 1927 2572 2923 2213 1665 1776 2386 2700 2110 1474 1382 2029 2397 1772 1102 1227 1861 2202 1579 907 885 1568 1981 118 104 108 92 96 105 109 80 103 99 109 110 84 116 81 117 97 108 106 108 120 81 105 101 84 81 103 85 89 88 103 110 101 113 103 99 108 84 112 105 92 100 102 83 109 105 117 120 89 81 87 116 83 86 92 100 90 96 84 95 99 87 93 103 102 84 113 93 84 89 88 103 94 107 84 109 92 114 116 89 80 80 114 96 87 90 81 108 89 117 89 86 114 103 96 107 116 110 106 86 114 119 101 84 111 88 110 94 100 95 99 85 103 106 98 91 113 100 80 83 100 118 101 82 108 116 106 106 95 117 83 94 90 90 83 111 107 83 102 85 102 87 94 87 103 86 102 120 109 91 100 93 118 96 105 89 81 117 86 110 81 109 93 100 88 118 90 108 85 93 90 97
3355 4036 4179 3494 3240 3624 4378 4338 3771 3413 3867 4639 4552 3987 3620 4048 4833 4751 4220 3771 4256 4924 4877 4088 3762 3987 4728 4609 3938 3395 3752 4404 4497 3813 3162 3552 4192 4173 3498 2944 3296 4002 4008 3396 2735 3062 3775 3804 3189 2523 2754 3528 3465 2994 2248 2642 3252 3361 2601 2151 2297 3026 3193 2568 1813 2086 2649 2976 2262 1605 1860 2487 2589 2135 1404 1646 2184 2421 1757 1166 1381 1885 2150 1546 895 1064 1703 1997 1328 771 816 1402 1842 1221 550 563 1327 1477 1040 98 109 104 93 101 89 87 102 88 93 97 83 102 114 103 111 101 118 118 117 105 105 84 115 106 88 86 112 96 81 84 90 85 86 106 92 118 113 113 111 82 86 107 117 95 118 118 108 90 115 85 120 96 117 81 117 81 104 108 114 92 116 108 90 107 107 116 115 99 87 113 106 93 93 90 109 119 83 115 83 89 91 97 107 95 90 105 86 89 81 114 85 110 93 109 82 82 114 114 83 87 86 111 117 108 90 84 94 89 118 93 90 119 88 98 105 94 102 90 95 116 85 86 83 93 83 80 110 88 117 120 106 105 111 86 110 96 111 104 116 80 106 116 92 85 86 86 105 99 92 86 111 99 95 116 108 84 82 110 112 89 84 108 102 86 82 88 107 119 120 98
2924 3588 3566 3047 2686 3141 3917 3797 3240 3023 3364 4152 4086 3507 3161 3564 4318 4454 3757 3477 3786 4575 4593 3847 3370 3759 4404 4238 3624 3185 3402 4129 4031 3466 2848 3191 3823 3886 3062 2712 2996 3618 3633 2945 2492 2761 3341 3341 2719 2110 2423 3136 3180 2601 2001 2100 2839 2912 2360 1783 1856 2629 2822 2030 1469 1745 2372 2542 1802 1219 1533 2107 2301 1680 1108 1209 1793 2145 1563 749 937 1571 1748 1342 518 700 1383 1623 1018 436 507 1036 1447 916 214 135 899 1109 550 118 88 115 103 82 109 112 114 90 104 118 113 111 118 96 86 98 114 109 83 113 117 107 83 113 120 112 117 102 119 85 96 91 87 119 81 95 102 113 109 94 102 104 113 102 89 116 117 110 95 80 94 99 92 97 114 81 87 90 99 98 99 90 94 93 87 91 86 100 119 94 94 96 83 92 113 86 107 114 105 97 104 109 112 100 104 87 82 101 115 120 98 119 99 107 89 107 109 118 82 96 99 108 108 115 94 119 109 90 113 94 91 117 113 80 118 111 97 89 95 83 84 105 91 92 91 98 92 81 103 103 115 92 86 87 83 91 119 90 105 99 81 88 89 99 98 114 93 112 105 80 91 89 96 120 99 116 85 89 98 102 86 118 113 89 115 87 102 101 104 93
2850 3626 3491 2942 2583 3191 3796 3747 3106 2967 3452 4080 4071 3377 3177 3504 4260 4300 3769 3320 3782 4477 4568 3771 3249 3720 4401 4394 3518 3090 3540 4125 4071 3425 2788 3282 3884 3846 3260 2692 2945 3535 3601 2962 2397 2695 3311 3496 2725 2125 2539 3125 3289 2561 1918 2234 2959 3056 2367 1821 1966 2599 2713 2068 1557 1795 2430 2541 1843 1371 1421 2082 2333 1793 1005 1298 1866 2105 1418 886 1033 1692 1917 1223 545 694 1282 1664 1037 360 535 1205 1351 825 224 306 816 1141 704 100 119 95 87 86 81 117 88 116 99 104 86 117 106 105 98 105 92 101 111 114 96 120 111 86 115 91 120 93 104 92 115 98 89 106 110 102 120 99 120 107 110 117 105 110 106 116 82 93 92 86 81 90 108 98 103 115 83 102 103 108 112 87 118 103 81 99 91 109 82 85 80 105 88 113 100 102 118 98 100 114 116 112 109 96 102 88 88 93 83 97 113 112 87 105 100 110 117 100 81 117 90 111 113 86 80 94 120 116 89 107 95 80 102 120 117 107 91 89 98 92 120 101 93 87 84 86 84 83 109 92 114 110 97 93 95 109 86 84 100 97 99 92 119 101 103 89 87 119 83 83 99 87 99 113 89 110 90 81 109 96 92 95 81 102 87 100 116 112 90 82
3214 3950 3859 3213 3000 3521 4117 4209 3639 3144 3776 4364 4450 3853 3480 3950 4678 4678 4088 3650 4056 4772 5006 4220 3849 4226 4817 4837 4061 3581 3825 4430 4512 3783 3406 3730 4216 4297 3705 3167 3341 4098 4117 3326 2878 3181 3877 3898 3165 2562 2836 3452 3651 2980 2466 2572 3275 3320 2732 2114 2428 2974 3240 2465 1891 2221 2702 2939 2291 1716 1963 2581 2759 2042 1525 1566 2351 2551 1931 1187 1489 1993 2224 1760 1014 1190 1818 1994 1527 864 845 1640 1879 1251 573 660 1243 1586 1039 456 332 82 89 94 92 106 86 104 99 119 100 112 82 110 117 89 104 91 86 96 89 89 110 82 86 87 114 108 94 120 119 116 90 81 103 109 120 114 80 88 84 110 91 111 87 94 92 100 88 112 98 120 99 92 99 99 114 93 80 81 85 117 89 101 107 101 101 86 84 108 101 109 94 92 94 118 111 82 99 87 83 116 102 82 91 99 86 102 90 108 89 115 97 114 115 111 108 94 120 103 108 91 85 103 113 107 110 92 85 98 80 109 100 103 110 86 104 95 103 101 88 114 112 115 111 91 110 97 103 89 97 85 84 118 98 84 96 97 89 85 96 83 106 104 83 84 113 89 95 109 110 84 102 104 91 93 102 113 120 83 110 105 90 118 115 86 113 101 117 107
3786 4363 4288 3630 3338 4019 4670 4625 3893 3552 4143 4787 4824 4256 3932 4318 4958 5092 4541 4165 4505 5205 5410 4792 4186 4644 5329 5300 4490 4124 4440 4923 5098 4389 3873 4119 4802 4717 4015 3599 3810 4460 4622 3787 3286 3559 4217 4240 3651 3084 3286 4038 4150 3416 2963 3103 3679 3836 3174 2723 2802 3513 3672 3011 2456 2627 3269 3418 2914 2270 2349 2969 3319 2594 1935 2083 2691 2924 2466 1868 1787 2567 2865 2110 1617 1635 2365 2485 2040 1329 1375 1961 2366 1789 1076 1213 1732 2067 1559 839 820 1562 89 102 92 89 111 108 108 111 102 119 90 112 120 112 105 109 105 99 95 102 83 90 92 90 99 85 102 82 118 94 111 92 107 108 120 86 107 81 89 106 99 99 96 113 84 92 89 81 90 90 119 111 118 113 104 104 82 103 83 110 90 103 88 83 95 88 111 120 115 101 87 85 103 107 85 90 108 107 101 115 87 103 81 91 86 94 118 103 116 90 101 107 84 105 104 87 99 101 81 117 119 101 80 87 116 109 114 90 100 108 95 94 86 111 93 96 84 83 83 106 87 97 85 96 102 100 90 87 89 82 90 82 101 88 97 103 106 104 82 108 84 97 100 88 96 85 97 116 106 116 91 116 119 118 91 89 108 94 87 89 117 98 101 117 118 108 107 100
3766 4376 4420 3767 3436 3971 4721 4692 3975 3632 4165 4929 4804 4180 3872 4367 5065 5172 4429 4144 4626 5308 5387 4765 4291 4708 5363 5291 4664 4222 4526 5048 5103 4499 3885 4188 4901 4866 4298 3772 4046 4596 4765 4088 3483 3672 4305 4541 3755 3183 3528 4170 4265 3660 3082 3231 3884 4100 3432 2831 3046 3640 3778 3065 2558 2708 3475 3552 3042 2398 2563 3077 3282 2805 2061 2267 2828 3021 2523 1903 2039 2636 2835 2380 1695 1699 2352 2654 2185 1469 1459 2227 2456 1972 1209 1183 1910 2296 1787 1033 1065 1756 2036 86 90 113 104 87 114 91 108 102 110 108 112 92 100 89 82 98 113 87 109 102 97 91 111 115 105 97 89 90 86 119 114 91 102 120 112 120 95 89 105 120 101 99 88 96 115 98 113 108 119 106 105 109 80 119 80 113 105 110 114 95 93 111 114 116 115 114 106 117 85 87 102 81 105 107 91 86 89 120 88 119 84 104 96 94 119 110 113 115 80 86 106 116 116 90 91 92 109 113 101 98 100 119 113 112 112 95 102 91 112 117 87 104 119 90 84 94 82 108 80 86 112 85 86 88 89 108 85 94 107 113 115 118 95 111 117 105 100 86 95 119 102 111 103 114 83 84 81 103 107 100 84 110 84 116 109 85 112 92 105 100 103 112 84 82 80 119
3443 3994 3915 3337 3043 3489 4205 4158 3548 3274 3849 4399 4472 3849 3563 3914 4724 4724 4153 3706 4185 4940 5038 4298 4010 4332 5043 5061 4305 3872 4159 4853 4858 4102 3704 3994 4659 4550 3831 3460 3688 4389 4275 3675 3184 3506 4096 4167 3511 3008 3139 3755 3842 3358 2705 2919 3610 3697 2982 2391 2636 3348 3532 2925 2308 2460 3093 3188 2560 2047 2221 2861 2960 2473 1872 1890 2525 2835 2176 1527 1687 2447 2666 2008 1356 1445 2021 2339 1785 1230 1156 1891 2077 1568 942 872 1586 1809 1390 597 653 1263 1664 1085 101 81 96 107 102 101 82 85 106 95 90 104 120 112 113 113 81 84 118 86 84 99 116 90 83 102 91 101 107 114 110 110 94 90 111 95 95 90 100 100 106 106 107 82 89 80 119 85 104 103 94 115 99 87 115 117 112 88 106 116 119 85 87 115 118 82 106 118 108 83 96 90 88 109 82 85 120 95 93 116 104 81 81 118 95 93 115 119 113 80 84 91 88 120 81 111 81 94 85 80 116 85 82 115 89 89 120 112 97 103 83 95 107 104 102 110 96 88 120 104 91 112 110 87 97 99 83 109 98 96 101 109 84 117 90 93 108 92 85 106 105 94 109 85 99 81 95 84 117 80 112 105 93 91 88 97 87 98 108 108 109 83 83 114 80 95
2935 3608 3562 2809 2500 3037 3668 3836 3100 2761 3331 3947 4065 3415 3047 3551 4249 4255 3636 3221 3780 4465 4553 3791 3405 3965 4676 4693 3948 3319 3810 4472 4378 3778 3143 3487 4047 4248 3472 2942 3217 3835 4027 3320 2664 3050 3705 3807 3077 2460 2769 3369 3580 2779 2360 2490 3192 3332 2722 2049 2355 2934 3151 2372 1875 2104 2623 2875 2161 1620 1863 2467 2684 1958 1293 1448 2269 2314 1865 1130 1176 1939 2252 1551 950 969 1751 1859 1366 782 772 1395 1691 1082 552 521 1118 1397 958 339 247 867 1231 681 112 100 105 118 82 109 93 93 111 111 110 107 94 91 111 96 119 113 111 114 108 103 118 97 118 101 88 108 93 84 87 84 95 99 98 81 91 88 95 109 95 88 112 95 116 118 103 82 104 106 80 88 81 103 86 101 108 97 110 90 92 85 118 116 94 86 103 101 108 111 109 81 94 105 92 118 100 86 88 101 117 116 117 108 118 95 98 110 88 118 111 87 96 85 81 96 101 101 116 100 100 90 94 108 111 97 117 107 116 90 88 86 106 117 114 92 102 104 83 80 87 89 100 80 114 113 110 94 107 85 108 111 82 107 90 115 92 102 99 93 90 99 104 117 116 104 100 101 109 95 120 85 101 91 87 97 86 108 106 107 106 82 83 112 91 85
2625 3301 3210 2611 2461 2841 3582 3613 2905 2657 3154 3850 3867 3191 2794 3263 3952 4072 3420 2970 3539 4316 4331 3661 3265 3762 4360 4459 3736 3210 3672 4220 4258 3628 3083 3430 4105 4002 3311 2913 3113 3844 3896 3164 2701 2832 3501 3700 2884 2382 2729 3277 3433 2757 2089 2359 3111 3223 2521 1936 2063 2741 2933 2365 1803 1839 2494 2776 2051 1546 1589 2356 2576 1825 1356 1403 2053 2173 1708 1069 1102 1844 2130 1479 794 923 1582 1778 1281 671 728 1324 1536 1119 433 383 1035 1342 801 207 180 867 1199 663 100 104 88 83 106 101 93 88 111 117 93 98 111 102 116 89 115 107 99 113 92 86 107 119 105 107 80 84 91 80 103 92 86 91 101 101 85 101 117 117 89 117 106 117 89 120 84 90 116 98 106 98 82 80 116 95 98 95 108 101 89 118 107 88 83 104 117 94 95 91 108 109 108 95 100 94 111 120 117 92 87 99 98 81 96 84 101 110 109 90 108 104 99 116 100 85 88 105 101 87 115 115 81 80 83 120 102 110 85 81 86 116 94 101 82 112 81 85 100 106 80 116 100 107 93 114 85 80 107 92 98 114 107 107 111 108 110 90 102 82 93 101 110 113 105 116 96 87 87 80 117 115 101 108 88 80 120 86 87 113 105 119 111 87 84 120
2844 3610 3574 2922 2684 3112 3773 3856 3119 2926 3324 4137 4095 3479 3068 3539 4325 4364 3764 3344 3822 4561 4576 3844 3644 3988 4772 4715 4159 3601 4011 4515 4651 3868 3507 3767 4402 4302 3799 3102 3568 4162 4264 3417 2972 3196 3793 3924 3247 2637 2909 3580 3719 2993 2537 2704 3379 3426 2799 2278 2431 3189 3299 2655 2121 2144 2806 2996 2467 1830 1940 2696 2770 2138 1687 1748 2438 2611 1931 1438 1532 2114 2410 1857 1219 1242 2005 2079 1578 921 1087 1706 1841 1422 719 806 1440 1681 1108 487 495 1171 1527 881 308 308 89 87 82 96 101 98 107 87 111 86 113 85 99 82 88 100 83 88 93 117 82 114 102 91 106 107 114 88 108 84 103 108 95 90 116 115 119 83 120 96 92 119 95 93 85 114 108 93 116 99 84 103 112 88 104 107 113 116 93 111 119 86 84 83 84 106 86 101 100 100 115 90 97 89 90 107 105 96 85 109 93 96 111 107 87 101 87 116 110 117 84 113 105 89 113 87 112 81 87 97 104 99 84 104 80 96 102 84 86 84 107 90 101 112 114 109 96 99 115 94 118 102 119 91 93 118 112 87 100 81 119 110 119 114 108 100 97 91 91 97 117 92 120 103 109 86 109 82 85 113 87 88 107 108 82 110 93 83 83 114 104 112 107 103
3326 4143 3961 3417 3168 3508 4329 4178 3645 3245 3839 4582 4424 3832 3596 4013 4745 4805 4169 3694 4266 4951 5054 4398 4040 4351 5132 5170 4615 4089 4518 5085 5152 4415 3983 4235 4815 4974 4143 3763 3905 4721 4645 4083 3460 3793 4316 4534 3759 3264 3429 4148 4232 3495 3009 3252 3815 3985 3399 2799 3010 3716 3869 3085 2520 2840 3354 3475 2954 2267 2421 3184 3407 2825 2194 2261 2862 3163 2545 1798 1937 2679 2949 2265 1724 1785 2473 2689 2030 1535 1461 2087 2509 1971 1252 1200 1977 2174 1754 990 1056 1712 2022 1471 733 837 1475 94 93 118 101 90 97 88 99 120 94 97 91 94 87 116 98 108 103 89 104 98 114 118 106 120 80 80 84 117 100 82 86 116 116 109 120 111 103 100 119 81 88 95 118 86 106 90 81 109 94 110 116 89 85 94 99 105 95 101 94 83 112 90 99 110 115 97 94 119 95 98 119 85 109 103 81 110 114 87 108 81 106 85 108 80 100 101 86 109 111 120 92 84 85 90 102 95 113 100 100 95 106 80 82 109 89 99 106 102 107 120 108 107 120 106 90 117 108 85 99 87 104 89 98 92 106 108 85 86 80 110 83 93 110 118 97 106 106 81 80 96 96 107 94 90 94 119 91 89 119 116 112 115 109 109 86 107 119 108 108 110 112 98
3648 4204 4231 3482 3314 3844 4492 4524 3890 3523 3982 4654 4643 4062 3620 4257 4870 4893 4377 3952 4432 5175 5069 4565 4062 4589 5343 5433 4842 4390 4748 5432 5325 4682 4185 4566 5127 5196 4564 3901 4252 4928 4909 4166 3715 4052 4711 4693 3995 3422 3821 4390 4558 3768 3288 3442 4130 4306 3612 3041 3188 3989 4139 3377 2864 3092 3702 3782 3132 2675 2763 3426 3532 3098 2330 2443 3067 3313 2723 2136 2268 2958 3221 2591 1945 2098 2679 3010 2295 1775 1710 2332 2727 2157 1507 1517 2131 2445 1853 1174 1295 2004 2237 1729 972 1132 1664 1976 114 114 95 87 118 113 92 113 115 106 87 105 103 92 86 93 97 85 102 120 105 93 84 89 111 115 113 106 109 82 105 111 119 86 110 114 86 113 88 99 118 105 90 104 85 83 106 112 95 84 98 92 97 112 95 88 94 108 94 84 115 92 119 118 104 101 106 113 120 81 99 103 118 85 94 115 100 117 96 86 101 113 107 118 106 114 102 86 87 117 109 115 87 112 101 103 83 99 107 80 105 101 88 116 98 101 105 86 92 93 89 101 119 80 81 116 87 99 112 118 87 119 116 98 90 81 84 82 85 99 81 111 107 103 86 116 117 103 93 100 118 99 102 93 88 108 103 102 83 110 87 113 90 93 98 84 93 108 92 110 87 85
3322 3936 3874 3308 2923 3547 4259 4074 3450 3158 3747 4468 4302 3776 3430 3859 4575 4635 3970 3652 4149 4895 4933 4289 3807 4385 5089 5112 4475 4032 4458 5250 5126 4569 3882 4354 4921 4914 4332 3793 4042 4769 4726 4140 3471 3788 4404 4468 3783 3208 3566 4232 4354 3680 2974 3299 3945 3972 3429 2904 3075 3699 3771 3302 2629 2733 3388 3587 2987 2363 2450 3221 3305 2834 2166 2233 3027 3119 2596 1842 2055 2701 2880 2346 1740 1858 2396 2620 2167 1455 1631 2283 2557 1925 1308 1379 1891 2215 1645 1025 1118 1644 2112 1542 811 820 1427 1880 1390 107 101 112 89 114 111 109 100 80 96 90 99 112 104 97 104 106 87 108 120 119 118 86 95 119 117 101 102 86 88 85 94 114 96 97 120 106 100 109 92 99 97 94 119 99 85 106 80 100 102 99 88 109 85 118 95 83 91 104 100 80 90 82 86 101 93 118 89 91 92 96 114 95 114 107 85 85 82 105 90 116 88 108 113 119 97 105 89 88 118 112 101 99 86 90 83 89 97 114 110 82 104 92 80 82 86 96 84 88 98 94 89 98 118 107 108 110 100 100 80 105 89 82 116 96 91 97 88 88 113 120 98 86 106 120 81 108 120 108 116 92 112 106 95 92 92 112 113 116 90 81 101 85 100 93 114 101 108 116 94 92
2651 3401 3333 2730 2340 2996 3629 3716 3079 2728 3074 3883 3967 3173 2876 3414 4169 4056 3503 3108 3602 4370 4420 3667 3396 3842 4564 4606 4012 3498 3968 4824 4749 4098 3449 3795 4487 4515 3744 3219 3617 4243 4224 3631 3123 3378 4031 4112 3382 2766 3019 3836 3802 3251 2653 2829 3452 3695 3019 2462 2518 3348 3484 2770 2263 2299 3013 3141 2475 1968 2116 2859 2913 2385 1820 1865 2457 2736 2217 1547 1570 2342 2516 1890 1252 1445 1960 2291 1753 1150 1097 1723 2145 1441 877 814 1553 1726 1371 525 626 1336 1520 1058 312 483 1035 1299 811 104 103 84 82 81 110 89 111 110 105 80 98 97 115 112 88 120 110 95 88 116 87 98 116 111 106 90 84 89 94 87 111 100 102 104 90 116 97 114 90 116 103 91 115 85 87 84 113 81 115 100 98 96 120 107 100 120 96 92 119 87 108 94 104 81 120 99 104 90 113 80 95 117 109 90 105 81 86 113 84 113 116 120 82 114 97 84 111 100 108 120 96 117 112 85 119 94 98 104 99 103 80 80 80 86 90 117 118 107 91 107 106 95 113 113 88 82 116 84 102 97 96 117 100 83 92 85 94 103 90 103 102 119 107 119 83 112 120 91 90 83 83 115 92 102 109 86 84 102 107 94 110 96 99 97 81 91 84 114 81 81
2422 3141 3119 2334 2049 2706 3406 3226 2648 2409 2867 3586 3644 2899 2620 2974 3791 3813 3177 2786 3315 3937 4014 3430 2953 3477 4197 4270 3700 3363 3619 4515 4464 3874 3331 3638 4275 4276 3517 3003 3264 4067 4060 3296 2925 3035 3753 3835 3270 2562 2817 3522 3563 2898 2316 2611 3180 3489 2833 2211 2331 3084 3158 2474 2027 2181 2847 3021 2297 1705 1801 2503 2789 2175 1573 1656 2337 2500 1886 1196 1293 1965 2334 1601 961 1236 1805 1945 1542 857 967 1612 1714 1348 654 688 1282 1662 971 429 372 1031 1267 796 100 151 769 1226 563 100 117 95 115 86 107 102 99 92 116 117 80 111 80 90 94 106 96 88 117 108 89 85 115 95 100 102 81 84 110 113 88 110 115 80 106 85 103 99 102 113 102 93 117 95 92 90 117 83 105 80 92 109 106 98 102 106 115 92 118 81 92 109 112 105 105 119 120 93 80 97 113 113 113 120 103 115 106 88 103 117 95 101 88 113 83 103 82 102 103 91 110 120 117 108 98 118 104 94 92 105 113 115 93 85 106 100 92 100 119 96 98 92 118 108 87 93 87 91 119 89 91 98 91 81 109 105 92 103 99 98 106 104 111 92 101 119 96 94 93 87 108 97 106 106 82 82 96 103 118 109 89 119 86 107 111 95 83 96 117 107
2609 3358 3211 2483 2313 2720 3572 3378 2800 2574 2948 3743 3696 3171 2747 3189 3957 4004 3338 2891 3439 4113 4250 3592 3278 3731 4363 4472 3795 3436 3805 4536 4679 4107 3518 3781 4548 4474 3734 3288 3512 4262 4334 3592 3072 3303 3999 4153 3337 2765 3026 3736 3786 3095 2626 2894 3576 3686 3021 2431 2532 3324 3408 2746 2076 2315 2986 3195 2503 1946 2144 2825 3013 2364 1780 1849 2410 2727 2038 1500 1667 2238 2427 2005 1252 1405 1952 2234 1743 1002 1213 1690 1974 1523 731 906 1419 1820 1384 533 702 1306 1638 1099 411 315 940 1292 886 192 100 119 109 118 81 84 111 89 118 87 98 111 102 92 99 92 93 81 100 95 94 105 114 96 111 94 111 112 91 97 103 101 94 88 86 107 88 88 96 82 106 110 117 99 97 93 103 99 95 107 93 89 110 106 111 105 90 94 109 105 113 82 112 106 103 97 111 81 108 113 107 113 101 92 84 107 101 103 109 89 92 81 114 88 96 112 91 106 88 104 96 86 80 106 120 112 102 120 112 104 110 96 102 117 102 100 92 87 91 102 97 80 118 83 100 83 99 114 118 91 99 103 119 104 91 113 101 90 90 105 113 88 99 117 88 105 97 88 116 80 103 88 105 94 100 99 94 110 117 104 101 95 103 80 99 109 82 93 105 92
3072 3758 3608 3024 2621 3165 3909 3900 3307 2918 3513 4224 4177 3485 3101 3688 4321 4284 3776 3459 3769 4632 4722 4021 3638 3991 4714 4889 4200 3803 4310 5111 5058 4414 4072 4285 4928 4978 4290 3777 4127 4677 4803 4060 3554 3780 4452 4549 3869 3330 3591 4345 4336 3727 3056 3428 3989 4123 3546 2964 3119 3797 3879 3326 2641 2859 3557 3655 3018 2414 2664 3208 3366 2775 2201 2379 2953 3156 2580 2054 2171 2763 3057 2362 1763 1807 2591 2786 2311 1492 1592 2228 2609 2103 1297 1377 1994 2322 1798 1179 1112 1809 2034 1662 932 931 1594 1803 1327 731 679 1305 92 94 84 93 80 87 83 86 94 120 103 95 120 104 98 84 102 117 120 120 110 93 98 100 87 113 117 98 107 105 113 101 103 102 109 89 83 118 85 105 81 111 106 107 92 98 104 109 106 81 84 115 108 83 97 84 116 84 96 80 100 84 94 111 104 102 114 107 105 87 116 120 111 110 82 101 100 120 107 108 92 82 104 92 120 116 119 109 86 92 107 99 120 113 91 95 101 105 111 89 83 106 107 95 108 115 94 87 114 114 88 81 102 102 99 105 99 101 101 113 111 81 109 100 118 106 107 93 115 111 113 86 94 101 106 91 107 116 107 110 117 104 101 97 82 108 99 99 116 100 103 106 88 110 81 111 84 103
3361 3893 3887 3287 3024 3506 4212 4206 3540 3273 3807 4371 4440 3811 3398 3987 4703 4589 4024 3675 4229 4881 5011 4254 3859 4300 5082 5214 4564 4074 4590 5341 5344 4740 4296 4633 5269 5432 4643 4094 4418 5191 5201 4500 3942 4164 4855 5031 4353 3810 3944 4575 4719 4006 3422 3715 4395 4479 3799 3215 3415 4030 4290 3610 2945 3223 3927 4095 3418 2725 2996 3651 3873 3154 2524 2759 3378 3582 2974 2452 2414 3204 3298 2777 2076 2253 2802 3239 2598 1939 1931 2580 2875 2307 1717 1787 2311 2628 2102 1503 1426 2125 2376 1920 1292 1272 1883 2189 1746 956 1076 1616 1922 102 98 109 101 111 103 89 86 89 110 108 108 97 91 104 97 113 109 109 108 94 113 120 116 102 113 106 109 115 109 109 103 113 120 94 106 106 107 102 91 112 117 104 93 96 84 91 119 105 108 96 104 112 113 85 99 96 110 111 108 114 107 83 107 95 101 101 93 120 88 120 83 100 118 119 83 97 116 84 107 96 116 109 82 99 109 114 102 85 113 81 111 82 89 92 110 101 92 118 90 106 97 89 103 108 85 105 114 85 92 85 97 102 102 108 109 98 86 84 101 115 110 94 102 116 90 88 84 109 100 80 110 119 101 109 114 91 80 102 113 106 80 115 112 89 87 106 105 104 87 80 80 112 98 107 104 106
3074 3821 3825 3206 2842 3397 4113 4124 3305 3150 3608 4341 4281 3567 3283 3825 4474 4449 3971 3454 3952 4635 4673 4124 3748 4180 4951 4988 4356 3979 4509 5192 5208 4634 4224 4603 5272 5301 4676 3985 4280 4929 5127 4298 3796 4048 4740 4882 4225 3685 3880 4457 4535 3992 3346 3664 4267 4305 3716 3133 3412 4060 4271 3613 2975 3123 3728 3898 3242 2795 2848 3594 3697 3199 2522 2548 3388 3591 2821 2305 2352 2981 3238 2640 1974 2107 2810 3137 2420 1898 1891 2516 2818 2208 1627 1653 2222 2551 2066 1421 1518 1997 2393 1774 1244 1177 1789 2216 1746 861 991 1502 2001 1408 100 81 83 100 118 115 111 102 85 90 90 99 87 118 106 96 120 88 120 104 88 116 92 116 97 97 106 97 109 84 100 113 119 81 105 115 114 94 87 82 96 115 115 99 103 117 83 80 94 97 101 112 100 83 88 91 117 106 80 93 111 102 102 92 104 117 115 90 105 114 85 100 110 96 112 89 119 86 90 105 105 93 83 81 110 114 87 98 87 112 80 103 90 99 98 97 118 120 87 96 100 99 88 117 82 97 108 105 103 108 116 87 112 116 117 90 120 81 81 100 111 84 99 104 115 81 87 89 98 117 114 81 87 81 92 83 84 81 104 117 81 108 112 89 119 87 101 111 85 99 91 107 94 102 118 104
2731 3389 3323 2544 2406 2890 3593 3576 2884 2555 2978 3687 3810 3166 2889 3291 3983 4067 3471 2950 3422 4120 4279 3649 3261 3733 4333 4501 3852 3403 3878 4640 4662 4209 3748 4174 4819 4921 4216 3745 3993 4522 4642 3967 3441 3775 4392 4344 3773 3188 3484 4138 4284 3555 2931 3297 3901 3915 3365 2721 2886 3653 3831 3163 2486 2788 3392 3516 2892 2214 2437 3216 3398 2663 2149 2316 2974 3122 2425 1903 1954 2700 2791 2205 1718 1785 2397 2679 2130 1449 1515 2055 2451 1943 1290 1228 1972 2240 1741 896 971 1669 1929 1522 837 685 1462 1701 1192 607 475 1069 1544 980 100 81 101 115 80 98 107 102 96 94 93 116 117 112 111 88 100 86 120 111 98 85 106 103 80 90 107 118 84 90 102 90 107 116 80 101 82 103 85 81 95 115 97 84 100 105 115 101 114 109 90 99 98 119 107 104 118 85 102 104 94 83 106 81 85 94 88 97 117 89 86 99 115 106 116 105 91 80 84 100 89 114 113 83 102 87 86 113 95 108 111 116 99 110 94 87 104 114 104 89 80 85 110 85 107 95 105 117 113 81 107 112 93 116 107 81 106 116 92 111 80 120 111 118 109 104 88 80 116 108 104 110 97 103 119 110 104 103 104 118 106 101 98 90 82 95 102 105 82 107 107 83 91 111 106 97
2173 2854 2860 2144 1905 2450 3104 3068 2403 2174 2711 3329 3277 2692 2482 2882 3666 3519 2999 2551 3066 3840 3927 3143 2900 3357 3979 4035 3446 2999 3571 4205 4329 3673 3225 3661 4427 4481 3839 3315 3687 4198 4366 3721 3017 3426 3962 4066 3500 2874 3206 3793 3904 3187 2663 2812 3484 3731 3032 2399 2581 3364 3437 2776 2258 2299 3056 3276 2566 1950 2076 2774 2949 2331 1809 1939 2635 2755 2216 1524 1558 2307 2526 2011 1382 1429 2062 2363 1679 1119 1174 1796 2095 1573 948 1011 1602 1772 1415 559 729 1315 1578 1143 465 523 1138 1439 808 223 257 886 1210 693 100 83 101 90 99 91 87 113 95 113 100 97 114 103 117 112 85 112 93 116 92 83 103 96 115 92 95 118 82 114 94 88 118 96 117 115 91 104 101 86 86 93 95 98 91 91 117 87 116 116 102 103 80 110 103 112 84 114 118 85 85 109 100 94 84 92 87 89 112 87 119 99 97 118 84 118 112 115 89 100 112 114 106 111 112 109 91 106 117 90 80 87 120 100 119 89 112 95 104 84 88 97 95 117 89 98 93 107 89 80 113 103 84 94 83 107 106 116 110 112 115 95 102 96 81 112 108 89 98 107 118 89 113 107 101 102 112 107 106 120 92 113 81 93 90 96 105 84 108 81 81 91 91 107 91 81
2332 2952 2937 2161 1917 2445 3148 3143 2401 2124 2631 3369 3375 2747 2447 2835 3578 3643 2965 2655 3148 3904 3868 3192 2811 3302 3962 4200 3493 3112 3568 4290 4441 3701 3298 3749 4406 4549 3912 3476 3642 4418 4467 3809 3297 3522 4178 4158 3491 2999 3128 3918 3983 3229 2655 2952 3633 3840 3049 2547 2654 3468 3476 2834 2198 2546 3216 3350 2706 2094 2163 2901 3169 2417 1753 2077 2696 2946 2284 1565 1766 2317 2718 2058 1357 1471 2172 2351 1929 1151 1336 1861 2112 1631 1041 995 1660 1897 1466 772 692 1384 1737 1242 509 450 1063 1582 964 394 247 829 1336 802 113 100 100 104 88 92 114 106 92 105 113 83 87 93 112 108 83 101 112 81 117 84 80 85 114 96 81 104 96 93 119 116 92 119 92 96 114 119 93 120 96 89 113 116 90 102 99 119 114 118 112 100 90 90 96 101 80 104 85 92 100 118 119 99 94 101 89 109 103 97 83 112 108 110 100 80 115 84 111 117 104 91 99 81 105 91 94 86 102 112 107 96 98 84 113 103 86 88 100 88 102 117 83 83 88 96 119 103 120 116 87 102 86 95 116 119 105 99 108 90 109 90 114 82 83 85 87 102 92 93 84 100 115 108 82 108 92 102 117 105 96 111 87 99 89 88 91 83 82 111 113 115 109 115 92 115
2612 3339 3224 2705 2340 2869 3599 3542 2874 2493 3118 3683 3815 3207 2703 3206 3896 4043 3377 3073 3512 4269 4296 3578 3246 3693 4417 4576 3843 3513 3923 4705 4783 4097 3657 4223 4952 5010 4465 3821 4120 4791 4871 4224 3734 4035 4510 4742 3997 3490 3770 4427 4439 3836 3226 3508 4008 4282 3616 2937 3158 3819 3976 3424 2854 2916 3554 3759 3152 2571 2773 3364 3625 2932 2328 2411 3072 3418 2720 2159 2273 2835 3083 2546 1809 2018 2629 2888 2389 1561 1739 2336 2720 2091 1414 1536 2165 2397 1835 1253 1210 1855 2088 1745 1060 907 1545 1911 1391 736 729 1287 1780 1225 596 603 1212 118 100 102 103 111 110 103 118 102 81 117 97 98 90 97 88 84 120 112 90 90 87 114 98 109 83 107 90 106 119 102 107 82 93 118 113 111 97 88 83 96 83 120 109 109 88 97 96 83 113 80 111 102 117 114 115 100 116 117 81 97 83 95 88 93 101 117 118 93 109 81 101 93 119 120 104 111 115 106 108 111 117 118 118 106 108 80 88 91 80 89 110 86 96 81 95 108 99 120 120 105 89 91 108 100 115 86 107 88 89 104 93 119 90 107 110 103 97 118 116 95 87 107 93 95 90 96 94 113 106 84 91 88 97 112 90 107 91 88 101 114 115 80 108 80 109 109 86 80 120 112 80 83
3051 3610 3747 3114 2782 3158 4017 3972 3350 2860 3496 4168 4068 3461 3196 3652 4334 4385 3811 3399 3784 4559 4669 4025 3573 4027 4841 4912 4220 3835 4252 5070 5146 4595 4057 4546 5271 5388 4737 4316 4543 5306 5355 4588 4054 4300 4987 5176 4494 3827 4050 4751 4905 4244 3598 3828 4615 4568 4006 3443 3584 4398 4467 3883 3252 3351 3974 4262 3592 2897 3110 3714 3986 3329 2821 2994 3624 3771 3086 2628 2654 3403 3532 2958 2381 2475 3107 3318 2703 2186 2191 2724 3176 2615 1867 1935 2578 2846 2426 1738 1681 2315 2709 2215 1391 1343 2118 2392 1957 1115 1209 1887 2254 1618 979 889 1479 2000 100 117 85 118 85 86 98 108 114 81 84 117 100 116 100 114 96 91 102 93 114 109 106 106 98 114 98 98 83 105 96 109 87 113 83 92 116 109 105 106 118 81 95 110 102 97 113 97 97 111 82 120 106 104 80 110 119 80 95 82 84 118 103 116 120 114 95 85 106 102 119 118 111 116 109 105 112 101 94 105 105 93 82 118 116 83 99 80 99 80 93 104 111 82 113 108 91 99 102 116 113 117 116 94 102 82 85 115 87 108 116 112 85 108 100 114 92 117 90 88 105 117 115 108 103 111 84 116 83 103 81 87 116 108 91 108 92 89 112 100 93 105 91 117 90 109 87 119 82 81 97 110
3082 3761 3689 2923 2672 3286 3842 3918 3225 2877 3451 4191 4215 3511 3069 3662 4342 4411 3657 3406 3820 4541 4602 3903 3602 4059 4747 4906 4184 3867 4351 5068 5045 4447 4137 4424 5138 5295 4775 4340 4643 5367 5465 4655 4157 4366 5104 5130 4470 3917 4227 4754 4889 4220 3729 4036 4625 4620 4049 3559 3629 4368 4551 3949 3237 3457 4167 4246 3563 3092 3105 3852 4140 3520 2797 2929 3648 3806 3148 2674 2622 3460 3694 2956 2357 2438 3201 3288 2771 2064 2215 2880 3193 2612 1976 2043 2678 2949 2477 1689 1720 2317 2641 2160 1485 1546 2125 2380 1923 1178 1319 1830 2296 1704 952 935 1570 1950 1624 90 82 89 87 90 82 97 119 118 111 108 93 87 95 97 80 109 114 112 107 97 96 113 104 113 109 105 88 81 87 103 91 107 113 109 96 107 118 104 103 101 93 94 99 97 101 111 94 82 90 99 97 108 100 81 107 115 82 85 107 107 91 85 98 116 88 110 100 111 118 84 112 86 91 119 81 120 103 95 109 111 115 112 82 102 115 85 88 89 102 112 107 111 96 102 87 99 96 104 86 117 95 106 86 110 101 118 92 116 95 94 85 85 83 116 98 120 103 98 86 92 99 98 80 116 120 85 119 89 115 119 80 88 111 101 105 105 80 102 82 94 110 105 108 87 97 106 110 84 94 103
2574 3339 3107 2539 2341 2711 3532 3343 2743 2443 2924 3708 3656 3062 2713 3288 3897 3952 3302 2973 3432 4217 4251 3611 3258 3547 4433 4481 3816 3368 3840 4538 4667 3995 3632 4071 4767 4796 4313 3825 4223 4935 5080 4440 3819 4128 4790 4710 4129 3568 3836 4434 4621 4008 3423 3540 4178 4294 3701 3183 3273 4002 4084 3527 2857 3037 3832 3991 3222 2704 2943 3447 3727 3177 2471 2631 3187 3445 2840 2311 2274 3013 3241 2655 1911 2100 2842 3003 2519 1787 1920 2509 2785 2307 1600 1672 2302 2519 2115 1446 1281 1932 2235 1905 1050 1070 1789 2064 1656 994 928 1533 1808 1464 706 721 1247 1682 1229 91 104 107 98 100 106 108 115 113 82 90 86 94 111 93 97 113 117 81 85 114 90 115 88 96 99 116 110 90 86 88 112 104 116 94 106 101 91 93 91 101 108 104 101 105 92 92 109 96 81 107 98 98 107 109 118 95 112 93 105 81 118 87 80 105 113 111 83 111 113 86 95 90 96 93 107 107 81 84 116 96 111 109 91 87 113 96 84 95 98 94 95 102 105 117 99 110 98 108 113 112 120 89 116 103 94 88 102 89 85 85 110 101 117 81 114 96 90 81 91 112 116 82 113 86 104 91 99 99 112 106 96 120 96 92 91 86 101 113 81 114 95 99 84 119 88 86 113 86 87 116
2071 2668 2708 2163 1804 2299 3065 3036 2416 2096 2543 3248 3234 2572 2241 2687 3495 3391 2798 2556 2883 3602 3669 3125 2649 3070 3788 3916 3335 2894 3411 3995 4206 3659 3225 3524 4205 4392 3816 3376 3753 4570 4650 3951 3315 3628 4260 4465 3806 3255 3432 4112 4116 3546 2921 3147 3859 3878 3315 2736 3006 3671 3767 3066 2463 2649 3292 3484 2982 2240 2498 3110 3204 2722 1967 2251 2880 3066 2540 1930 1984 2583 2740 2274 1646 1781 2400 2662 1955 1361 1437 2154 2466 1799 1089 1127 1803 2135 1678 899 1016 1520 1979 1452 750 644 1379 1627 1259 520 490 1205 1415 963 209 231 791 1226 803 160 100 106 113 107 97 80 102 99 91 111 96 80 113 95 110 120 83 100 87 102 107 117 107 108 94 96 118 118 89 85 92 108 82 98 89 117 108 99 120 90 100 117 102 115 110 104 80 96 107 96 84 113 99 82 85 81 117 87 117 105 108 89 87 110 107 81 118 105 83 117 94 106 117 120 84 107 108 115 84 100 88 97 115 100 88 86 82 89 95 96 88 106 96 95 94 87 109 82 103 96 84 93 99 94 90 88 80 92 96 88 116 97 80 91 107 94 80 116 113 108 106 90 100 102 94 109 94 101 113 93 85 93 83 83 97 117 97 109 87 118 91 95 90 91 118 91 104 89 94 103
1897 2733 2639 1917 1626 2102 2853 2875 2219 1845 2353 3051 3011 2470 2090 2644 3354 3258 2731 2273 2854 3586 3528 3018 2564 3033 3776 3773 3195 2852 3245 3909 4149 3551 3076 3540 4143 4360 3787 3222 3600 4333 4495 3960 3400 3603 4213 4308 3736 3069 3347 4108 4169 3534 2892 3112 3701 3945 3262 2631 2903 3585 3745 3014 2432 2619 3259 3526 2942 2169 2494 3140 3176 2740 1973 2165 2773 3036 2487 1707 1936 2492 2705 2291 1631 1747 2232 2649 2071 1379 1331 2132 2245 1895 1179 1132 1794 2126 1609 990 889 1604 1826 1463 646 662 1332 1707 1265 451 401 1139 1436 1037 314 119 808 1220 737 100 100 93 87 103 85 84 92 92 82 83 116 101 116 101 86 110 83 102 85 80 116 97 111 96 95 97 111 109 92 88 98 80 80 109 82 101 81 95 95 105 84 90 93 89 101 92 117 103 111 103 85 109 81 81 98 114 113 101 84 116 108 85 91 85 90 100 105 115 119 108 92 106 97 107 94 82 89 97 88 116 115 85 83 90 84 113 104 96 108 102 91 98 95 91 115 89 94 119 87 100 106 95 103 91 91 85 108 116 107 107 97 115 88 100 106 101 117 92 84 89 86 108 85 117 83 81 113 115 107 112 107 110 83 111 105 104 103 101 100 105 106 87 91 89 90 103 81 116 92 120
2313 3017 2936 2303 1877 2518 3255 3183 2566 2145 2642 3453 3403 2811 2441 2841 3530 3600 2983 2646 3072 3905 3946 3230 2804 3411 3972 4121 3608 3037 3515 4217 4354 3857 3401 3724 4582 4670 3932 3553 4015 4687 4914 4291 3822 4094 4664 4727 4164 3495 3797 4346 4490 3947 3220 3563 4157 4290 3674 2982 3335 3981 4055 3471 2937 3036 3751 3761 3318 2664 2729 3376 3579 3129 2326 2540 3277 3379 2874 2179 2345 2945 3217 2622 1956 2107 2752 2866 2436 1822 1830 2434 2679 2246 1458 1663 2276 2429 2077 1361 1287 1964 2264 1864 1136 1136 1663 2082 1580 769 821 1522 1825 1316 731 563 1134 1636 1052 402 402 998 116 111 99 84 115 81 92 99 84 107 95 113 94 83 90 96 115 100 102 108 88 97 115 102 87 118 95 117 103 113 108 111 109 85 105 102 102 93 95 96 93 99 98 109 110 87 87 114 119 114 106 88 80 113 108 104 107 119 81 94 107 119 116 98 94 111 84 106 118 118 107 103 94 116 119 95 111 100 83 102 96 93 81 83 100 85 81 83 82 116 119 82 81 82 80 86 119 95 84 99 98 120 107 109 108 108 82 106 102 81 96 107 118 104 110 87 91 108 119 112 115 110 117 80 101 95 82 109 113 113 96 110 106 83 80 115 118 112 114 120 84 91 104 81 106 109 80 114
2768 3314 3318 2789 2315 2924 3618 3643 2954 2686 3182 3856 3726 3252 2819 3319 4065 4150 3444 3146 3585 4308 4275 3697 3300 3747 4449 4628 3850 3452 4069 4680 4818 4115 3693 4209 4939 4995 4482 4064 4394 5035 5291 4680 4218 4499 5226 5344 4643 3948 4353 4988 4968 4368 3753 4037 4637 4718 4247 3529 3749 4539 4554 4010 3343 3599 4130 4444 3698 3045 3256 3897 4050 3522 2851 3097 3782 3953 3316 2592 2894 3493 3782 3097 2447 2646 3261 3531 2995 2161 2410 3032 3179 2694 2024 2005 2631 2991 2569 1862 1886 2462 2741 2205 1493 1652 2127 2476 2111 1412 1395 2036 2324 1816 1125 1100 1651 2036 1728 877 788 1478 1952 98 115 87 111 98 108 99 89 88 110 98 113 119 103 111 82 89 85 117 105 96 115 80 81 90 93 114 96 116 86 97 119 101 100 107 95 84 108 102 119 113 94 114 93 120 118 89 117 114 96 114 97 112 112 85 82 108 96 85 84 82 92 97 111 98 98 97 98 98 108 111 86 108 98 102 87 83 115 98 82 95 119 109 90 105 114 92 92 118 114 118 84 80 100 106 90 93 112 94 108 80 80 95 114 106 102 91 116 83 105 82 107 104 102 107 114 97 86 96 89 90 103 114 84 97 116 87 92 109 96 80 83 83 108 116 115 80 111 98 96 82 88 83 98 111 110 102
2827 3580 3536 2871 2436 3012 3746 3753 3028 2653 3147 3915 3973 3323 2978 3354 4225 4241 3640 3192 3556 4466 4409 3724 3501 3903 4502 4574 4098 3558 4177 4846 4910 4220 3910 4215 4982 5213 4465 4053 4572 5244 5354 4754 4304 4679 5411 5364 4711 4120 4436 5103 5167 4608 3997 4214 4897 4943 4266 3808 3903 4550 4752 4051 3513 3783 4321 4630 3843 3218 3487 4179 4350 3657 3144 3299 3834 4177 3467 2852 3013 3726 3800 3202 2734 2800 3309 3576 3108 2336 2467 3096 3429 2929 2243 2238 2869 3192 2620 1957 2050 2554 2935 2482 1696 1726 2359 2655 2144 1611 1458 2138 2566 2126 1359 1347 1879 2321 1744 1106 1019 1750 2106 1602 109 89 100 85 105 117 110 91 87 97 82 112 116 99 84 112 94 95 102 95 91 101 90 95 99 109 96 102 117 84 87 114 88 118 100 103 109 90 92 108 110 91 101 96 87 118 84 119 89 98 112 96 89 111 108 91 99 111 115 83 112 99 90 115 107 89 109 106 93 114 95 107 117 104 118 114 92 95 110 106 96 86 100 105 116 93 120 104 83 101 96 87 109 93 105 116 104 104 106 100 94 80 85 100 91 98 107 81 88 103 95 90 91 95 91 109 118 101 102 82 112 80 80 85 91 82 90 91 106 101 93 87 109 105 114 93 99 104 101 95 119 94 114 111 91 91
2431 3120 3053 2416 2256 2758 3432 3299 2625 2302 2979 3489 3604 2932 2630 3180 3816 3822 3285 2890 3245 3993 4105 3407 3148 3527 4263 4361 3637 3283 3822 4403 4551 4037 3526 3852 4616 4775 4284 3773 4148 4827 5128 4523 3967 4296 5069 5254 4464 3929 4182 4934 4964 4375 3739 3890 4648 4699 4041 3562 3658 4268 4415 3808 3248 3549 4207 4299 3579 3138 3292 3917 4102 3427 2802 2998 3521 3838 3162 2562 2659 3467 3549 2988 2304 2406 3037 3428 2742 2227 2157 2861 3173 2616 1845 1989 2554 2956 2424 1699 1707 2390 2674 2137 1483 1415 2192 2414 1878 1200 1300 1947 2289 1809 979 1055 1556 1992 1649 772 672 1429 1749 1338 84 101 86 89 118 90 93 98 89 120 94 96 91 96 89 88 119 101 113 116 88 83 103 105 98 108 98 89 115 80 91 83 80 111 111 105 108 90 108 109 80 89 82 86 118 82 104 80 100 98 106 120 87 110 102 119 91 81 108 120 118 97 87 107 91 93 112 109 89 100 111 98 82 108 104 82 91 102 87 114 86 106 107 103 100 87 114 99 119 102 101 89 97 108 115 108 99 104 110 119 117 89 106 91 95 102 97 87 87 95 88 80 88 92 114 116 103 110 120 86 118 97 115 91 91 94 108 112 89 113 96 91 114 120 118 94 93 88 104 117 97 99 104 105 116 109
1881 2715 2522 1894 1646 2087 2753 2785 2207 1813 2337 3039 2990 2429 2153 2554 3228 3222 2642 2394 2757 3569 3516 2936 2582 3109 3700 3716 3117 2885 3295 3912 4041 3426 2974 3506 4119 4319 3655 3255 3667 4387 4447 3898 3589 3852 4649 4708 4002 3602 3854 4316 4604 3774 3256 3536 4081 4375 3550 3097 3265 3940 3979 3481 2909 2966 3657 3824 3179 2547 2755 3446 3697 2961 2447 2429 3134 3406 2881 2194 2216 2921 3257 2577 1841 2044 2788 2936 2433 1794 1722 2434 2742 2261 1534 1521 2254 2553 1979 1200 1231 1996 2267 1677 1103 971 1786 2078 1631 801 813 1490 1836 1232 529 550 1129 1542 1161 352 337 901 1385 959 208 85 84 100 97 118 86 110 82 104 88 96 98 96 116 82 93 111 112 87 81 81 115 109 92 109 115 93 95 114 101 90 107 97 80 110 88 100 88 119 112 109 108 83 100 105 104 84 98 95 116 117 110 102 82 84 100 106 88 102 86 90 105 107 93 107 97 88 89 94 115 114 95 96 115 93 83 102 120 117 84 98 108 100 84 114 105 89 113 89 117 101 92 108 116 88 102 108 107 96 104 85 82 113 117 102 117 82 117 113 90 102 113 102 112 92 87 93 118 102 104 88 109 80 111 120 104 102 108 116 115 111 109 100 104 103 81 100 86 119 81 104 98 103 80 87
1676 2314 2439 1717 1494 1835 2592 2650 1858 1645 2049 2830 2826 2096 1776 2409 2974 3109 2398 1997 2555 3336 3302 2733 2337 2682 3531 3619 2883 2617 3008 3613 3845 3281 2772 3104 3945 3980 3447 3090 3455 4046 4366 3631 3277 3620 4303 4425 3872 3417 3621 4340 4330 3745 3162 3360 4075 4102 3380 2940 3137 3834 3991 3244 2565 2890 3459 3706 3003 2474 2540 3295 3522 2795 2278 2374 3037 3176 2696 1901 2077 2780 3066 2468 1756 1782 2610 2787 2126 1512 1532 2273 2487 2066 1253 1445 2029 2224 1729 1159 1179 1831 2136 1623 937 838 1615 1860 1444 745 718 1284 1571 1102 460 424 1099 1323 989 181 262 738 1235 645 102 100 119 110 100 101 85 82 107 100 95 96 84 101 111 100 90 118 82 104 88 118 117 111 94 112 114 93 81 86 120 101 102 85 95 96 110 84 104 94 87 82 98 106 114 92 90 112 81 94 89 85 97 85 96 85 103 108 111 80 83 101 81 103 80 120 92 116 90 117 99 118 89 84 105 115 99 82 89 106 100 111 90 98 111 102 89 95 108 95 120 111 88 115 111 83 91 84 99 103 119 108 87 87 120 113 117 110 107 99 115 108 114 107 80 97 87 86 111 88 96 111 82 82 100 89 103 105 90 85 120 92 112 110 82 101 95 108 103 116 87 99 112 81 80 119
1879 2694 2530 1988 1542 2082 2727 2896 2127 1808 2251 3096 3105 2413 2146 2468 3238 3372 2752 2264 2764 3504 3468 2991 2576 2950 3651 3694 3164 2758 3187 3981 3942 3483 3006 3457 4210 4211 3590 3315 3520 4332 4467 3818 3362 3782 4497 4635 4163 3569 3938 4493 4538 3911 3389 3657 4191 4313 3776 3124 3329 4042 4166 3631 2899 3084 3840 3955 3277 2775 2986 3607 3715 3067 2426 2702 3380 3481 2902 2371 2347 2997 3382 2740 2055 2063 2795 3043 2480 1786 1872 2516 2763 2227 1689 1691 2272 2683 1999 1464 1344 1986 2441 1806 1154 1112 1882 2137 1660 1004 908 1475 2007 1398 745 607 1280 1642 1157 462 387 1083 1477 1052 397 113 901 114 93 88 113 81 116 105 100 98 119 88 92 98 81 99 84 92 89 118 119 93 120 107 98 97 113 97 111 106 114 99 118 118 107 110 95 98 109 118 102 89 103 98 115 98 99 86 111 84 86 96 110 91 108 102 100 119 85 117 99 88 118 114 110 108 119 92 85 81 93 100 84 102 85 84 105 97 94 96 100 117 80 80 98 93 95 119 98 99 94 89 81 93 86 91 110 120 119 87 107 85 111 83 100 93 112 108 107 110 87 100 110 99 99 81 87 82 108 93 102 103 87 84 114 80 120 111 103 91 87 115 83 114 84 98 88 86 90 117 100 98 95 107
2356 3067 2992 2399 2008 2581 3355 3284 2564 2320 2689 3570 3450 2758 2409 2940 3613 3746 3160 2778 3120 4008 4028 3298 3036 3463 4126 4231 3555 3292 3638 4412 4418 3848 3433 3882 4654 4657 4097 3713 4027 4773 5028 4281 3833 4272 4962 5202 4683 4138 4422 4989 5076 4497 3916 4173 4868 4854 4296 3736 3914 4573 4782 3989 3385 3667 4305 4530 3812 3283 3497 3995 4166 3607 3076 3187 3903 3963 3502 2789 2949 3600 3837 3227 2629 2770 3304 3611 2984 2402 2510 3115 3256 2796 2195 2263 2912 3105 2567 1814 2038 2673 2987 2297 1668 1771 2288 2730 2180 1386 1500 2142 2463 2031 1337 1307 1772 2272 1839 1059 901 1605 2040 1502 837 638 1237 1781 90 93 106 117 83 103 92 113 103 114 106 107 89 113 106 119 117 107 109 120 99 97 118 114 90 108 81 99 86 108 111 92 103 110 86 85 101 96 109 90 111 82 90 113 109 81 97 114 81 91 108 91 118 93 105 108 119 105 118 82 105 82 96 93 89 83 104 91 98 114 116 84 103 81 82 83 93 83 103 112 118 105 90 88 93 85 116 101 111 80 100 99 87 111 112 98 113 99 112 117 88 105 120 84 111 83 87 81 86 102 81 81 109 103 108 97 82 93 81 102 111 106 90 106 86 119 104 111 99 105 105 97 91 81 107 110 98 99 119 106 83 87
2618 3261 3251 2559 2310 2791 3538 3501 2799 2426 3066 3783 3648 3023 2814 3174 3897 3888 3271 2957 3527 4206 4263 3634 3231 3698 4401 4368 3824 3389 3875 4549 4774 3976 3631 4152 4749 4831 4269 3828 4319 5110 5252 4596 4048 4402 5279 5495 4867 4339 4759 5455 5391 4721 4316 4402 5140 5290 4593 3974 4170 4821 4953 4452 3814 4009 4675 4685 4160 3648 3706 4393 4629 3935 3376 3410 4160 4329 3826 3098 3224 3880 4184 3445 2915 2883 3726 3894 3338 2753 2778 3371 3610 3127 2408 2556 3098 3411 2949 2246 2154 2823 3151 2737 1939 2090 2713 3030 2415 1799 1832 2439 2814 2251 1491 1437 2165 2455 2082 1309 1218 1902 2331 1810 1210 1052 1622 2094 1734 83 85 117 120 82 87 103 104 107 100 92 82 107 87 80 117 82 80 89 113 98 107 110 86 104 87 117 115 119 96 90 86 83 91 90 118 89 105 115 110 119 107 102 120 112 96 82 87 102 90 92 103 80 90 107 97 105 96 94 82 89 108 107 119 113 85 118 80 95 81 90 118 112 83 94 109 80 112 84 109 110 104 99 102 117 98 98 120 92 111 115 95 95 96 99 117 99 103 84 109 101 117 83 96 93 94 107 87 96 95 102 111 97 99 94 104 81 92 106 103 89 113 91 110 106 119 97 88 113 118 90 94 107 114 92 120 90 87 95 108 102
2455 3061 3042 2417 1959 2519 3226 3296 2629 2332 2725 3477 3384 2898 2542 2934 3663 3730 3161 2770 3212 3899 3922 3401 2877 3437 4183 4212 3585 3116 3667 4358 4533 3937 3387 3835 4533 4758 4108 3766 4064 4765 5004 4376 3966 4293 4974 5149 4592 4174 4404 5177 5360 4665 4075 4220 5039 5004 4405 3794 4042 4790 4807 4205 3622 3891 4440 4617 4031 3321 3570 4224 4384 3769 3160 3358 4057 4279 3556 2889 3063 3800 3862 3474 2774 2876 3392 3771 3232 2535 2681 3310 3547 2944 2202 2333 2921 3187 2656 2155 2041 2660 3010 2455 1809 1791 2532 2890 2423 1690 1634 2183 2501 2183 1365 1318 2079 2396 2002 1133 1067 1675 2102 1730 1012 882 1452 1917 1509 95 103 89 82 116 113 82 99 105 98 85 87 92 100 84 111 98 94 113 89 110 116 111 90 87 112 86 104 95 92 111 101 115 115 104 117 100 100 83 107 105 92 90 111 92 94 104 90 112 89 87 98 99 100 107 119 80 91 97 120 103 102 91 99 92 101 108 81 90 119 95 99 90 94 99 103 91 118 90 94 83 83 97 101 99 112 84 96 107 87 88 92 113 80 100 106 111 90 85 85 84 103 82 117 93 117 81 101 100 94 116 99 98 84 99 101 81 88 112 90 114 107 91 98 106 107 84 99 101 98 104 118 108 110 120 108 106 85 113 103 112
1857 2616 2453 1746 1578 2150 2786 2634 2136 1767 2287 2919 2997 2362 1951 2384 3193 3153 2592 2140 2726 3342 3472 2783 2394 2859 3690 3606 3153 2679 3146 3936 3900 3242 2951 3365 4097 4247 3683 3209 3523 4281 4442 3901 3427 3719 4576 4627 4145 3587 3902 4668 4821 4222 3704 3879 4464 4606 4061 3357 3684 4256 4400 3771 3177 3476 4042 4101 3682 2972 3228 3777 3934 3398 2707 2874 3576 3833 3170 2535 2655 3197 3561 2885 2236 2419 3091 3292 2706 2041 2235 2722 3139 2576 1766 1872 2640 2765 2327 1675 1758 2319 2632 2183 1322 1438 1959 2295 1887 1186 1256 1766 2127 1683 1028 865 1582 1919 1536 798 649 1321 1741 1181 632 433 1052 1404 974 353 97 84 118 105 81 117 103 90 80 118 120 102 108 120 91 117 93 112 120 91 106 91 90 98 91 86 94 87 117 81 82 84 117 85 113 98 99 104 94 97 98 86 98 96 87 98 85 102 113 90 120 119 88 119 97 81 114 110 106 97 82 89 115 89 81 85 106 119 99 111 105 80 115 115 94 89 110 107 86 100 97 112 80 119 94 119 117 120 89 93 113 92 101 107 115 103 104 98 106 86 103 117 83 98 110 102 116 86 84 83 98 96 82 81 84 81 98 120 81 120 92 93 120 112 113 114 93 99 115 103 80 100 86 104 89 104 105 84 113 96
1461 2106 2035 1441 1222 1628 2450 2267 1678 1360 1997 2539 2665 2069 1559 2063 2914 2871 2158 1946 2329 3014 3109 2575 2198 2622 3254 3241 2700 2393 2794 3532 3664 3051 2496 2928 3711 3826 3135 2857 3182 4014 4077 3410 2980 3386 4154 4265 3781 3268 3622 4302 4502 4010 3274 3679 4321 4296 3723 3143 3275 4093 4160 3560 2922 3046 3772 4011 3389 2596 2870 3595 3665 3180 2416 2514 3228 3411 2834 2207 2314 3067 3230 2666 1980 2037 2754 3037 2554 1853 1958 2418 2869 2150 1485 1529 2236 2493 2020 1275 1382 1957 2416 1849 1110 1144 1667 2008 1617 811 967 1607 1928 1379 646 680 1358 1657 1173 407 386 1079 1419 963 162 183 832 1117 702 129 100 89 106 83 80 94 93 80 119 98 114 84 102 108 97 91 120 93 83 116 118 106 116 106 95 108 107 98 98 102 116 93 114 87 110 82 108 102 99 110 107 83 101 91 102 108 83 82 104 88 100 97 82 107 96 104 95 93 110 112 101 96 108 108 109 110 88 80 90 85 107 89 92 85 116 90 89 83 96 96 81 101 103 93 94 90 81 83 111 97 82 98 98 110 92 98 84 82 102 84 98 115 99 97 107 84 108 116 101 100 105 115 105 104 81 82 82 110 116 85 89 100 119 86 111 97 91 94 95 80 102 80 106 98 117 92 80 99 105 101
1498 2167 2231 1556 1256 1749 2513 2395 1898 1437 2031 2786 2778 1980 1722 2129 2980 2927 2291 2041 2382 3062 3283 2661 2089 2626 3277 3518 2878 2359 2846 3513 3602 3059 2647 3067 3762 3825 3260 2964 3198 3942 4134 3644 3023 3497 4254 4411 3763 3298 3698 4450 4643 4043 3459 3690 4380 4465 3907 3277 3565 4236 4346 3705 3159 3333 4011 4118 3411 2945 2925 3594 3846 3311 2672 2817 3415 3650 2963 2404 2481 3130 3453 2878 2152 2236 2900 3166 2545 2031 1964 2587 2881 2470 1681 1833 2511 2774 2167 1521 1538 2268 2575 2005 1351 1387 1974 2214 1745 1071 1067 1646 1945 1619 795 860 1360 1809 1415 600 560 1178 1616 1186 418 309 1017 1339 865 121 169 684 84 82 114 84 103 102 95 119 114 101 114 96 93 89 120 95 118 87 111 112 105 102 116 111 96 85 110 118 115 111 83 85 112 112 111 104 89 108 108 111 82 80 105 117 101 84 101 100 119 84 90 96 89 107 102 81 120 94 81 99 81 103 111 97 106 119 105 114 104 117 91 103 116 101 80 90 101 95 91 102 88 100 103 90 108 109 108 103 93 114 86 105 88 118 118 118 92 104 109 105 88 110 81 80 109 98 83 87 95 87 105 119 109 108 106 110 114 93 89 89 103 90 108 111 106 94 82 103 113 92 106 119 90 119 119 95 86 101
2065 2708 2655 1896 1775 2208 2832 2807 2206 1828 2478 3170 3060 2416 2135 2654 3239 3364 2751 2307 2779 3465 3579 3015 2668 3030 3732 3805 3224 2902 3317 4088 4155 3535 3069 3449 4269 4354 3644 3331 3596 4350 4650 3951 3478 3818 4738 4886 4184 3698 4051 4896 5015 4566 4049 4172 4892 5050 4477 3796 3934 4640 4767 4123 3645 3673 4408 4493 3925 3410 3498 4240 4253 3706 3105 3218 3876 4211 3610 2944 2925 3582 3817 3250 2689 2855 3333 3609 3140 2514 2573 3149 3517 2907 2193 2310 2917 3226 2696 2105 1964 2665 2938 2460 1809 1855 2404 2843 2238 1509 1577 2085 2486 2056 1261 1262 1850 2288 1761 1172 1094 1650 2093 1601 936 793 1395 1933 1336 637 625 1276 1595 83 108 92 91 94 118 91 118 106 120 104 93 96 96 96 91 109 114 87 97 80 101 114 85 115 111 86 118 109 81 99 115 112 82 82 100 100 117 81 92 89 109 98 89 101 94 90 109 89 95 104 108 88 97 100 107 84 94 80 85 104 111 101 104 95 85 120 116 94 82 81 97 86 111 96 100 87 101 105 93 94 85 93 110 100 110 120 83 117 101 111 107 88 106 101 103 83 80 111 84 120 83 120 116 99 109 103 97 109 104 110 90 102 100 82 102 118 98 82 87 86 82 98 112 115 120 91 107 107 111 86 87 82 97 96 94 94
2347 2989 2953 2263 1969 2520 3272 3192 2475 2346 2739 3394 3452 2734 2392 3052 3708 3613 3148 2778 3080 3934 3881 3242 2878 3332 4199 4252 3623 3100 3614 4358 4343 3777 3485 3717 4531 4628 4074 3540 3979 4746 4935 4214 3858 4172 4957 5208 4510 4113 4518 5150 5342 4818 4250 4754 5261 5516 4703 4245 4358 4986 5277 4579 3945 4078 4911 5051 4398 3824 3920 4593 4790 4112 3457 3639 4280 4572 3918 3347 3486 3994 4400 3727 3032 3088 3788 4150 3503 2928 2944 3531 3856 3311 2592 2746 3329 3645 3104 2492 2485 3090 3423 2828 2114 2134 2901 3249 2601 2052 1992 2630 2960 2381 1677 1802 2276 2794 2196 1450 1379 2111 2452 2023 1340 1278 1905 2284 1881 1011 1023 1610 1975 1684 119 93 80 103 82 113 87 108 100 110 98 90 105 112 85 101 107 119 117 118 118 96 83 119 107 104 84 100 95 95 88 108 100 106 89 101 112 85 85 110 84 83 82 90 94 84 91 85 87 118 112 111 88 85 87 113 84 117 92 117 119 86 119 113 103 96 114 95 105 86 119 100 89 107 95 99 100 92 118 89 118 85 94 119 101 119 114 116 104 86 96 87 115 84 117 120 86 117 94 115 85 90 100 118 84 120 115 104 113 116 118 99 90 111 119 97 105 93 93 111 83 90 111 87 108 119 92 112 95 119 94 92 86 119 113 86
2267 2865 2879 2227 2009 2401 3213 3149 2531 2128 2642 3370 3342 2680 2459 2779 3584 3593 2996 2623 3021 3738 3835 3140 2785 3329 3906 4100 3548 3040 3453 4187 4371 3629 3352 3609 4465 4589 4028 3515 3856 4630 4895 4188 3740 4155 4836 5048 4420 4085 4352 5025 5220 4737 4188 4617 5194 5316 4861 4088 4376 5064 5240 4526 3875 4114 4705 4883 4442 3750 3860 4477 4704 4173 3470 3595 4215 4554 4003 3367 3438 4154 4234 3673 3069 3197 3805 4080 3431 2803 2843 3647 3886 3272 2544 2737 3312 3507 3143 2383 2458 3100 3393 2963 2150 2128 2824 3126 2740 1903 1925 2648 2946 2347 1789 1772 2320 2661 2215 1487 1397 2119 2508 1993 1350 1151 1899 2136 1831 1149 955 1649 1935 1613 107 103 87 96 112 102 112 110 106 95 80 116 119 105 97 105 88 116 90 84 86 109 105 87 87 101 86 84 118 88 97 86 88 89 100 114 90 86 101 101 105 107 105 108 97 111 99 106 89 89 103 85 82 83 119 119 106 104 93 95 102 101 106 112 83 94 87 103 86 118 101 89 118 82 109 119 114 85 98 82 90 99 92 113 114 91 114 98 108 110 113 87 99 120 80 85 108 110 103 90 115 114 101 114 82 108 103 86 102 109 117 112 85 82 119 94 83 114 120 81 89 119 107 91 96 87 119 83 91 88 80 89 81 94 88 94
1663 2401 2393 1819 1383 2046 2618 2556 1936 1722 2135 2813 2792 2307 1826 2458 3079 3142 2480 2108 2578 3366 3440 2672 2300 2749 3472 3524 2958 2586 2987 3825 3768 3255 2803 3179 4050 4084 3521 3054 3495 4143 4288 3660 3331 3707 4337 4556 3901 3463 3849 4606 4835 4280 3857 4093 4919 4939 4345 3837 3932 4581 4794 4166 3586 3812 4425 4612 3887 3428 3423 4065 4327 3838 3054 3259 3925 4209 3594 2906 3051 3676 3943 3331 2565 2695 3478 3565 3105 2491 2482 3098 3495 2990 2183 2334 2846 3262 2784 2001 2060 2736 2883 2532 1831 1736 2507 2839 2249 1648 1477 2165 2578 1998 1367 1293 1987 2342 1817 1125 994 1651 2144 1595 943 882 1336 1826 1421 625 554 1272 1580 1149 488 112 100 92 115 83 108 110 91 92 104 100 106 118 117 103 81 94 93 117 101 81 82 108 95 103 117 119 105 93 88 97 109 87 87 110 83 82 108 112 119 104 106 102 88 89 104 120 92 103 106 107 87 86 117 109 95 87 96 116 111 105 109 82 96 105 83 115 117 84 103 93 114 108 85 111 83 118 110 114 82 85 91 93 118 90 84 98 85 98 102 102 103 105 114 80 97 108 119 89 112 94 95 87 110 114 109 83 103 85 107 105 86 91 100 88 86 82 106 99 98 85 81 118 114 101 112 87 107 108 112 81 102 98 89 82
1360 2044 1970 1244 1055 1440 2209 2121 1648 1162 1726 2486 2368 1891 1511 2024 2615 2710 2081 1729 2194 2966 2899 2326 1894 2358 3178 3219 2580 2054 2485 3293 3389 2797 2424 2801 3486 3575 3090 2567 2982 3824 3865 3243 2761 3256 4002 4053 3582 3053 3405 4229 4426 3764 3396 3658 4369 4527 4016 3443 3625 4271 4374 3806 3266 3340 3981 4201 3515 2897 3051 3791 3890 3426 2721 2895 3471 3808 3181 2591 2658 3231 3541 2970 2254 2436 3115 3284 2792 2141 2186 2753 2982 2480 1900 1951 2501 2877 2278 1670 1679 2338 2640 2014 1422 1460 2047 2337 1817 1164 1111 1891 2094 1759 1050 955 1650 1871 1449 684 621 1396 1638 1191 622 436 1073 1480 1003 231 222 734 1179 878 121 100 99 108 90 113 106 112 85 106 97 105 95 100 104 107 107 114 99 83 102 94 106 97 84 86 108 108 88 93 81 81 117 114 97 114 114 90 89 96 87 84 110 97 88 110 103 80 98 111 104 114 112 102 116 82 103 86 103 114 115 118 92 93 86 113 109 84 89 105 97 86 111 83 88 90 104 106 105 105 115 119 84 92 113 81 111 119 112 81 102 101 119 108 95 117 111 113 82 96 107 99 89 102 83 94 85 100 99 93 92 112 86 120 87 104 114 93 92 113 105 89 92 105 84 101 82 100 83 113 80 84 95 81 94 89
1333 1881 1859 1215 1011 1466 2082 2150 1495 1108 1747 2304 2441 1845 1448 1911 2587 2705 2011 1629 2189 2811 2874 2218 1812 2392 2990 3133 2433 2181 2586 3284 3418 2775 2362 2657 3387 3629 3071 2650 2936 3699 3826 3300 2897 3245 3827 4015 3547 3016 3366 4080 4341 3800 3252 3580 4422 4608 4088 3523 3661 4302 4457 3898 3298 3355 4039 4293 3554 3081 3229 3759 4068 3498 2853 2996 3492 3704 3159 2502 2635 3334 3452 2996 2372 2400 3101 3270 2726 2135 2249 2752 3127 2559 1846 2032 2654 2849 2437 1746 1607 2283 2688 2043 1363 1424 2049 2450 1877 1141 1153 1810 2144 1629 942 1033 1548 1853 1573 749 719 1429 1623 1353 557 377 1014 1477 1032 407 193 842 1311 816 126 100 676 82 82 81 88 86 88 93 118 107 95 88 91 85 107 114 81 88 87 96 113 104 82 80 102 111 86 80 89 92 104 106 89 92 103 90 115 90 113 87 111 108 104 82 107 100 99 85 115 89 85 90 115 99 102 93 113 117 89 108 85 84 107 101 106 109 105 107 106 87 83 85 112 91 96 117 106 102 97 119 80 104 113 107 98 99 92 84 86 87 119 96 109 93 93 99 88 98 102 111 117 81 87 87 98 113 83 91 87 109 93 116 102 112 105 101 90 105 105 115 93 90 94 111 118 107 109 99 80 107 118 106 81 98
1666 2378 2290 1554 1416 1821 2501 2578 1910 1576 2127 2646 2736 2108 1675 2170 3061 3049 2301 2010 2441 3259 3137 2576 2236 2736 3320 3541 2945 2536 2820 3672 3776 3200 2673 3098 3739 4046 3460 2859 3247 3983 4134 3570 3078 3496 4328 4505 3779 3345 3824 4421 4756 4033 3679 4031 4796 4865 4298 3879 4065 4674 4920 4233 3562 3879 4552 4656 4008 3507 3619 4268 4428 3801 3215 3451 4098 4119 3686 2924 3021 3831 3978 3421 2754 2872 3593 3818 3169 2600 2524 3328 3478 3044 2252 2446 2933 3370 2819 2165 2205 2849 3152 2510 1832 1960 2472 2896 2269 1652 1660 2204 2522 2189 1430 1477 1920 2358 1948 1309 1187 1860 2080 1697 903 994 1430 1854 1541 722 671 1234 1678 1360 527 334 1071 1500 115 105 90 111 96 88 112 120 87 82 80 101 107 106 109 120 110 83 102 83 92 119 102 98 106 101 86 117 87 91 116 103 114 111 85 106 89 94 98 89 90 80 90 84 110 116 83 89 120 108 95 108 85 100 83 119 91 112 118 97 117 85 85 91 118 116 97 105 119 112 105 99 91 115 86 109 85 111 107 107 100 108 107 87 92 83 104 114 116 114 91 105 80 81 104 81 97 96 120 113 104 81 105 81 107 91 86 117 98 81 97 110 83 99 105 93 104 116 112 99 105 92 92 85 98 81 99 88 109 108 97 99
1999 2606 2618 1985 1814 2299 3006 2937 2323 1913 2387 3097 3102 2424 2142 2711 3307 3433 2725 2362 2835 3670 3626 3040 2589 3078 3891 3809 3280 2932 3308 4020 4178 3541 3085 3585 4221 4346 3702 3241 3684 4385 4627 4019 3547 3942 4656 4767 4238 3736 4184 4830 5096 4419 3967 4310 5096 5223 4830 4174 4557 5162 5374 4715 4184 4388 5027 5095 4561 3847 4171 4710 4846 4400 3735 3825 4572 4783 4103 3539 3599 4177 4558 3889 3269 3257 4038 4217 3672 3020 3106 3793 4103 3377 2808 2934 3446 3867 3285 2674 2536 3193 3582 3111 2393 2390 3084 3249 2794 2104 2132 2672 3094 2692 1844 1827 2454 2896 2323 1666 1637 2305 2658 2158 1572 1346 1917 2446 2031 1203 1124 1840 2142 1865 1116 892 1583 1873 1520 112 104 82 85 120 88 109 86 110 81 98 99 120 108 104 113 87 93 85 106 99 90 114 110 112 84 89 106 95 120 90 116 96 88 102 98 108 82 119 114 98 80 83 103 102 83 112 86 103 92 116 101 97 98 80 120 82 113 99 80 96 111 107 106 87 117 120 118 95 112 115 106 94 118 100 115 120 95 115 86 113 113 112 114 109 95 96 91 112 106 85 96 105 109 118 108 100 91 97 102 83 99 90 99 86 88 92 103 107 106 84 80 96 99 115 113 95 100 85 105 108 82 101 86 97 90 82 115 105 85 90
2132 2666 2721 1976 1845 2289 3036 3027 2310 1954 2471 3223 3136 2570 2128 2749 3446 3402 2757 2500 2930 3671 3625 3127 2656 3025 3758 3859 3388 2956 3280 4153 4248 3528 3102 3634 4218 4462 3893 3457 3800 4461 4601 4142 3519 3873 4744 4835 4398 3807 4112 4839 5110 4635 4042 4328 5210 5342 4877 4312 4582 5339 5448 4927 4178 4386 5004 5267 4731 4105 4197 4767 5106 4357 3892 3987 4618 4719 4204 3649 3641 4406 4647 3958 3390 3376 4045 4297 3700 3068 3290 3944 4097 3524 2905 2873 3586 3847 3303 2656 2680 3405 3759 3113 2527 2562 3101 3376 3034 2351 2240 2772 3274 2795 1964 2089 2633 2945 2594 1814 1667 2427 2698 2299 1658 1450 2085 2581 2114 1391 1354 1909 2345 1983 1210 1111 1572 2054 1681 109 109 120 114 103 102 109 107 85 103 104 113 120 117 83 109 117 116 95 105 90 106 114 85 95 93 94 118 85 97 102 109 98 102 100 120 92 94 102 120 110 116 114 88 105 88 100 118 113 80 99 85 107 103 93 95 84 97 113 104 119 89 110 111 99 119 102 104 96 115 105 104 104 102 114 88 112 95 112 80 82 83 104 114 112 106 101 98 112 84 86 114 90 94 80 93 103 115 89 114 117 109 91 100 113 88 81 107 90 90 94 88 90 111 118 113 82 118 95 93 106 89 102 95 99 83 89 94 86 118 117
1712 2274 2212 1571 1453 1974 2644 2580 1994 1555 2082 2700 2771 2172 1781 2390 3082 2955 2385 1975 2490 3186 3244 2684 2187 2640 3488 3614 2888 2544 2949 3648 3721 3163 2748 3211 3857 4094 3429 2999 3286 4176 4195 3572 3246 3590 4275 4427 3941 3405 3738 4597 4666 4230 3597 4057 4698 4922 4501 3911 4189 5040 5243 4444 3938 4191 4826 4884 4402 3795 3872 4605 4618 4048 3567 3603 4294 4409 3919 3303 3430 4112 4181 3770 2975 3186 3816 3991 3422 2856 2874 3440 3874 3207 2589 2586 3374 3535 3130 2317 2304 2945 3405 2863 2244 2224 2817 3026 2549 1913 1981 2523 2807 2403 1627 1721 2299 2631 2242 1403 1412 2045 2345 1908 1369 1214 1830 2234 1860 968 1045 1526 1939 1632 762 684 1382 1761 1423 600 86 92 118 102 82 99 111 106 80 89 102 101 86 83 106 115 98 106 105 98 82 85 88 82 119 101 99 120 97 113 98 111 109 90 97 105 89 94 92 118 86 114 102 106 115 105 109 98 105 107 114 110 97 104 97 86 96 100 103 115 97 96 107 81 100 108 110 114 115 113 112 116 88 110 98 89 108 84 114 81 108 113 82 105 81 105 118 90 94 109 97 84 106 84 94 96 113 91 87 119 112 107 98 96 95 119 112 108 101 118 92 82 89 120 89 93 111 113 81 84 112 119 83 98 120 101 87 120 81 120
1089 1783 1861 1178 932 1340 2131 2028 1499 1139 1601 2254 2348 1664 1410 1799 2410 2590 1962 1565 1942 2786 2730 2252 1796 2226 2867 3086 2449 2015 2406 3250 3260 2578 2187 2715 3360 3476 2917 2502 2829 3541 3804 3077 2787 3002 3893 4063 3332 2900 3282 3942 4133 3662 3168 3552 4330 4374 3850 3440 3724 4503 4645 4046 3573 3662 4389 4476 3968 3276 3424 4130 4235 3658 3127 3170 3879 4070 3435 2826 2976 3658 3857 3218 2558 2706 3440 3534 3005 2366 2536 3115 3468 2869 2175 2214 2945 3198 2599 2027 1921 2618 3016 2450 1728 1692 2448 2673 2286 1473 1538 2159 2434 2094 1202 1332 1868 2213 1728 1113 1073 1558 2082 1488 818 755 1445 1726 1373 665 503 1120 1490 1223 382 184 969 1256 932 298 100 115 83 119 81 87 82 112 105 105 103 91 110 116 87 93 107 90 83 84 91 92 101 86 109 87 98 116 95 110 96 107 86 81 84 115 113 81 106 89 112 84 85 118 106 111 114 116 98 91 110 88 82 113 116 101 90 113 110 101 88 113 109 116 93 119 114 115 99 88 110 97 80 108 118 87 105 83 87 111 99 83 109 104 86 87 119 89 120 80 83 102 88 102 95 114 114 83 96 96 89 109 106 109 116 101 97 116 94 82 95 88 102 81 96 92 86 115 117 103 115 81 116 88 107 80 86 108 87 106
1070 1704 1698 1037 761 1210 1932 1838 1238 857 1437 2193 2122 1432 1109 1665 2334 2288 1643 1459 1764 2556 2526 1947 1684 1988 2770 2913 2139 1834 2207 3049 3168 2451 2145 2529 3218 3347 2773 2262 2750 3500 3534 2951 2587 2933 3658 3890 3173 2768 3174 3758 3941 3531 3033 3220 4160 4205 3742 3177 3510 4278 4610 3970 3359 3664 4202 4311 3737 3162 3305 3917 4243 3640 2859 3183 3818 4016 3459 2683 2756 3414 3709 3179 2415 2542 3278 3540 3039 2298 2297 3066 3224 2651 2088 2114 2803 3127 2458 1866 1912 2493 2813 2306 1719 1553 2171 2505 2120 1496 1411 2111 2458 1889 1226 1222 1824 2110 1627 1065 831 1615 1830 1559 848 659 1347 1749 1287 583 452 1013 1404 1002 407 273 807 1150 785 100 100 563 113 89 85 89 80 117 92 105 96 88 88 89 98 104 106 90 98 91 118 105 88 102 82 81 98 109 110 109 111 89 103 85 86 91 116 117 119 115 100 88 88 106 82 110 87 80 91 84 100 120 114 93 117 98 99 96 106 115 94 94 110 87 115 116 99 87 97 86 111 117 112 102 114 80 107 101 93 114 94 107 82 104 80 111 95 112 93 87 81 98 91 113 102 82 95 82 100 98 111 117 101 80 90 112 104 107 117 95 107 100 106 86 103 85 119 102 100 97 90 111 85 118 106 97 114 92 111 99
1330 1897 1922 1326 858 1425 2225 2197 1564 1168 1693 2446 2330 1771 1461 1873 2628 2681 1934 1736 2178 2744 2960 2212 1964 2382 3026 3205 2429 2023 2453 3158 3321 2660 2316 2718 3379 3625 3069 2601 3043 3780 3791 3318 2854 3208 3969 4011 3499 3063 3433 4173 4336 3752 3249 3630 4275 4518 4007 3459 3854 4461 4729 4321 3824 3885 4594 4760 4063 3599 3607 4332 4488 3868 3285 3422 4082 4384 3735 3090 3126 3752 4084 3484 2821 2958 3546 3868 3330 2536 2696 3391 3720 3106 2380 2557 3021 3465 2790 2105 2158 2788 3191 2650 2043 1919 2678 2913 2529 1843 1812 2271 2780 2283 1561 1557 2190 2446 2033 1324 1179 1952 2165 1808 1168 1066 1667 1998 1574 784 822 1385 1846 1334 729 460 1034 1520 1098 509 358 915 1310 90 116 112 113 106 106 89 98 108 80 92 106 120 104 112 80 118 107 104 90 90 98 100 117 97 107 116 115 83 107 107 112 115 120 92 110 112 93 110 111 118 109 97 98 102 99 85 120 89 101 99 80 120 100 96 86 81 104 80 97 107 107 89 113 117 107 117 89 110 119 117 112 109 116 109 99 95 110 96 102 107 104 101 100 107 85 114 93 95 114 98 120 107 113 114 110 82 120 114 110 88 111 118 107 90 103 110 115 116 115 108 104 117 102 112 119 110 116 90 120 108 82 91 120 103 94 96
1784 2353 2287 1704 1395 1841 2513 2666 1878 1566 2037 2717 2868 2279 1772 2360 3019 3072 2372 2038 2494 3216 3203 2675 2216 2653 3553 3524 2865 2603 3013 3618 3815 3276 2746 3076 3861 3997 3498 3059 3477 4104 4334 3591 3207 3697 4307 4420 3910 3426 3865 4616 4739 4259 3757 4000 4778 5018 4356 3923 4283 4920 5306 4609 4204 4494 5052 5253 4579 3960 4152 4838 4964 4504 3780 3989 4648 4898 4310 3493 3669 4343 4640 4100 3318 3474 4068 4410 3807 3166 3138 3946 4214 3538 2927 2940 3664 3907 3299 2640 2678 3389 3640 3167 2430 2514 3121 3521 2994 2183 2239 2826 3170 2806 2070 2070 2698 3034 2534 1905 1694 2424 2763 2293 1663 1465 2116 2447 2069 1471 1227 1949 2261 1896 1238 1000 1580 2017 1741 935 718 1346 1735 1433 111 115 107 87 86 107 114 97 87 97 83 99 107 80 106 99 91 107 95 95 116 95 116 102 116 83 88 90 97 88 99 108 85 113 117 86 115 87 114 109 90 103 81 107 102 84 98 84 101 119 83 120 82 107 102 101 84 81 110 111 88 105 101 116 81 93 87 87 101 100 98 105 112 105 120 98 120 111 117 99 81 86 82 102 118 115 106 85 118 111 100 98 109 94 88 94 109 94 120 83 99 91 81 82 92 91 90 117 97 94 102 119 83 97 92 91 106 91 119 108 87 110 96 89 103 88
1878 2619 2482 1940 1559 2069 2702 2677 2124 1760 2231 2968 2991 2423 1985 2429 3102 3298 2642 2288 2690 3361 3453 2825 2409 2819 3659 3764 3027 2770 3076 3906 4033 3400 2987 3314 4150 4235 3635 3134 3545 4264 4516 3891 3313 3750 4594 4621 4183 3659 3886 4640 4935 4324 3932 4146 4842 5246 4530 4103 4417 5098 5477 4858 4383 4556 5404 5479 4815 4290 4499 5068 5209 4697 4118 4130 4764 5003 4416 3742 4038 4688 4891 4264 3630 3724 4270 4554 4141 3437 3446 4136 4475 3932 3090 3220 3956 4176 3610 2960 3061 3695 4024 3409 2803 2683 3318 3609 3187 2426 2424 3171 3535 3047 2254 2300 2937 3296 2721 2070 2029 2641 2939 2579 1823 1850 2440 2810 2267 1645 1515 2208 2494 2060 1453 1220 1843 2306 1873 1270 956 1668 2070 1807 109 104 103 84 94 109 98 94 117 117 83 116 92 112 113 100 94 88 116 95 98 101 114 85 105 95 105 104 91 92 89 96 119 96 109 82 91 86 111 81 92 104 106 120 107 109 92 116 97 101 101 102 81 116 86 84 84 83 108 104 91 109 101 104 94 112 115 118 94 88 93 87 86 81 109 93 113 98 103 105 113 118 108 80 106 112 81 98 103 84 94 96 106 87 107 105 102 80 91 120 109 103 93 92 101 82 86 118 113 94 99 90 86 98 109 88 116 95 91 86 100 105 104 108 81 84
1583 2326 2140 1569 1225 1707 2552 2486 1902 1576 2006 2733 2639 2058 1621 2219 2945 3008 2373 1924 2456 3044 3275 2570 2187 2571 3373 3398 2716 2439 2754 3562 3650 2965 2633 3127 3730 3971 3206 2783 3296 3939 4039 3634 3108 3383 4218 4427 3872 3437 3736 4428 4708 4152 3501 3865 4581 4934 4360 3781 4205 4796 5088 4548 4056 4319 5033 5378 4587 4135 4157 4951 5135 4373 3841 3970 4730 4937 4195 3623 3803 4304 4611 4021 3437 3447 4244 4458 3926 3185 3181 3893 4236 3607 3017 2992 3632 3924 3399 2778 2684 3462 3761 3193 2593 2589 3175 3405 2927 2360 2336 2858 3320 2701 1994 2052 2631 2974 2671 1886 1820 2408 2742 2344 1584 1526 2231 2484 2105 1410 1362 1882 2428 1852 1177 993 1727 2094 1735 921 835 1423 1848 1530 768 88 94 98 85 102 83 109 104 108 82 117 87 103 82 86 102 110 100 104 88 81 111 120 109 82 113 90 102 89 97 113 89 92 80 113 100 118 91 118 81 84 91 80 116 87 105 96 119 96 82 81 83 90 94 93 93 97 87 93 105 93 87 80 107 86 100 90 80 82 120 86 113 95 99 118 113 112 95 82 86 118 91 107 112 112 113 94 86 92 94 96 90 111 102 106 93 110 105 111 81 103 98 117 90 111 92 105 91 96 94 86 95 107 94 83 120 113 82 93 101 89 91 102 93 100
1016 1801 1682 1046 793 1213 2027 1947 1383 922 1495 2090 2117 1593 1158 1647 2450 2465 1813 1483 1876 2683 2642 2054 1622 2056 2817 2855 2356 1949 2276 3087 3184 2565 2149 2542 3260 3396 2712 2304 2682 3382 3624 3094 2541 2954 3672 3798 3198 2847 3103 3832 4058 3570 3104 3350 4171 4405 3865 3294 3679 4389 4648 4103 3432 3905 4610 4856 4259 3545 3734 4393 4631 3969 3429 3473 4220 4489 3884 3238 3274 3984 4241 3678 3010 3108 3679 3927 3373 2688 2877 3518 3791 3224 2511 2661 3250 3448 3022 2369 2363 3033 3188 2763 2006 2046 2743 3052 2603 1896 1900 2419 2866 2366 1696 1647 2219 2609 2226 1427 1402 1962 2304 1849 1131 1080 1749 2034 1695 960 785 1455 1887 1472 732 559 1169 1727 1341 498 377 958 1458 1154 387 196 90 117 107 104 119 104 86 102 87 81 88 97 91 102 120 82 82 87 83 108 111 80 83 112 97 97 97 114 99 107 99 105 86 109 81 100 102 88 100 91 95 106 96 108 97 110 118 116 93 115 115 104 97 95 85 83 97 92 120 112 81 115 118 114 90 104 119 93 89 91 94 90 116 119 102 86 90 119 107 118 107 112 82 84 89 93 104 103 86 117 106 82 105 118 101 82 90 105 80 114 114 98 82 119 116 114 83 109 91 103 95 108 92 111 108 108 88 104 94 102 113 106 113 84
788 1514 1430 839 477 992 1646 1682 1060 578 1218 1813 1781 1156 912 1291 2168 2023 1418 1176 1524 2324 2335 1727 1281 1902 2449 2663 2000 1608 2096 2691 2858 2135 1804 2181 2902 3145 2526 2143 2422 3179 3281 2674 2194 2654 3410 3580 2992 2469 2932 3576 3717 3167 2698 3126 3841 3986 3425 2935 3333 3954 4303 3649 3145 3515 4180 4415 3894 3456 3651 4215 4494 3861 3136 3268 3962 4099 3501 2868 3037 3767 4054 3343 2656 2901 3503 3670 3270 2506 2483 3143 3574 3025 2327 2286 3058 3341 2827 2089 2135 2794 3049 2637 1761 1813 2576 2722 2260 1550 1631 2167 2499 2213 1497 1300 1921 2453 1947 1151 1183 1753 2196 1707 957 795 1523 1893 1568 845 560 1168 1628 1285 498 352 1038 1497 996 250 240 779 1135 877 100 100 461 107 102 88 91 111 84 116 115 115 92 118 80 83 93 89 105 110 119 102 92 85 80 98 108 110 93 94 100 98 114 100 91 87 93 119 120 98 103 83 113 85 113 88 101 103 112 99 111 114 89 115 100 90 112 99 119 97 118 110 100 118 90 100 115 88 115 97 98 104 80 120 100 96 117 119 115 104 104 91 99 108 106 100 87 111 98 87 90 120 120 95 107 112 83 81 81 109 85 116 97 96 115 113 119 120 83 96 82 100 111 96 113 118 87 102 104 117 96 103 115 99 103 104
988 1636 1549 975 586 1072 1886 1806 1153 851 1398 1921 1989 1324 1076 1444 2334 2243 1547 1379 1661 2524 2449 1879 1603 2039 2615 2784 2211 1644 2236 2807 3010 2329 2036 2396 3101 3186 2582 2168 2507 3254 3469 2961 2388 2844 3498 3719 3067 2673 3002 3760 3870 3453 2829 3217 3975 4268 3544 3184 3425 4241 4490 3843 3447 3672 4312 4737 4052 3672 3824 4356 4696 4131 3443 3629 4128 4447 3777 3115 3227 3886 4237 3553 3042 3056 3752 3935 3353 2785 2915 3459 3757 3226 2542 2574 3205 3539 2910 2237 2280 3053 3218 2822 1997 2082 2720 3073 2498 1855 1930 2530 2849 2388 1704 1594 2133 2562 2079 1454 1266 1974 2370 2020 1162 1126 1677 2178 1680 1012 937 1438 1946 1598 769 628 1127 1725 1280 652 439 881 1353 1039 435 153 807 1171 117 117 120 97 118 85 96 99 91 106 103 90 93 101 102 120 108 101 105 111 112 114 81 87 82 113 95 87 83 102 118 97 114 104 105 104 101 107 93 81 115 118 90 100 109 113 94 109 109 88 103 112 108 111 91 83 86 112 120 103 102 109 98 88 83 120 110 83 119 80 96 115 101 109 82 80 116 95 114 109 95 80 108 86 120 96 119 92 93 110 98 112 94 82 85 88 97 110 95 108 111 117 94 80 94 105 112 99 97 110 98 100 94 111 109 101 91 85 91 96 85 88
1381 1997 2053 1409 938 1582 2191 2196 1612 1195 1828 2552 2506 1852 1534 2031 2740 2754 2173 1739 2262 2914 2884 2373 1960 2297 3127 3211 2626 2200 2510 3327 3453 2836 2386 2719 3531 3647 3082 2719 2991 3741 3830 3341 2895 3185 3964 4209 3544 3066 3504 4285 4433 3731 3283 3586 4444 4609 3976 3655 3860 4598 4879 4232 3860 4045 4809 5177 4627 4124 4404 4915 5203 4463 4003 4042 4619 4944 4300 3598 3777 4483 4661 4201 3406 3643 4164 4435 3819 3246 3392 4058 4159 3786 2986 3077 3734 4112 3451 2820 2786 3417 3775 3237 2582 2497 3134 3585 3146 2387 2327 3077 3410 2832 2189 2017 2765 3025 2684 1906 1848 2490 2937 2516 1795 1529 2140 2636 2174 1487 1346 2060 2401 1996 1201 1079 1832 2225 1887 1116 957 1575 1992 1676 815 649 1174 1719 1374 102 93 88 100 97 114 100 91 89 112 104 90 93 116 83 95 85 114 112 80 84 94 96 100 120 88 113 120 84 83 88 107 118 120 111 101 88 95 114 100 119 85 117 101 93 115 93 101 88 107 114 114 98 112 93 104 98 110 94 113 92 112 98 111 100 94 117 99 112 99 87 91 103 95 116 116 97 97 91 84 99 97 82 116 96 106 86 90 108 89 103 117 119 109 104 84 83 95 93 94 108 102 101 119 87 88 120 115 115 112 103 119 82 107 81 113 83 116 106 100 111
1632 2301 2262 1542 1293 1778 2565 2446 1830 1578 1974 2689 2655 2066 1839 2322 3032 2956 2284 1968 2406 3168 3284 2633 2214 2629 3316 3374 2796 2549 2845 3524 3800 3170 2740 3103 3760 3948 3279 2963 3390 3962 4125 3547 3188 3572 4265 4404 3835 3314 3671 4501 4630 4033 3557 3883 4769 4806 4385 3821 4109 4907 5111 4535 4060 4405 5035 5285 4797 4353 4593 5382 5495 4906 4207 4406 5172 5299 4673 4008 4139 4768 5082 4433 3909 3897 4639 4928 4369 3644 3653 4417 4629 4144 3367 3401 4160 4293 3775 3192 3112 3778 4215 3560 3014 2885 3532 3986 3412 2676 2714 3257 3593 3262 2513 2443 3001 3503 3053 2325 2189 2817 3232 2803 2065 1958 2593 3071 2681 1832 1830 2387 2836 2301 1649 1528 2073 2436 2067 1356 1313 1836 2333 2008 1142 993 1652 1984 1677 94 109 117 94 90 99 99 85 100 109 107 106 117 106 83 95 92 101 97 118 118 103 99 104 112 91 97 99 113 115 90 86 82 88 108 98 104 107 107 113 94 90 90 84 88 96 90 109 88 105 118 118 110 81 90 83 90 84 120 119 120 106 108 93 94 118 111 91 98 104 93 94 120 81 93 112 84 104 85 106 83 97 116 119 110 83 87 99 97 93 107 119 91 92 80 95 86 97 100 117 103 119 114 98 86 91 118 117 114 92 113 112 100 101 99 97 81 83 120 98 89
1420 2130 2129 1532 1121 1735 2353 2249 1654 1290 1894 2559 2634 2026 1686 2107 2848 2717 2114 1895 2298 2946 2969 2415 2145 2593 3145 3388 2658 2359 2696 3511 3445 2957 2526 2885 3700 3797 3186 2749 3194 3976 3977 3472 2979 3298 4030 4301 3675 3231 3595 4349 4535 3874 3362 3779 4513 4780 4226 3755 3992 4692 4998 4522 3972 4167 4927 5193 4662 4165 4441 5225 5379 4812 4116 4262 4896 5193 4674 4007 4009 4750 4926 4354 3675 3905 4399 4644 4259 3581 3685 4254 4530 3923 3314 3272 4074 4296 3780 3044 3121 3701 4069 3470 2918 2904 3475 3761 3437 2698 2687 3176 3653 3218 2514 2441 2974 3430 2982 2276 2167 2691 3229 2644 2061 1975 2400 2817 2582 1721 1675 2174 2724 2277 1546 1501 2066 2379 2104 1230 1165 1720 2136 1759 1140 960 1482 1899 1642 825 109 113 105 89 112 86 103 101 94 100 93 109 98 97 82 90 107 109 107 103 105 85 107 117 87 84 120 80 91 115 110 110 88 106 112 116 99 120 107 104 96 104 90 90 92 109 87 93 106 110 84 98 117 86 81 84 87 106 85 107 105 82 93 84 87 110 103 116 87 114 108 118 107 120 94 90 100 87 81 113 91 120 114 81 86 99 81 99 84 114 84 112 90 102 120 102 100 120 100 102 104 105 118 87 94 83 103 94 85 102 117 114 82 107 103 111 109 84 106 118
960 1588 1555 1016 610 1212 1927 1760 1133 919 1393 2080 2099 1379 1106 1638 2277 2226 1696 1361 1727 2521 2617 1963 1613 2095 2737 2716 2146 1835 2319 2976 3095 2389 1974 2333 3184 3290 2743 2235 2576 3387 3486 3030 2454 2925 3578 3760 3119 2825 3121 3811 3928 3510 2945 3370 4100 4314 3782 3147 3497 4195 4539 3886 3388 3715 4521 4757 4267 3641 3915 4721 4956 4356 3787 3987 4584 4723 4117 3534 3595 4250 4600 3935 3238 3382 4032 4329 3702 3180 3248 3772 4031 3558 2824 2990 3502 3831 3364 2647 2753 3336 3536 3052 2492 2534 3169 3494 2869 2143 2200 2884 3270 2755 1966 1988 2666 2945 2405 1844 1635 2289 2669 2191 1462 1512 2174 2419 2039 1336 1235 1788 2227 1937 1169 998 1610 2073 1697 949 822 1355 1849 1464 723 601 1144 1603 1284 489 327 96 107 113 106 98 100 104 116 92 82 82 96 91 115 98 93 112 91 107 104 98 86 80 94 85 117 119 100 112 107 82 100 100 109 106 84 120 86 103 96 95 110 101 96 110 82 81 99 87 87 92 95 106 120 96 87 112 95 88 108 94 88 112 84 98 95 85 91 104 102 80 80 80 112 111 92 83 120 113 104 106 96 117 86 106 117 99 95 106 105 117 92 104 115 98 93 110 103 114 104 113 91 97 115 89 109 90 83 119 89 114 97 100 99 98 84 82 105 85
529 1196 1174 475 148 730 1535 1487 800 477 948 1766 1666 1080 756 1222 1867 1835 1256 834 1323 2034 2139 1458 1200 1647 2294 2453 1848 1431 1844 2514 2716 1954 1696 2079 2750 2866 2221 1927 2248 3018 3130 2513 2008 2393 3282 3265 2868 2346 2659 3507 3509 3018 2551 2923 3613 3737 3214 2725 3017 3761 4027 3440 2954 3221 4153 4342 3795 3248 3459 4240 4494 3951 3480 3668 4200 4473 3935 3246 3294 3934 4175 3615 2953 3133 3774 3895 3373 2700 2776 3560 3665 3243 2553 2673 3321 3445 2943 2243 2335 3075 3244 2747 2139 2037 2697 3092 2561 1925 1894 2523 2863 2380 1663 1559 2265 2545 2128 1372 1436 1994 2429 2049 1153 1219 1736 2145 1835 1047 885 1576 1965 1564 794 651 1329 1774 1333 653 328 977 1412 1166 374 113 728 1284 854 223 100 580 90 101 86 112 92 104 99 89 86 118 115 116 93 97 85 109 117 107 83 109 112 83 116 94 103 89 106 91 83 90 95 90 114 108 118 112 100 84 91 83 84 89 92 83 94 90 91 95 93 106 89 87 105 100 82 118 99 80 111 108 91 86 101 83 94 96 111 97 96 92 102 115 109 109 103 115 84 91 118 110 94 95 89 87 114 115 96 91 117 87 95 96 119 88 97 118 82 112 109 84 96 103 83 112 90 110 89 102 111 108 113 85 83 95 115 81 102 101
646 1169 1194 638 232 803 1506 1543 745 472 946 1757 1767 1077 797 1261 1896 1921 1261 1040 1514 2141 2149 1563 1087 1559 2297 2384 1760 1424 1877 2609 2671 1996 1675 2007 2705 2959 2370 1788 2308 3002 3152 2503 2113 2412 3147 3401 2793 2290 2757 3334 3688 3057 2632 2860 3618 3950 3381 2813 3103 3884 4026 3577 2981 3343 4049 4296 3829 3237 3453 4349 4656 4003 3435 3700 4339 4471 3940 3397 3443 4151 4280 3655 3111 3102 3938 4031 3540 2815 3041 3667 3918 3266 2690 2703 3322 3657 3045 2471 2456 3005 3380 2977 2119 2249 2768 3232 2759 1903 1987 2644 3014 2451 1685 1693 2446 2758 2306 1459 1541 2167 2395 1982 1266 1181 1845 2306 1842 1185 1024 1604 1959 1593 821 729 1391 1894 1514 670 616 1072 1498 1224 546 303 894 1231 938 208 100 643 1041 85 91 102 116 110 102 99 120 84 101 118 85 95 103 104 115 89 98 102 117 80 93 115 99 92 99 114 80 115 108 97 82 120 81 117 115 92 108 104 93 92 92 112 90 113 87 89 104 99 109 115 95 102 91 118 90 89 118 91 85 116 101 91 85 98 104 104 110 119 80 117 105 119 107 117 113 81 92 106 108 82 115 113 107 81 92 108 94 95 99 118 81 93 98 111 83 120 83 95 80 103 105 109 86 102 107 92 94 112 112 85 100 83 102 103 102 101
941 1615 1690 1002 691 1081 1850 1806 1130 967 1374 2045 2016 1547 1089 1591 2261 2284 1622 1303 1895 2511 2619 1918 1557 2039 2822 2833 2217 1853 2329 2867 3002 2505 2125 2531 3117 3320 2740 2205 2598 3459 3632 2919 2604 2898 3526 3869 3259 2813 3081 3846 3940 3502 3036 3296 4126 4308 3707 3253 3486 4184 4479 3895 3359 3643 4506 4703 4182 3771 3976 4664 4937 4527 4012 4176 4824 4994 4385 3878 3820 4653 4702 4249 3500 3567 4386 4527 4008 3291 3428 4087 4285 3786 3140 3180 3834 4148 3622 2897 2887 3609 3833 3368 2583 2774 3413 3602 3074 2514 2505 3118 3441 2896 2206 2211 2819 3211 2798 2090 2042 2490 2872 2462 1847 1722 2389 2634 2401 1519 1577 2117 2594 2145 1306 1330 1790 2363 1870 1170 945 1562 2012 1659 921 696 1318 1710 1530 742 538 1140 1465 1345 85 109 111 120 106 84 85 96 118 93 113 103 96 84 104 119 104 111 115 88 91 103 88 83 101 82 111 105 113 80 99 81 93 80 116 104 115 120 97 114 101 96 96 109 106 102 84 84 114 85 89 102 112 110 111 87 101 82 107 90 117 92 88 98 101 106 91 104 85 106 116 107 116 82 83 118 90 99 86 83 88 89 81 114 113 109 105 111 118 84 116 96 106 86 96 92 84 107 109 113 117 106 112 82 93 81 97 86 83 87 119 103 108 83 113 98
1416 2044 2011 1362 1072 1501 2220 2132 1609 1267 1679 2455 2546 1756 1532 2040 2661 2704 2174 1758 2177 2990 2912 2402 2016 2485 3040 3241 2575 2224 2682 3380 3481 2758 2335 2830 3603 3619 3161 2612 3031 3856 3836 3295 2902 3160 4024 4242 3572 3141 3439 4100 4384 3780 3348 3629 4379 4704 4086 3580 3799 4612 4785 4278 3863 4077 4829 5032 4655 4085 4226 5092 5316 4732 4290 4527 5196 5526 4960 4277 4269 5070 5255 4754 4023 4139 4849 5030 4435 3724 3798 4523 4867 4247 3661 3627 4337 4468 3954 3409 3313 4014 4413 3865 3182 3165 3709 4080 3690 2991 2827 3498 3916 3311 2708 2679 3202 3636 3205 2416 2489 3012 3491 3000 2193 2175 2723 3189 2693 2022 1912 2446 2926 2460 1804 1715 2178 2711 2384 1656 1486 2023 2502 2182 1320 1253 1723 2313 1819 1230 985 1536 1962 1733 114 89 115 117 90 103 93 112 93 85 92 81 112 110 120 109 99 83 86 88 115 86 82 93 90 100 95 83 105 82 108 112 106 90 115 116 119 96 105 107 90 85 82 118 109 89 105 117 87 116 96 109 100 113 105 86 103 115 107 81 110 99 80 97 87 88 116 112 111 113 97 96 113 117 80 86 116 80 88 98 86 109 83 117 94 95 95 106 92 116 107 107 83 108 113 103 98 113 94 86 95 100 97 113 94 102 116 87 86 108 101 88 107 105 103 95
1309 2061 1968 1262 1013 1572 2123 2091 1637 1145 1771 2326 2342 1789 1528 1871 2562 2762 2011 1688 2152 2815 2917 2360 1889 2429 3109 3075 2512 2220 2631 3221 3395 2715 2296 2861 3609 3615 2992 2677 3093 3762 3936 3294 2774 3241 4003 4074 3513 3053 3412 4199 4291 3785 3344 3603 4470 4603 4092 3549 3805 4658 4801 4371 3819 4060 4744 5082 4456 3983 4218 4943 5307 4840 4185 4562 5224 5451 4903 4367 4330 5109 5320 4807 4043 4157 4896 4999 4525 3753 3960 4457 4869 4381 3601 3760 4214 4513 4165 3367 3378 4107 4371 3814 3207 3093 3884 4224 3583 2885 2911 3638 4012 3400 2699 2681 3213 3635 3302 2414 2536 3034 3447 3098 2236 2211 2860 3167 2751 2082 2045 2622 2956 2654 1795 1750 2239 2704 2423 1734 1433 2084 2526 2131 1473 1336 1790 2234 2016 1260 1065 1571 1991 1700 961 107 99 109 93 87 105 94 86 98 115 103 104 84 93 99 112 111 102 97 101 111 84 110 103 115 82 81 83 97 100 83 91 85 98 110 99 81 103 84 99 116 103 88 84 109 96 105 110 95 105 86 92 107 83 94 115 98 95 88 99 88 117 91 88 87 92 90 93 120 103 95 115 120 110 119 87 103 91 88 106 84 114 91 117 102 118 107 95 117 89 114 113 101 84 117 114 112 113 101 92 97 91 113 96 92 99 107 114 111 84 89 92 118 82 80
804 1517 1479 846 476 998 1840 1683 1051 820 1288 1945 1943 1284 913 1471 2166 2145 1687 1184 1638 2487 2445 1847 1381 1926 2566 2625 2150 1688 2185 2935 2898 2382 1926 2332 3066 3131 2598 2158 2556 3202 3367 2841 2351 2732 3496 3715 3079 2605 2920 3725 4010 3320 2843 3227 4034 4083 3616 3154 3471 4143 4355 3752 3316 3701 4373 4556 4183 3538 3888 4496 4960 4280 3878 4090 4697 5028 4486 3873 4122 4740 4879 4301 3666 3701 4349 4678 4189 3373 3518 4125 4475 3862 3230 3242 4020 4318 3787 3067 3094 3766 4048 3494 2741 2755 3481 3772 3246 2684 2666 3103 3481 3073 2327 2422 2989 3253 2926 2163 2162 2696 3080 2674 1883 1759 2393 2936 2473 1630 1561 2183 2655 2164 1409 1395 1854 2466 2003 1194 1065 1669 2084 1903 1120 896 1422 1929 1541 832 665 1255 1735 1302 668 352 99 116 115 83 112 99 109 113 84 113 102 94 110 109 102 98 91 85 87 105 96 93 89 114 86 89 93 84 110 111 92 100 116 112 106 110 88 82 96 110 100 93 104 85 91 107 88 119 103 81 87 103 95 88 81 94 99 85 85 100 93 91 117 89 92 82 103 101 86 108 107 84 86 118 85 113 85 104 91 94 85 96 100 91 83 85 120 106 84 87 94 109 104 82 103 82 91 101 110 106 80 90 94 85 120 91 85 96 96 100 116 103 100 111
238 1149 955 467 100 616 1236 1361 693 338 779 1412 1554 905 599 1056 1630 1845 1190 715 1290 1932 2005 1387 1035 1367 2067 2335 1710 1155 1641 2366 2406 1951 1546 1880 2586 2706 2099 1632 2059 2747 2903 2392 1895 2349 2968 3105 2714 2156 2539 3239 3380 2861 2462 2724 3398 3650 3125 2563 2943 3639 3865 3433 2916 3093 3843 4090 3551 3021 3295 4029 4330 3800 3393 3492 4251 4527 4214 3440 3573 4279 4447 3990 3272 3383 4126 4389 3724 3107 3076 3833 4118 3552 2881 2907 3476 3742 3318 2677 2650 3267 3610 3127 2320 2385 3115 3286 2972 2251 2134 2879 3182 2648 2002 1940 2517 2859 2542 1684 1726 2240 2741 2316 1605 1438 2127 2503 1973 1374 1110 1841 2290 1776 1160 1014 1455 1946 1670 910 789 1228 1671 1353 643 558 1103 1543 1143 514 334 890 1190 1021 236 100 565 117 107 119 119 94 106 92 96 103 101 92 95 93 112 96 89 88 98 102 100 108 98 91 92 116 112 117 97 120 81 93 84 104 91 107 118 100 105 116 93 94 100 88 91 112 112 93 109 107 112 117 105 101 99 87 103 83 111 118 118 114 101 98 110 102 83 109 113 95 89 117 108 105 107 105 96 88 112 110 117 94 120 116 107 115 98 96 103 86 84 116 107 120 108 101 101 103 96 82 116 91 88 90 90 85 120 97 96 102 104 86 97 113
159 229 862 361 100 429 1161 1188 511 290 683 1481 1368 866 328 976 1579 1720 1085 630 1183 1925 1808 1190 940 1301 2137 2191 1497 1031 1485 2310 2312 1738 1349 1656 2478 2633 2079 1561 1924 2625 2897 2340 1844 2113 3004 3017 2454 2035 2445 3169 3261 2787 2367 2614 3429 3596 3085 2548 2871 3489 3815 3188 2701 2974 3687 3945 3473 2947 3263 4028 4286 3708 3264 3387 4278 4578 4060 3388 3610 4250 4439 4007 3285 3269 3999 4313 3657 2952 3164 3817 3991 3473 2884 2841 3438 3837 3375 2559 2678 3213 3596 3107 2427 2368 3043 3282 2765 2108 2163 2666 3185 2731 1900 1797 2441 2890 2367 1650 1588 2287 2736 2213 1548 1489 1916 2371 1936 1280 1234 1766 2285 1710 1020 840 1494 2028 1510 833 740 1193 1703 1346 623 364 1067 1571 1095 487 307 710 1348 899 265 100 428 979 103 115 106 105 114 113 115 118 88 97 91 91 117 83 102 99 84 90 107 110 103 96 117 86 113 102 113 83 80 97 106 93 113 110 96 83 96 113 112 97 93 106 108 86 111 90 105 106 84 99 95 90 101 111 97 106 88 83 98 111 107 108 80 91 90 82 93 96 104 90 89 101 88 107 103 114 83 98 114 83 95 93 110 102 100 114 85 98 108 86 107 117 84 95 111 98 80 99 85 89 95 113 89 120 99 90 117 109 103 84 93 82
250 231 1191 535 385 822 1535 1433 842 532 1006 1778 1690 1019 653 1328 1884 1989 1268 975 1441 2252 2250 1591 1308 1634 2319 2433 1865 1394 1849 2669 2784 2062 1687 2070 2727 2985 2242 1961 2322 2938 3185 2616 2092 2405 3211 3358 2777 2389 2643 3418 3587 3069 2684 2958 3653 3810 3361 2892 3093 3936 4184 3500 3107 3431 4160 4397 3742 3230 3552 4411 4539 4081 3481 3789 4471 4892 4254 3846 3916 4619 4894 4232 3742 3707 4382 4621 4029 3417 3450 4169 4343 3977 3234 3228 3933 4126 3639 2978 3024 3754 4051 3503 2862 2734 3487 3793 3218 2534 2470 3256 3435 2952 2245 2280 2935 3249 2891 2076 2083 2754 2977 2595 1823 1864 2505 2783 2344 1643 1592 2240 2587 2285 1466 1392 1873 2420 2007 1210 1112 1630 2114 1834 992 854 1421 1981 1567 868 575 1227 1637 1321 629 384 854 1377 1130 101 95 118 97 85 88 85 98 110 105 82 97 80 113 116 103 95 110 85 94 83 110 86 90 117 112 114 103 94 116 95 100 97 97 118 94 107 110 114 103 109 84 109 99 118 89 88 114 107 99 115 85 98 90 119 106 112 113 88 108 109 114 103 108 97 113 82 119 86 102 119 102 93 90 117 99 87 85 117 107 92 111 92 101 111 106 85 111 87 93 106 81 95 100 108 94 81 109 83 84 106 83 87 100 118 114 92 119 88 81 108
211 163 242 967 801 1272 1846 1879 1315 871 1362 2075 2170 1534 1091 1711 2357 2434 1796 1311 1883 2578 2560 2076 1658 2174 2746 2957 2349 1959 2277 2959 3185 2468 2023 2478 3298 3365 2799 2258 2741 3383 3580 3074 2565 2833 3607 3751 3242 2717 3204 3934 4117 3467 3056 3370 4049 4293 3839 3349 3662 4385 4602 3961 3476 3804 4478 4875 4323 3732 3968 4665 4961 4536 4006 4204 5048 5352 4847 4273 4381 5222 5450 4798 4146 4189 4964 5095 4681 3960 4109 4612 4924 4436 3724 3678 4408 4748 4118 3563 3513 4085 4462 4039 3218 3253 3980 4316 3853 3058 2943 3669 4044 3554 2832 2858 3507 3860 3390 2568 2526 3196 3616 3084 2467 2291 2961 3338 2988 2210 2094 2751 2993 2749 2024 1890 2447 2865 2453 1820 1521 2086 2541 2184 1536 1256 1888 2376 2062 1296 1156 1701 2204 1761 1162 861 1353 1883 1619 102 81 114 103 90 82 107 84 95 108 118 120 86 114 107 111 117 113 81 112 97 117 116 85 114 86 113 112 117 93 120 91 116 89 97 107 94 96 94 90 80 101 107 99 105 90 105 83 115 120 100 88 92 105 80 106 119 85 86 102 119 104 106 85 89 113 118 108 106 82 83 80 86 115 92 100 85 105 88 83 95 119 93 101 120 95 101 107 81 112 95 111 82 110 88 89 112 104 102 86 113 105 92 95 88 106 88 107 86 93 87
224 199 187 163 768 1373 2057 2034 1324 1081 1545 2240 2263 1659 1200 1757 2520 2451 1802 1477 1932 2678 2800 2017 1646 2094 2915 3023 2422 2054 2325 3114 3172 2647 2271 2504 3391 3492 2858 2462 2901 3539 3734 3060 2563 2979 3734 3938 3331 2908 3267 3886 4131 3517 3147 3539 4163 4427 3797 3274 3682 4351 4595 4019 3583 3792 4716 4907 4279 3864 4184 4886 5093 4670 4031 4322 4965 5324 4822 4245 4523 5180 5628 4995 4297 4355 5145 5290 4747 4119 4221 4786 5049 4513 3828 3912 4643 4899 4347 3760 3797 4277 4611 4045 3429 3423 3998 4510 4011 3264 3283 3831 4117 3685 3070 2957 3610 4051 3483 2877 2635 3429 3761 3318 2647 2536 3051 3416 3085 2415 2295 2743 3328 2928 2208 1903 2526 2999 2736 1955 1862 2375 2861 2373 1746 1550 2070 2655 2180 1486 1383 1858 2357 1986 1282 1140 1636 2073 1709 969 98 113 114 107 94 101 89 97 92 93 109 113 99 96 85 100 119 85 103 80 108 94 86 97 99 83 82 105 94 101 98 116 102 87 110 116 86 104 115 84 84 103 94 103 88 89 93 106 116 82 99 120 91 100 112 86 91 88 90 102 105 120 87 113 111 98 100 113 90 103 91 81 93 108 80 111 100 92 118 112 109 110 86 101 101 83 105 109 80 90 95 118 113 114 93 92 119 101 107 92 120 113 92 80 95 84 83 105 112 103
175 162 169 199 248 1068 1768 1658 929 786 1156 1942 1952 1347 947 1483 2175 2126 1461 1218 1641 2404 2360 1694 1281 1816 2464 2581 1914 1555 1956 2782 2838 2207 1751 2213 3031 3024 2441 1984 2505 3117 3297 2853 2409 2748 3413 3557 3014 2562 2961 3693 3737 3267 2819 3048 3900 4100 3594 2934 3229 3967 4387 3790 3227 3526 4209 4532 4061 3387 3831 4420 4758 4289 3688 4025 4644 4941 4561 3911 4128 4865 5249 4798 4134 4062 4771 5024 4518 3799 4008 4553 4932 4210 3668 3649 4264 4545 4147 3353 3381 3965 4319 3832 3117 3095 3731 4136 3564 2924 2989 3621 3825 3349 2825 2693 3400 3684 3194 2539 2521 3127 3437 2997 2225 2218 2870 3188 2823 1988 1955 2570 2986 2532 1779 1717 2352 2720 2367 1648 1430 2030 2467 2221 1469 1169 1897 2304 1994 1192 1044 1478 2013 1662 1069 818 1357 1720 1567 810 501 100 97 117 103 120 107 82 101 92 81 93 114 111 114 116 107 101 95 89 119 84 111 115 103 93 118 107 98 97 112 112 112 94 99 108 112 101 103 116 115 113 81 81 117 106 92 109 120 100 89 108 108 91 111 88 87 112 99 110 111 111 118 81 105 93 104 89 101 112 85 93 89 83 104 106 93 86 82 102 114 80 106 90 88 90 113 103 81 101 87 107 115 107 105 107 92 87 111 115 99 118 84 90 114 119 98 104 120 80
217 190 197 197 163 189 1137 1091 589 264 670 1314 1346 791 345 789 1587 1718 1009 567 1049 1867 1943 1266 834 1356 1955 2080 1526 1030 1622 2242 2418 1769 1253 1681 2478 2497 1940 1528 1871 2649 2805 2241 1829 2129 2888 2971 2586 2016 2307 3063 3353 2831 2316 2488 3344 3641 3086 2507 2799 3598 3783 3175 2786 2963 3729 3934 3521 2971 3313 3937 4308 3665 3189 3503 4206 4538 3944 3418 3717 4329 4749 4235 3567 3723 4331 4673 3993 3320 3383 4043 4422 3773 3178 3288 3870 4207 3571 2872 2944 3627 4028 3523 2793 2779 3329 3618 3211 2539 2509 3172 3479 2936 2355 2285 2955 3157 2777 2056 2049 2606 2940 2529 1961 1677 2397 2761 2428 1562 1523 2130 2529 2254 1432 1305 1921 2404 1913 1302 1061 1585 2024 1713 925 840 1411 1771 1551 789 612 1180 1562 1364 595 294 853 1319 1159 250 100 540 114 89 114 89 116 107 85 88 99 82 100 117 115 107 99 85 110 80 119 115 87 96 96 113 117 106 116 82 118 119 113 117 116 101 107 96 90 103 108 114 101 110 81 83 99 99 80 103 84 100 87 99 95 89 81 105 102 106 108 89 107 112 97 108 112 82 108 85 98 93 115 115 94 107 82 115 92 85 118 103 95 116 110 88 86 81 90 98 105 103 119 107 119 119 91 89 104 80 119 82 110 87 104 113 80 81 92 86
240 154 186 220 191 187 230 890 324 100 416 1056 1063 527 200 571 1283 1397 693 476 914 1657 1669 1095 644 1024 1733 1904 1233 809 1345 2084 2016 1451 1073 1585 2144 2391 1823 1277 1664 2479 2636 2066 1633 2015 2632 2749 2353 1698 2194 2856 3125 2469 2105 2397 3183 3257 2790 2304 2482 3303 3466 2976 2466 2749 3476 3717 3232 2716 3075 3797 3949 3439 2966 3183 3997 4218 3764 3214 3397 4170 4573 4019 3355 3458 4118 4426 3935 3174 3335 3871 4176 3606 3089 3012 3685 3969 3558 2856 2847 3514 3716 3172 2485 2498 3263 3551 3050 2300 2381 2906 3292 2844 2055 2087 2748 3067 2599 1980 1924 2391 2900 2503 1768 1559 2260 2606 2164 1415 1382 1892 2488 2101 1238 1132 1687 2185 1871 1140 950 1522 1876 1548 774 566 1139 1658 1311 520 403 1000 1394 1214 352 273 676 1248 1024 144 100 502 1066 105 109 119 105 110 101 119 108 103 108 83 88 107 101 86 114 114 81 99 91 103 88 103 80 107 108 113 88 108 80 113 88 114 99 108 114 82 111 109 86 110 96 87 100 114 88 88 95 90 101 108 107 92 81 82 108 108 103 90 95 94 84 104 82 82 103 87 112 116 114 110 120 96 110 113 98 81 88 87 80 91 96 93 109 86 98 88 118 119 82 109 85 107 93 118 112 120 80 93 80 96 82 120 118 112 117 81
197 232 157 157 200 165 153 1085 576 182 654 1429 1451 824 452 909 1594 1691 1046 556 1107 1746 1897 1165 775 1353 2102 2180 1491 1174 1464 2270 2277 1776 1277 1725 2507 2593 2012 1589 1922 2707 2864 2322 1723 2195 2965 3087 2551 2020 2261 3062 3205 2658 2261 2532 3280 3456 3049 2503 2819 3432 3668 3278 2709 3049 3840 4069 3549 2906 3213 3930 4164 3647 3143 3444 4245 4417 3951 3501 3565 4466 4724 4219 3677 3899 4552 4854 4225 3598 3517 4272 4551 3925 3270 3416 4032 4228 3736 3187 3043 3766 3995 3610 2782 2896 3460 3943 3367 2554 2670 3310 3694 3082 2414 2482 2980 3406 2937 2223 2204 2720 3084 2622 1940 1836 2469 2992 2570 1767 1733 2196 2718 2310 1658 1385 1967 2464 2111 1344 1187 1746 2151 1947 1067 953 1453 1970 1571 863 778 1255 1786 1358 613 413 1112 1492 1269 528 257 785 1260 1059 87 103 113 81 117 119 99 113 109 81 102 110 108 90 92 90 95 93 88 115 111 89 84 82 88 86 80 96 120 83 103 99 97 108 83 111 82 111 112 93 84 104 88 80 116 107 88 110 117 105 111 105 96 92 111 90 85 115 113 92 84 107 93 109 104 111 107 94 120 109 114 84 115 98 119 99 96 110 120 113 93 86 105 113 96 114 101 107 83 88 82 85 84 80 89 106 89 111 120 119 84 120 80 105 97 88
250 218 246 196 188 228 229 235 1001 551 1173 1799 1714 1068 805 1357 1962 1995 1319 981 1620 2316 2377 1762 1323 1812 2392 2553 1960 1562 1902 2770 2693 2224 1680 2085 2825 2913 2510 2070 2464 3130 3156 2655 2189 2615 3283 3391 3002 2479 2723 3466 3678 3089 2686 2993 3831 4057 3343 2866 3213 3948 4146 3664 3225 3338 4139 4343 3891 3320 3733 4420 4656 4144 3592 3942 4554 4888 4344 3864 4155 4884 5241 4763 4041 4346 4953 5290 4795 4030 4051 4841 5029 4551 3892 3789 4610 4801 4373 3706 3677 4307 4618 4143 3415 3314 4112 4319 3958 3071 3075 3824 4140 3606 2977 2977 3486 3955 3447 2632 2613 3216 3682 3239 2469 2447 2967 3414 3009 2246 2140 2810 3162 2807 2107 2038 2599 3030 2669 1932 1745 2340 2653 2389 1670 1457 2040 2426 2123 1500 1189 1854 2272 1919 1270 1035 1587 2002 1829 1014 845 1282 1878 1436 96 120 118 115 98 91 94 97 115 100 114 103 114 104 120 110 107 90 108 93 120 117 118 80 84 80 107 85 104 89 103 111 88 105 81 109 88 108 115 116 114 90 89 112 117 81 112 95 116 110 97 85 113 112 87 81 120 103 112 116 111 110 112 114 89 94 106 116 97 95 116 101 81 94 101 91 119 114 119 119 92 82 107 106 108 108 117 85 93 107 116 118 107 103 93 109 105 92 114 84 102 89 110 98 100 89
164 235 219 212 191 175 156 198 196 869 1312 1973 1947 1464 1053 1532 2241 2167 1629 1225 1803 2405 2433 1936 1518 1893 2607 2659 2040 1643 2211 2874 2959 2337 2045 2406 3210 3248 2549 2234 2576 3341 3391 2939 2434 2728 3500 3739 3215 2739 3015 3661 3987 3327 3003 3174 4072 4155 3545 3057 3471 4163 4365 3832 3318 3608 4407 4691 4100 3631 3898 4552 4875 4488 3892 4038 4735 5118 4596 4090 4348 5017 5442 4979 4413 4422 5327 5553 5038 4334 4433 5005 5373 4822 4220 4201 4814 5047 4629 3997 3858 4507 4922 4469 3765 3664 4251 4607 4128 3536 3476 4126 4387 3902 3155 3159 3898 4120 3837 3089 3045 3649 3942 3521 2786 2691 3280 3830 3291 2689 2509 3014 3563 3111 2309 2177 2746 3191 2885 2105 1945 2558 3020 2630 2000 1814 2326 2863 2496 1683 1525 2114 2469 2248 1484 1224 1925 2272 2124 1306 1044 1608 2099 1757 1165 115 92 84 119 113 84 105 84 118 102 109 107 108 95 119 84 98 90 112 88 118 89 93 103 117 85 109 108 98 116 94 80 87 112 90 99 91 94 108 120 84 107 87 116 115 106 114 94 98 110 95 93 99 80 84 82 106 110 109 111 106 82 94 87 120 101 83 93 80 115 97 119 119 106 98 120 94 98 93 85 115 106 86 96 107 98 91 103 93 98 99 83 114 105 116 81 115 111 116 114 118 96 82 81 102
177 242 177 247 210 221 160 219 184 164 1073 1731 1736 1189 848 1325 2002 2069 1463 1011 1423 2220 2274 1667 1235 1798 2435 2577 1992 1525 1848 2706 2686 2095 1808 2222 2890 2913 2357 1874 2431 3013 3322 2652 2236 2617 3230 3385 2942 2494 2741 3530 3719 3126 2641 2974 3809 3869 3441 2869 3178 3864 4141 3740 3193 3366 4106 4484 3883 3351 3564 4371 4562 4224 3707 3880 4533 4973 4403 3773 4122 4752 5051 4676 4034 4338 5016 5316 4944 4262 4273 4865 5110 4673 3884 3946 4637 4896 4515 3676 3876 4512 4687 4225 3580 3493 4178 4509 3917 3326 3342 3948 4287 3832 3093 3036 3666 4050 3668 2861 2875 3459 3756 3310 2708 2555 3188 3531 3092 2466 2231 2854 3337 2961 2317 1985 2631 3072 2754 2001 1849 2498 2906 2608 1784 1517 2215 2703 2288 1533 1420 2003 2415 2053 1325 1159 1748 2099 1833 1160 855 1359 1987 1665 991 743 99 80 87 103 96 87 82 100 96 103 82 94 82 94 101 108 109 84 100 111 89 89 86 85 113 103 89 89 115 96 103 81 103 97 87 86 104 104 116 102 96 80 93 91 109 87 107 109 115 92 111 102 119 99 107 80 101 95 96 109 120 108 80 103 90 106 105 89 90 105 109 111 117 120 103 117 109 119 110 84 94 98 83 109 97 90 105 86 95 105 94 87 87 83 112 101 113 93 115 95 83 96 117 89
174 164 179 210 160 215 209 202 192 150 227 1340 1293 664 398 684 1574 1486 943 596 953 1768 1808 1130 673 1118 1838 1965 1402 903 1338 2070 2266 1574 1240 1717 2395 2571 1896 1506 1777 2536 2728 2222 1644 2006 2695 2930 2379 1923 2184 3049 3292 2676 2097 2574 3182 3340 2912 2411 2629 3506 3590 3112 2729 2978 3664 3998 3448 2828 3028 3932 4111 3597 3198 3341 4112 4473 3827 3415 3477 4318 4708 4218 3529 3690 4432 4835 4431 3824 3914 4527 4821 4142 3510 3508 4289 4569 3968 3377 3357 3906 4217 3760 3023 3128 3638 4115 3561 2853 2852 3583 3763 3434 2737 2699 3158 3662 3151 2519 2421 2908 3396 2955 2316 2056 2707 3045 2648 2026 1826 2572 2926 2594 1737 1650 2297 2630 2333 1665 1464 2048 2399 2066 1360 1116 1693 2302 1793 1135 834 1484 2002 1691 904 707 1311 1735 1458 671 393 932 1485 1184 470 178 731 91 88 97 111 107 102 85 98 98 112 95 110 98 102 84 85 108 84 92 116 100 89 116 89 102 102 104 80 92 84 90 82 85 94 91 98 81 84 95 86 118 88 88 90 93 111 101 114 90 85 105 117 90 102 98 118 119 80 88 80 106 80 100 80 88 93 80 84 97 107 118 119 108 89 93 91 91 99 101 117 80 98 93 90 87 102 101 87 119 91 109 113 107 110 87 88 92 118 110 87 117 91 115
235 239 156 153 177 196 244 247 153 209 163 161 992 364 100 342 1067 1083 565 204 641 1258 1367 855 494 829 1544 1590 1106 739 1120 1710 1787 1271 851 1299 1965 2198 1529 1134 1520 2251 2421 1779 1394 1773 2347 2567 2068 1599 1887 2623 2822 2319 1732 2038 2863 3023 2477 2120 2329 3181 3341 2841 2276 2599 3293 3659 2946 2459 2822 3494 3857 3215 2807 3075 3676 3972 3438 3069 3267 3972 4362 3730 3194 3403 4205 4496 3939 3480 3522 4290 4467 3957 3330 3340 4040 4332 3668 3105 3057 3752 3948 3418 2791 2882 3425 3832 3275 2628 2536 3174 3621 3095 2398 2433 2904 3286 2912 2254 2116 2687 3173 2682 2010 1836 2407 2875 2413 1741 1622 2156 2703 2294 1523 1450 1901 2384 2109 1267 1223 1787 2120 1757 1138 941 1550 1991 1672 923 682 1223 1689 1382 678 346 892 1425 1179 403 151 647 1271 906 157 100 378 1047 88 97 101 86 86 118 90 92 84 119 101 110 92 109 113 115 96 107 102 89 113 112 98 116 94 91 86 101 102 90 109 113 81 99 91 107 108 92 80 120 82 98 106 115 105 103 117 108 120 94 95 115 111 83 103 82 93 105 105 97 104 102 119 87 117 82 111 116 105 87 96 109 97 99 108 103 104 115 111 107 93 118 89 119 90 101 101 106 84 84 93 86 111 81 93 105 98 89 120 88 84 94
222 240 187 221 234 164 234 250 250 171 226 236 997 401 100 585 1230 1180 616 285 755 1519 1557 861 536 869 1719 1711 1034 670 1134 1805 2044 1320 889 1306 2182 2180 1637 1151 1649 2416 2478 1786 1439 1847 2512 2793 2212 1623 1926 2761 2970 2366 1821 2216 2909 3231 2568 2211 2427 3234 3502 2867 2322 2637 3337 3586 3145 2691 2795 3560 3974 3436 2833 3127 3847 4037 3655 3040 3301 4042 4397 3925 3319 3527 4306 4661 4101 3589 3793 4385 4640 4160 3431 3437 4128 4493 3798 3112 3248 3788 4192 3648 3026 3070 3571 4061 3407 2761 2729 3417 3792 3278 2470 2477 3149 3457 3136 2311 2329 2955 3221 2801 2068 2059 2586 3126 2540 1813 1875 2359 2884 2467 1620 1639 2172 2552 2203 1423 1297 1906 2280 2069 1310 968 1651 2122 1818 1059 756 1362 1864 1560 837 615 1106 1553 1407 512 370 834 1368 1172 419 117 657 1122 888 82 103 109 116 81 89 109 102 86 84 107 103 98 103 83 99 90 111 84 112 111 98 110 92 120 108 85 118 94 97 87 118 100 93 107 100 109 94 116 98 80 89 105 86 115 108 85 98 112 101 102 94 86 82 110 86 84 90 84 85 85 83 89 96 83 109 84 95 87 95 106 100 110 86 88 111 95 82 106 109 111 99 80 119 89 102 87 86 108 104 108 105 97 96 99 120 81 103 105 111 96
215 227 153 245 195 241 166 183 235 196 230 151 180 891 397 886 1734 1739 998 727 1127 1867 1922 1231 858 1316 2072 2212 1579 1205 1662 2323 2304 1829 1341 1820 2541 2696 1969 1589 1984 2677 2866 2362 1826 2234 2995 3093 2638 2186 2449 3224 3364 2716 2396 2708 3463 3581 3078 2575 2782 3510 3901 3205 2798 3002 3747 4020 3644 3012 3320 4084 4410 3854 3273 3486 4298 4629 3988 3543 3684 4544 4834 4255 3703 3863 4651 5059 4516 3940 4073 4948 5184 4583 3869 4026 4547 4906 4380 3651 3763 4363 4778 4179 3449 3496 4214 4409 3937 3346 3278 3927 4329 3837 2993 3046 3690 3944 3582 2734 2781 3302 3795 3367 2575 2431 3202 3445 3188 2303 2339 2977 3327 2884 2175 2099 2572 2978 2699 1983 1900 2313 2780 2480 1679 1628 2034 2543 2346 1573 1362 1786 2384 2060 1218 1187 1532 2204 1855 1128 787 1283 1956 1723 862 573 1202 1601 1404 108 82 94 83 95 99 113 98 97 98 93 81 81 114 81 103 91 110 87 85 116 115 100 91 88 115 90 97 106 116 101 112 83 93 103 83 113 92 119 87 88 98 83 82 108 101 94 96 103 111 99 99 84 96 118 114 85 106 104 117 94 86 100 119 90 80 89 98 90 90 116 86 88 114 99 86 117 90 120 97 100 109 107 110 117 96 99 92 112 113 112 110 85 100 112 115 108 87 116 82 102
166 198 202 213 161 192 222 212 157 218 179 221 193 246 830 1238 2067 1932 1287 922 1437 2112 2238 1725 1258 1755 2401 2448 1866 1523 1971 2546 2828 2046 1688 2047 2878 2913 2288 1959 2379 3090 3173 2663 2276 2564 3380 3392 2801 2395 2814 3586 3727 3225 2560 2922 3646 3939 3323 2972 3159 3980 4140 3616 3187 3471 4110 4441 3879 3267 3526 4422 4722 4094 3594 3746 4579 4858 4465 3807 4037 4881 5089 4583 3982 4219 4972 5319 4804 4253 4554 5251 5473 4976 4293 4361 5021 5340 4831 4063 4219 4731 5003 4669 3929 3941 4474 4900 4427 3700 3690 4284 4537 4140 3443 3461 4060 4448 3902 3306 3235 3694 4153 3728 2933 3002 3597 3860 3448 2722 2696 3196 3660 3281 2570 2405 2989 3455 3062 2318 2125 2687 3205 2965 2198 1878 2517 2980 2603 1958 1701 2361 2775 2514 1813 1575 2068 2540 2299 1503 1310 1748 2260 1955 1343 1056 1524 1981 1805 1059 112 111 94 98 90 113 86 113 98 106 89 117 101 83 81 109 113 91 114 111 111 85 109 116 107 92 95 88 89 118 97 120 113 93 118 120 107 83 87 114 114 80 113 84 117 82 90 95 100 90 98 91 98 107 108 93 81 90 105 114 105 94 97 96 80 84 93 83 93 111 109 98 109 89 83 104 95 85 95 114 112 80 92 97 93 119 111 102 93 95 97 97 114 112 111 113 86 80 83 99
238 174 155 150 213 199 157 156 238 205 166 161 230 218 237 1072 1801 1992 1319 1003 1421 2150 2041 1579 1100 1624 2384 2346 1750 1279 1730 2440 2651 1981 1534 2060 2683 2767 2212 1839 2301 2913 3012 2447 2039 2377 3195 3289 2734 2278 2573 3333 3491 3107 2478 2869 3565 3870 3289 2810 3092 3836 3966 3578 2941 3271 4129 4247 3736 3295 3484 4163 4505 3993 3484 3672 4374 4864 4216 3794 3936 4663 5061 4530 3957 4097 4838 5170 4721 4105 4352 5126 5408 4929 4214 4411 4994 5232 4713 4129 4063 4649 5121 4494 3959 3886 4439 4896 4272 3561 3707 4230 4641 4079 3469 3414 3917 4381 3973 3185 3156 3734 4079 3769 3039 2798 3461 3893 3583 2859 2649 3181 3766 3260 2595 2397 2981 3441 3081 2363 2245 2701 3117 2864 2142 2015 2446 2964 2620 1966 1686 2300 2717 2422 1747 1489 1928 2425 2305 1391 1275 1714 2190 1960 1288 983 1583 2120 1746 1014 700 84 102 100 91 118 87 109 97 99 98 115 80 88 81 84 86 92 90 115 100 81 105 98 114 105 115 107 102 117 80 112 110 85 120 106 107 94 91 95 108 114 113 116 114 117 87 98 111 89 109 97 109 84 116 105 93 117 99 110 91 120 93 86 94 93 97 84 117 89 90 96 119 83 116 92 93 104 96 86 120 91 85 110 91 83 90 84 92 120 95 117 90 81 105 84 117 116 115 104
211 169 205 191 158 158 171 203 158 236 197 166 188 187 192 232 1321 1378 759 389 810 1570 1693 1040 759 1183 1856 1965 1319 868 1397 2008 2133 1601 1162 1628 2297 2331 1862 1449 1763 2491 2711 1957 1680 1956 2778 2908 2379 1781 2153 2875 3100 2515 2102 2332 3132 3310 2895 2373 2509 3355 3559 2966 2573 2752 3574 3747 3220 2708 2938 3741 4107 3604 2940 3319 4086 4323 3782 3176 3504 4166 4432 3975 3395 3697 4421 4831 4250 3731 3836 4699 4966 4598 3861 4039 4539 4829 4442 3754 3717 4427 4625 4111 3380 3456 4159 4496 4018 3337 3311 3807 4178 3784 3087 2998 3511 4047 3543 2727 2762 3347 3710 3396 2497 2536 3155 3480 3126 2438 2186 2838 3289 2919 2206 1983 2607 2947 2760 1869 1783 2300 2754 2458 1689 1562 2022 2529 2152 1459 1261 1902 2375 2024 1354 1040 1648 2185 1827 1128 869 1403 1798 1641 906 587 1183 1615 1363 622 387 855 91 83 101 109 112 98 91 116 120 108 88 113 115 96 89 93 119 86 96 101 119 119 92 100 117 115 119 115 90 81 99 101 113 106 111 97 82 118 87 104 85 112 113 84 83 95 82 111 103 110 117 91 96 118 114 97 108 97 118 119 89 115 109 102 93 86 111 106 100 111 103 98 111 98 111 88 83 86 84 104 95 99 91 84 89 95 115 94 80 109 109 88 80 120 97 108 102 98
180 235 172 172 162 233 226 168 201 160 160 244 224 206 224 200 213 1014 321 100 406 1090 1153 631 241 714 1302 1531 767 541 880 1549 1608 1008 762 1136 1920 1871 1431 957 1219 2065 2088 1582 1234 1603 2291 2334 1848 1341 1820 2563 2662 2016 1648 1873 2664 2819 2316 1862 2191 2936 3194 2649 2172 2387 3122 3341 2774 2346 2670 3286 3529 3007 2595 2779 3466 3752 3401 2717 2996 3707 4124 3564 3081 3191 3944 4374 3834 3353 3424 4241 4528 4131 3466 3622 4189 4505 3997 3331 3294 3893 4334 3774 3159 3180 3744 4095 3652 2900 2944 3469 3867 3431 2638 2603 3168 3571 3163 2339 2331 2999 3468 2856 2219 2065 2797 3231 2774 1980 1934 2522 2904 2566 1804 1712 2215 2620 2214 1558 1492 2059 2522 2036 1362 1128 1677 2117 1787 1214 893 1406 2028 1694 856 628 1155 1824 1433 645 431 952 1540 1142 445 296 723 1190 954 187 100 402 1121 119 96 95 86 118 103 106 96 80 103 110 107 93 100 117 103 96 110 120 103 116 120 90 112 94 97 96 108 103 117 81 109 119 120 85 94 104 86 81 90 92 118 88 106 107 92 109 91 82 116 83 90 118 106 83 109 99 115 105 89 80 104 95 94 95 120 115 109 84 94 106 111 99 83 107 104 104 104 81 99 86 87 94 101 101 120 105 114 92 107 108 94 113 92 80 96 113
185 154 245 228 179 181 182 203 239 228 178 217 157 210 245 206 161 940 382 100 396 1102 1224 631 177 659 1257 1376 891 379 828 1620 1611 1047 659 1012 1774 1991 1328 891 1261 2062 2052 1502 1071 1440 2291 2332 1731 1301 1737 2480 2546 2031 1624 1868 2625 2918 2373 1737 2106 2780 3067 2666 1974 2263 2991 3402 2757 2355 2623 3376 3489 3080 2525 2832 3585 3773 3244 2866 2992 3662 4067 3645 2932 3221 4020 4331 3918 3338 3324 4239 4540 3985 3474 3631 4223 4580 3998 3286 3377 4011 4301 3816 3131 3065 3799 4126 3639 2876 2866 3600 3849 3428 2779 2712 3331 3670 3292 2470 2396 3002 3460 2935 2176 2215 2688 3141 2762 2037 1921 2543 3008 2518 1891 1607 2248 2736 2406 1619 1548 1975 2511 2055 1387 1256 1790 2270 1914 1203 922 1588 2010 1706 938 788 1224 1870 1494 668 545 1041 1473 1271 501 324 793 1396 978 393 100 519 989 811 101 109 114 120 93 99 119 101 119 110 115 110 99 107 98 98 105 86 107 89 96 98 107 82 110 95 92 99 110 86 82 111 117 88 91 100 85 85 100 101 111 93 112 84 80 107 120 120 111 84 115 116 80 93 100 118 99 110 96 119 113 103 96 95 86 94 116 108 113 89 117 113 118 109 89 109 91 106 100 119 114 91 82 106 84 104 106 116 102 104 93 114 118 96 87 97
244 180 247 174 175 194 167 174 154 229 235 229 165 154 199 216 186 209 657 265 778 1401 1595 883 507 1095 1621 1777 1202 732 1184 1919 2112 1419 1096 1457 2240 2312 1687 1169 1587 2321 2456 2020 1559 1922 2517 2795 2261 1743 2063 2873 3028 2472 1892 2187 3109 3214 2701 2225 2585 3324 3403 2867 2459 2764 3360 3639 3250 2648 2892 3606 3986 3378 2978 3142 3912 4122 3592 3163 3359 4157 4362 3835 3279 3503 4352 4641 4209 3657 3692 4454 4840 4363 3917 3991 4648 5043 4557 3810 3744 4436 4797 4285 3518 3483 4171 4485 4126 3333 3361 4027 4271 3806 3125 3041 3728 4113 3557 3015 2864 3388 3783 3484 2776 2661 3121 3686 3301 2483 2371 2973 3295 3008 2314 2151 2746 3198 2753 2022 1843 2471 2983 2556 1777 1715 2178 2599 2320 1593 1450 2060 2425 2132 1367 1249 1646 2159 1993 1093 1008 1558 2054 1686 1004 602 1288 1834 1533 706 427 994 1452 1272 118 96 82 113 87 112 108 110 93 112 84 112 85 102 115 87 118 88 113 112 82 84 118 101 106 115 108 89 81 117 84 82 106 116 86 86 108 90 106 104 114 116 100 107 81 85 119 80 115 117 81 120 107 82 91 101 109 85 98 116 99 114 91 83 93 84 118 84 103 120 94 97 107 112 119 104 105 109 116 105 83 88 109 106 110 118 116 99 92 87 100 82 107 97 95 100
168 156 183 221 189 163 209 244 242 160 205 188 220 154 210 197 198 221 171 707 1205 1828 1920 1358 1025 1425 2033 2256 1675 1163 1540 2274 2440 1901 1404 1748 2650 2579 2059 1720 1983 2833 2915 2385 1796 2168 2947 3091 2667 2070 2526 3286 3479 2814 2363 2633 3428 3538 3001 2558 2807 3598 3842 3275 2891 3082 3807 4197 3660 3136 3354 3986 4420 3787 3266 3443 4183 4674 4101 3485 3785 4505 4773 4362 3776 3874 4757 5036 4523 3964 4114 4976 5331 4810 4315 4401 5049 5427 4975 4228 4322 4962 5250 4732 4141 3994 4779 4996 4532 3824 3716 4445 4798 4412 3697 3585 4222 4649 4087 3485 3229 4014 4250 3973 3132 3169 3747 4188 3696 3020 2929 3504 3858 3480 2653 2602 3239 3610 3341 2487 2444 3001 3353 3066 2266 2045 2754 3125 2876 2177 1847 2355 2989 2526 1825 1597 2173 2615 2452 1695 1433 1914 2396 2131 1365 1244 1720 2306 1949 1180 856 1444 2046 1690 1005 95 82 92 108 106 90 119 110 88 112 109 89 104 109 90 107 101 110 111 114 115 92 108 115 117 116 118 97 108 109 85 102 85 109 120 106 107 88 92 81 120 87 81 118 101 88 96 115 117 81 106 88 87 103 86 92 94 115 107 93 102 98 91 108 119 120 109 106 95 100 105 86 107 83 81 102 80 102 103 120 89 105 98 104 105 120 118 101 106 104 113 103 103 90 118
245 180 208 206 247 151 155 199 199 203 191 222 151 223 221 202 245 213 197 183 1183 1846 1910 1321 923 1423 2206 2119 1603 1259 1612 2379 2507 1918 1493 1889 2630 2638 2087 1622 2118 2843 2894 2455 1943 2187 3033 3192 2541 2207 2560 3308 3343 2921 2456 2653 3401 3735 3026 2520 2944 3622 3910 3270 2771 3175 3787 4106 3623 3028 3250 3989 4419 3945 3334 3457 4227 4503 4168 3648 3825 4482 4739 4410 3748 3999 4644 5073 4602 4009 4141 4966 5332 4887 4278 4385 5154 5482 5041 4455 4500 4971 5370 4884 4086 4067 4881 5226 4553 3945 3866 4596 4967 4530 3706 3689 4224 4585 4255 3447 3439 4004 4359 4048 3234 3246 3842 4190 3841 3025 2898 3530 3980 3649 2889 2641 3232 3709 3428 2681 2433 3047 3599 3068 2354 2263 2868 3285 2991 2196 2036 2583 3076 2670 1899 1810 2290 2810 2546 1850 1607 1970 2526 2354 1617 1194 1801 2378 2141 1244 956 1632 2013 1950 1179 722 120 118 103 97 95 108 81 118 93 104 83 80 85 89 96 98 105 88 87 115 103 88 87 115 105 85 110 82 84 104 80 115 106 85 87 109 87 120 105 100 85 92 114 108 116 116 81 104 95 95 91 106 103 100 118 91 94 85 99 80 89 114 92 82 98 96 87 103 90 95 109 89 90 90 92 90 119 88 81 111 117 102 95 85 102 93 105 116 87 115 101 118 117 106
224 199 226 171 151 182 238 223 195 168 240 162 151 185 197 188 165 163 237 168 203 1516 1562 1027 608 1080 1724 1781 1223 807 1153 1964 2015 1356 1095 1439 2247 2367 1728 1284 1571 2403 2452 1983 1490 1852 2649 2793 2186 1734 2075 2893 3116 2537 1945 2293 3105 3294 2748 2297 2485 3266 3469 2912 2427 2790 3554 3636 3164 2630 2900 3590 4046 3475 2848 3236 3813 4252 3748 3118 3410 4088 4420 3907 3380 3550 4307 4605 4168 3614 3784 4528 4887 4394 3826 4046 4853 5096 4755 3996 4152 4673 5020 4488 3760 3773 4570 4736 4321 3573 3594 4304 4641 4196 3337 3295 3926 4280 3978 3205 3056 3745 4018 3613 2881 2875 3375 3915 3434 2736 2626 3194 3603 3344 2539 2470 2950 3316 3132 2232 2123 2817 3089 2846 2033 1848 2566 3012 2698 1912 1590 2161 2746 2353 1708 1491 1940 2480 2223 1519 1292 1716 2182 2022 1239 900 1395 1975 1811 1039 746 1286 1737 1607 742 389 1017 106 111 97 116 86 85 85 107 81 110 101 115 84 107 82 82 82 96 108 100 119 83 100 113 84 94 97 118 99 92 88 84 86 99 91 117 87 104 113 82 105 106 96 107 106 86 107 111 96 89 113 92 91 109 96 94 99 119 119 114 116 113 99 93 83 90 101 100 95 89 86 100 105 118 107 89 92 105 84 103 101 87 106 110 101 88 103 93 107 90 82 118 86
233 203 221 238 159 155 200 222 179 243 216 194 161 231 169 207 195 246 164 236 159 175 1036 360 100 603 1150 1312 731 300 772 1533 1619 991 456 889 1732 1767 1152 737 1157 1897 2133 1522 976 1328 2026 2273 1701 1249 1562 2350 2562 1944 1471 1837 2637 2827 2123 1639 2083 2791 3074 2489 1859 2177 3029 3187 2645 2232 2486 3137 3560 2877 2434 2716 3360 3768 3171 2692 2842 3656 3894 3438 2946 3100 3794 4199 3715 3049 3216 4010 4333 4058 3440 3581 4196 4736 4204 3695 3589 4319 4611 4090 3328 3325 4142 4323 3839 3210 3171 3728 4055 3620 2899 2906 3527 3956 3469 2852 2747 3383 3647 3271 2527 2490 3142 3461 3107 2401 2306 2811 3324 2884 2180 1875 2555 3015 2635 1944 1757 2340 2738 2493 1699 1403 2152 2439 2183 1353 1345 1893 2339 2010 1256 954 1567 1997 1739 1080 728 1322 1785 1535 852 502 1145 1677 1313 616 213 751 1340 1045 360 100 562 1048 89 115 94 103 102 88 89 85 113 99 102 81 119 87 119 103 96 119 85 104 99 117 103 91 109 116 93 110 103 96 117 119 118 107 103 83 98 114 114 83 100 108 114 99 85 96 83 89 118 116 89 94 117 98 98 120 83 105 97 90 92 98 98 94 96 100 96 88 90 95 84 88 84 102 82 81 98 92 97 88 112 113 104 114 85 81 93 86 87 84 97 106
236 223 172 248 160 196 186 216 237 243 178 193 224 246 213 177 191 153 193 160 219 150 966 364 100 319 1077 1202 608 100 513 1240 1371 688 399 747 1506 1656 1047 626 990 1720 1819 1336 765 1144 1926 2037 1476 984 1367 2088 2317 1730 1250 1596 2382 2486 2015 1513 1786 2671 2730 2268 1680 2002 2730 3041 2579 1987 2302 3032 3214 2874 2225 2536 3190 3595 3048 2505 2770 3346 3792 3236 2735 2915 3695 4088 3546 2954 3224 3796 4317 3853 3287 3432 4141 4422 4096 3377 3538 4281 4430 3938 3348 3261 4036 4263 3789 3134 3101 3663 4083 3634 2866 2854 3446 3820 3383 2641 2565 3245 3601 3210 2526 2448 2868 3425 2939 2267 2070 2693 3153 2697 1972 1955 2524 2898 2514 1857 1725 2282 2755 2350 1653 1368 2013 2343 2121 1418 1219 1758 2186 1820 1110 1015 1443 1983 1676 846 651 1252 1636 1387 632 478 902 1523 1253 508 129 691 1275 1087 303 100 529 938 777 104 83 93 82 102 114 94 109 101 103 102 119 92 105 104 103 110 105 118 94 89 103 81 118 81 101 84 100 103 83 109 93 120 111 101 82 90 114 115 116 118 81 92 117 105 90 97 97 112 112 96 103 111 112 87 115 91 89 97 104 86 81 103 104 85 97 88 103 119 88 88 92 99 111 118 117 84 86 113 115 91 80 117 101 81 100 95 99 113 83 114
195 177 152 155 153 231 201 197 197 208 224 163 245 156 218 166 189 217 207 212 223 173 206 494 186 539 1439 1454 777 466 767 1627 1674 1022 643 1035 1861 2002 1330 969 1316 1935 2050 1551 1067 1481 2287 2484 1739 1324 1730 2376 2596 2073 1627 1984 2573 2935 2280 1723 2183 2863 3077 2540 2111 2365 3055 3253 2809 2210 2587 3244 3629 3025 2564 2673 3563 3710 3373 2815 2933 3727 4017 3568 2935 3248 4002 4272 3911 3252 3466 4123 4461 3978 3471 3643 4328 4677 4301 3751 3935 4462 4933 4376 3705 3607 4228 4622 4210 3490 3343 4133 4464 3966 3197 3234 3783 4147 3691 3019 3008 3641 3882 3616 2799 2757 3247 3792 3232 2659 2561 3099 3402 3089 2455 2177 2765 3296 2878 2107 1897 2514 2926 2598 1975 1659 2252 2776 2402 1634 1446 2025 2476 2334 1441 1331 1716 2321 2128 1372 1056 1600 2050 1899 1116 718 1234 1892 1695 915 529 1151 1637 1355 642 224 837 1445 1091 81 94 111 117 85 96 101 110 113 92 81 113 81 103 118 118 107 95 112 80 87 89 112 116 89 90 84 112 90 108 80 117 103 113 98 92 91 120 89 110 86 89 98 94 118 99 107 117 92 84 88 110 107 91 110 102 89 98 97 99 112 81 83 114 94 96 81 115 90 95 82 108 107 85 89 105 103 119 107 104 109 110 119 100 91 85 107 115 112 104 117
193 226 226 188 191 235 206 175 190 209 214 189 183 231 207 217 205 165 213 179 155 203 237 219 676 1049 1811 1880 1313 875 1360 1906 2086 1524 1069 1475 2192 2414 1745 1256 1742 2480 2545 2026 1608 1868 2745 2860 2190 1882 2190 2889 3093 2414 2109 2406 3176 3339 2801 2324 2616 3234 3504 3080 2524 2867 3509 3682 3187 2805 3043 3700 3967 3448 2949 3134 4026 4225 3791 3207 3451 4173 4548 3937 3445 3655 4296 4642 4319 3596 3811 4673 4964 4508 3851 4099 4717 5173 4783 4233 4370 5012 5331 4892 4174 4215 4743 5067 4598 4018 4038 4508 4849 4426 3653 3774 4384 4651 4161 3433 3408 4075 4444 4109 3231 3312 3723 4211 3809 3077 2920 3569 3943 3571 2809 2659 3360 3693 3328 2605 2511 3052 3451 3223 2481 2349 2794 3323 2898 2324 2028 2605 3000 2696 1970 1807 2396 2874 2529 1789 1573 2157 2636 2419 1534 1314 1886 2452 2116 1458 1100 1558 2213 1977 1219 736 1345 1897 1636 926 89 114 80 100 90 89 111 111 109 113 83 118 88 98 112 109 86 116 88 80 111 91 109 114 118 105 87 118 106 83 87 109 112 89 109 113 103 106 82 80 87 107 99 106 87 112 89 110 112 98 118 88 105 101 107 114 88 111 86 99 80 85 91 86 116 116 105 105 120 91 93 88 111 114 83 109 91 120 119 84 93 115 108 110 102 108 94 115 90 97
250 185 191 170 162 156 157 225 231 184 205 178 245 239 207 246 174 236 231 216 172 159 216 161 234 1185 1960 2097 1324 915 1454 2201 2348 1699 1281 1732 2402 2595 1910 1521 1789 2584 2814 2168 1683 2068 2897 2912 2317 1981 2384 3120 3305 2610 2247 2492 3192 3388 2942 2424 2653 3471 3749 3131 2568 2978 3623 3858 3396 2978 3061 3935 4094 3740 3023 3338 4142 4449 3968 3299 3497 4286 4734 4068 3548 3777 4516 4855 4390 3831 4070 4769 5156 4633 4032 4190 4867 5283 4978 4228 4421 5203 5484 5140 4509 4446 5060 5482 4952 4180 4110 4760 5102 4774 3899 3855 4610 4994 4462 3833 3774 4275 4751 4202 3470 3506 4044 4538 3963 3249 3129 3904 4271 3764 3102 3073 3478 3922 3686 2884 2661 3346 3793 3340 2772 2538 3034 3495 3127 2559 2214 2750 3298 2946 2289 2062 2517 3059 2752 2065 1880 2406 2864 2663 1817 1487 2099 2665 2387 1523 1209 1799 2391 2078 1373 1090 1500 2058 1863 1205 913 118 102 85 105 97 99 94 115 93 91 100 94 94 102 107 115 87 109 82 117 85 98 94 104 80 119 93 113 115 119 87 113 104 114 112 110 96 115 88 106 82 83 98 84 98 80 104 118 82 119 99 90 84 112 104 118 102 98 89 97 96 96 86 85 81 89 85 120 106 107 104 118 89 95 118 87 95 120 118 116 110 104 112 90 113 118 92 80 84
232 234 199 162 227 204 180 220 168 245 167 211 167 171 225 177 232 201 170 213 224 190 238 238 216 215 1601 1638 1038 710 1219 1789 1973 1413 1032 1400 2142 2157 1616 1164 1471 2325 2371 1933 1326 1717 2568 2693 2069 1599 1946 2677 2937 2262 1927 2137 2984 3111 2523 2057 2397 3124 3414 2953 2449 2591 3298 3698 3050 2593 2896 3658 3913 3272 2757 3020 3775 4077 3590 3083 3368 3921 4398 3822 3289 3487 4304 4588 4016 3627 3668 4493 4716 4273 3730 4017 4573 5094 4559 4096 4069 4893 5308 4915 4192 4236 4921 5206 4671 4069 3914 4637 5009 4426 3740 3776 4281 4642 4303 3475 3420 4065 4503 4097 3304 3276 3812 4249 3782 3107 3069 3560 3991 3697 2909 2751 3272 3734 3472 2702 2556 3138 3541 3176 2506 2210 2836 3407 2889 2195 2095 2637 3078 2674 2072 1781 2237 2928 2581 1809 1604 2169 2613 2393 1608 1273 1855 2425 2172 1377 1158 1666 2129 1816 1139 771 1301 1938 1670 1000 641 1166 80 109 119 87 106 97 99 89 87 120 108 91 80 104 110 87 105 91 105 112 108 84 104 100 99 107 111 99 104 94 103 91 114 109 96 83 112 86 83 115 120 118 88 93 109 86 101 83 88 86 116 91 89 80 80 99 82 97 90 92 101 119 87 94 117 82 110 118 111 103 99 106 99 97 91 116 107 100 111 92 95 88 99 90 89 94 95 96
160 205 208 217 220 197 160 188 191 183 172 158 226 233 232 232 167 246 172 225 224 242 217 194 249 159 198 1191 607 114 664 1250 1462 755 327 863 1526 1653 1187 731 945 1751 1943 1378 964 1186 1999 2129 1591 1204 1372 2187 2382 1847 1353 1702 2516 2737 2053 1608 1903 2679 2853 2264 1890 2122 2788 3118 2626 2117 2397 3132 3402 2925 2243 2511 3238 3560 3030 2496 2833 3583 3758 3441 2747 3001 3710 3958 3643 3107 3196 3934 4217 3803 3298 3500 4075 4571 4003 3439 3716 4421 4689 4409 3762 3770 4392 4752 4242 3442 3523 4187 4527 3927 3226 3192 3897 4212 3858 3006 2969 3565 4026 3662 2828 2711 3335 3767 3376 2725 2519 3200 3648 3177 2346 2234 2881 3385 2898 2257 2060 2664 3126 2726 2020 1914 2485 2914 2577 1704 1550 2144 2607 2322 1663 1427 1988 2427 2144 1278 1103 1609 2160 1809 1096 833 1466 1996 1720 849 624 1242 1666 1373 770 320 948 1482 1232 418 168 704 1221 113 108 94 99 91 83 112 92 105 114 80 81 115 88 117 93 95 108 102 101 108 81 81 95 111 105 109 85 93 114 116 91 89 80 100 100 91 82 87 115 88 88 103 98 104 107 97 84 103 107 97 93 89 84 99 120 107 100 118 103 92 101 86 97 113 99 86 85 113 114 119 82 83 110 98 118 100 85 93 100 114 114 104 103 110 88 107
153 169 174 208 158 228 180 235 203 249 231 245 180 224 250 158 163 177 163 191 229 237 169 228 173 167 196 847 393 100 327 968 1212 607 188 579 1168 1452 833 322 659 1529 1673 1037 581 994 1772 1895 1216 736 1091 1933 2036 1531 985 1310 2057 2396 1735 1244 1561 2333 2523 2143 1591 1733 2568 2892 2366 1723 2014 2793 2980 2598 2084 2159 2943 3264 2729 2252 2551 3225 3625 3044 2511 2681 3509 3720 3232 2682 2905 3697 3959 3563 2878 3150 3908 4318 3770 3248 3396 4114 4427 4047 3354 3577 4258 4579 3943 3225 3224 3910 4301 3902 3108 2976 3600 3978 3565 2952 2742 3448 3832 3448 2598 2629 3105 3537 3088 2530 2366 2878 3305 3056 2175 2071 2768 3206 2680 1985 1908 2391 2902 2487 1738 1552 2159 2587 2415 1488 1274 2018 2395 2013 1433 1205 1759 2091 1819 1117 915 1444 1944 1662 995 732 1161 1755 1561 625 457 901 1485 1218 520 128 745 1297 1004 338 100 371 960 749 100 92 102 100 87 85 114 101 85 112 89 98 87 81 100 110 100 107 80 111 114 108 99 107 120 104 117 89 86 103 92 103 99 91 111 87 120 93 96 96 85 119 110 106 107 104 113 99 111 84 88 117 86 116 88 110 100 107 93 109 93 113 97 113 110 101 92 96 100 83 115 90 87 94 116 120 107 88 103 112 89 102 100 80 89 120
246 159 220 161 206 242 159 173 218 249 182 172 241 182 231 250 210 248 180 177 166 214 152 238 203 170 150 223 487 100 578 1248 1394 799 393 735 1503 1559 897 610 876 1721 1857 1164 858 1043 1838 2001 1359 914 1336 2031 2203 1709 1156 1559 2223 2550 1913 1363 1824 2414 2656 2152 1675 2010 2764 2970 2404 1996 2213 2906 3220 2788 2255 2438 3207 3476 2906 2420 2535 3441 3678 3258 2558 2797 3644 3876 3398 2789 2975 3794 4120 3739 3201 3312 4086 4319 3938 3455 3522 4296 4584 4130 3560 3775 4360 4699 4244 3600 3539 4256 4549 4039 3394 3377 3890 4226 3880 3033 3001 3654 4099 3564 2937 2906 3426 3900 3354 2766 2605 3072 3690 3225 2506 2334 2957 3427 2988 2272 2061 2741 3125 2818 2107 1755 2450 2848 2632 1842 1569 2239 2558 2319 1672 1308 1985 2427 2185 1452 1165 1730 2225 1954 1225 1000 1475 1921 1619 1059 708 1251 1627 1413 767 335 865 1401 1329 570 113 624 1151 1042 103 95 84 111 106 91 92 96 110 82 100 83 87 99 95 100 80 113 88 106 103 105 90 118 80 85 111 118 106 116 88 103 111 90 81 114 103 89 93 91 120 114 103 120 103 120 104 89 84 100 112 103 112 83 94 97 99 95 95 90 115 101 107 108 118 119 95 106 82 88 112 92 105 118 94 106 96 108 111 115 83 91 107 103 94 111
151 223 229 205 226 159 231 172 203 160 232 197 212 192 215 170 240 169 197 202 183 164 215 185 212 214 162 180 225 502 970 1732 1824 1186 682 1095 1833 1979 1394 907 1435 2076 2161 1578 1263 1613 2375 2418 1805 1335 1682 2590 2790 2190 1600 2055 2773 2994 2406 1962 2237 3013 3179 2680 2214 2425 3151 3372 2985 2305 2648 3422 3664 3079 2678 2886 3644 3834 3444 2772 2999 3863 4044 3643 3058 3198 3981 4325 3919 3346 3568 4291 4623 4201 3575 3787 4490 4844 4481 3765 3988 4697 5155 4599 4086 4062 4797 5306 4720 4042 4077 4687 5016 4580 3807 3863 4377 4829 4345 3663 3473 4212 4512 4047 3360 3390 3920 4277 3973 3172 3075 3691 4179 3746 2966 2802 3410 3781 3473 2700 2594 3170 3621 3254 2497 2357 2877 3405 3121 2291 2102 2692 3212 2938 2093 1905 2487 2950 2593 1842 1671 2272 2692 2341 1654 1361 1883 2418 2268 1515 1085 1670 2211 2039 1328 924 1396 2013 1800 1140 755 1210 1655 1567 789 84 120 91 96 102 101 89 112 87 95 106 118 92 94 120 105 83 109 89 92 117 85 82 99 96 94 109 81 86 84 118 82 116 86 83 85 80 108 95 99 95 95 116 116 106 106 89 86 83 103 90 108 102 98 82 95 93 83 104 111 82 92 117 111 84 112 84 94 91 98 102 101 99 84 81 85 86 103 90 90 110 86 96 89 81
237 233 171 170 152 200 191 189 198 233 191 245 250 200 240 155 154 225 151 215 168 157 246 230 182 235 240 150 246 247 1258 1845 2058 1332 1051 1412 2088 2167 1726 1146 1549 2399 2470 1906 1530 1772 2626 2648 2158 1803 1955 2752 2988 2509 1850 2277 3099 3290 2734 2257 2399 3245 3406 2995 2379 2598 3388 3675 3123 2678 2994 3596 3897 3399 2886 3178 3825 4126 3725 3034 3412 4027 4350 3920 3405 3616 4374 4718 4130 3593 3837 4527 4778 4481 3812 4040 4789 5038 4770 4097 4151 4978 5397 4930 4224 4456 5187 5501 5055 4461 4477 4948 5419 4962 4158 4123 4763 5244 4633 3981 3992 4512 4962 4428 3685 3643 4211 4616 4232 3509 3350 4112 4373 4036 3388 3099 3807 4137 3906 3211 3053 3619 4041 3598 2995 2650 3345 3845 3390 2670 2451 3085 3616 3133 2442 2302 2694 3266 3072 2163 2083 2515 3115 2881 2116 1829 2274 2849 2557 1865 1431 1951 2655 2318 1657 1391 1800 2309 2189 1483 1106 1516 2060 1891 1221 734 82 112 88 110 81 109 82 94 112 108 102 102 116 108 113 93 97 106 85 96 88 110 101 102 92 98 120 108 91 119 107 90 88 89 80 96 113 89 88 84 99 97 119 104 120 120 87 102 93 112 81 97 91 97 109 111 111 105 94 90 108 83 87 97 117 92 84 92 110 98 85 111 87 105 92 99 106 84 105 113 92 84 101 108
239 203 182 248 243 204 200 169 160 153 232 153 155 211 175 232 201 244 154 228 155 241 205 207 228 195 190 192 161 157 150 1693 1943 1216 887 1317 2048 2052 1493 1024 1497 2194 2302 1662 1318 1684 2485 2523 2048 1552 1802 2677 2877 2301 1849 2011 2766 3091 2591 2000 2309 3054 3365 2762 2188 2470 3304 3601 2935 2481 2710 3557 3800 3275 2781 2982 3669 4085 3494 3037 3096 3841 4237 3661 3195 3307 4186 4557 4080 3508 3538 4244 4614 4187 3662 3824 4520 4894 4487 3924 3964 4847 5059 4751 4150 4320 4892 5360 5081 4346 4313 5012 5266 4853 4034 4150 4591 5078 4646 3829 3842 4518 4867 4460 3617 3577 4256 4590 4080 3472 3395 4005 4274 3911 3225 3047 3737 4066 3658 2978 2779 3523 3808 3593 2730 2530 3119 3601 3243 2578 2442 2955 3514 3201 2454 2165 2713 3240 2920 2142 1989 2484 2983 2748 1858 1712 2115 2743 2409 1630 1361 2024 2394 2262 1502 1109 1581 2197 2130 1287 874 1376 1954 1846 1082 674 1178 110 112 106 111 97 103 100 105 108 110 101 110 98 82 111 84 117 82 97 95 120 96 100 81 106 102 103 80 117 113 109 106 112 114 98 111 110 98 87 91 90 99 99 110 112 91 81 84 90 109 108 95 83 118 97 92 106 112 102 108 95 83 99 115 89 116 108 98 85 81 87 110 96 108 99 106 114 119 113 88 90 109 104
243 208 182 237 176 221 192 191 158 248 204 231 160 221 171 228 245 200 154 192 250 152 239 193 163 244 225 174 207 245 230 204 1412 830 234 824 1508 1522 1025 587 976 1606 1793 1255 705 1074 1881 2133 1591 1045 1426 2029 2288 1804 1292 1522 2411 2535 1943 1502 1774 2561 2854 2310 1825 1913 2812 3052 2430 1987 2243 2949 3289 2703 2196 2517 3149 3492 3024 2412 2562 3363 3753 3234 2723 2785 3691 3883 3407 3020 3023 3793 4150 3699 3205 3357 4009 4510 4031 3488 3595 4318 4572 4270 3701 3805 4393 4839 4436 3871 3937 4449 4830 4345 3633 3735 4352 4729 4189 3497 3392 4011 4355 3975 3200 3130 3845 4080 3812 3050 2952 3452 3930 3580 2770 2588 3304 3643 3409 2631 2386 2909 3446 3136 2417 2103 2756 3297 2992 2242 1940 2466 2974 2633 1925 1789 2200 2704 2493 1771 1550 2076 2550 2243 1549 1208 1675 2275 1989 1244 1017 1466 2136 1893 1093 779 1218 1801 1629 865 622 961 1498 1364 715 225 662 1362 101 82 109 104 82 108 84 104 120 84 88 115 103 101 82 105 80 95 116 85 105 91 86 99 103 116 118 96 113 98 119 101 90 91 91 91 120 104 87 86 83 90 109 110 91 120 106 92 108 104 120 91 107 109 118 106 90 85 118 90 88 80 116 106 102 92 83 105 102 100 110 89 106 91 102 98 117 117 95 102 111 81
187 166 232 186 177 246 182 174 205 172 206 202 193 244 177 210 154 211 172 177 161 199 175 150 216 249 179 211 186 184 184 154 966 276 100 356 973 1151 631 201 581 1287 1372 824 488 856 1443 1765 1188 541 1007 1783 1844 1355 830 1183 2008 2161 1639 1076 1341 2241 2297 1814 1291 1588 2317 2624 2098 1479 1918 2603 2916 2264 1835 2052 2774 3185 2542 1985 2293 3057 3365 2926 2197 2452 3301 3580 3117 2496 2700 3496 3868 3412 2857 2961 3672 4088 3637 2959 3023 3917 4207 3895 3282 3374 4051 4450 4187 3558 3458 4115 4473 3998 3393 3379 3923 4269 3920 3185 3110 3693 4086 3605 2925 2875 3351 3819 3390 2788 2501 3267 3698 3211 2388 2332 3023 3350 2968 2359 2043 2623 3219 2719 2077 1811 2465 2933 2494 1828 1702 2213 2641 2411 1607 1457 1838 2422 2185 1349 1151 1686 2164 1881 1220 1015 1497 2002 1639 933 686 1187 1641 1461 782 410 989 1532 1384 507 212 772 1229 1137 336 100 510 944 852 94 111 119 108 92 83 116 120 101 116 80 99 80 90 102 95 113 94 85 118 83 89 84 111 87 80 81 85 87 116 83 101 83 88 95 83 109 116 85 97 89 120 91 87 114 96 97 119 102 103 92 84 93 116 80 95 120 101 119 91 81 91 85 86 98 80 94 82 92 120 94 88 108 114 102 112 91 97 81 107 90
215 211 164 214 166 173 173 208 219 231 165 199 243 184 228 158 243 233 188 159 180 202 181 187 163 198 204 203 200 194 178 162 204 413 100 450 1028 1236 716 100 548 1389 1455 893 350 731 1436 1746 1186 615 1093 1669 1895 1313 882 1302 2045 2143 1625 1189 1425 2160 2368 1960 1453 1592 2485 2678 2099 1703 1803 2604 2802 2363 1905 1975 2919 3037 2683 1992 2312 3124 3288 2958 2218 2561 3153 3552 3063 2467 2810 3460 3842 3421 2736 2980 3590 4113 3642 3026 3154 3950 4253 3959 3176 3355 4107 4470 4175 3588 3633 4393 4643 4125 3452 3427 4060 4325 4016 3259 3176 3822 4185 3820 3044 2890 3540 3926 3557 2868 2701 3389 3789 3324 2564 2479 3035 3490 3179 2452 2293 2843 3241 2962 2172 2013 2634 3086 2693 1918 1828 2196 2692 2432 1713 1579 2025 2596 2188 1516 1239 1824 2231 1952 1215 1011 1642 2000 1838 1142 724 1274 1900 1652 862 645 1094 1652 1385 688 411 876 1400 1185 488 100 580 1182 1025 96 86 105 104 94 109 95 117 96 88 104 104 111 91 109 81 110 93 82 82 83 94 120 111 83 86 95 112 118 106 81 112 88 95 97 83 102 92 100 81 119 111 111 112 94 81 113 93 105 102 80 80 84 81 110 81 89 92 83 93 111 117 113 114 119 80 97 93 113 109 107 115 85 102 90 117 101 90 85 111 112
243 224 213 187 221 241 155 182 170 209 184 224 235 239 226 192 183 189 187 216 163 183 163 214 222 222 181 212 231 162 172 194 226 248 353 804 1429 1597 940 669 999 1797 1852 1299 766 1158 1873 2058 1500 1136 1349 2243 2306 1748 1265 1686 2356 2581 2094 1535 1916 2528 2880 2231 1700 2134 2807 2963 2533 1944 2310 3049 3255 2787 2143 2551 3233 3543 3020 2423 2707 3501 3773 3346 2641 2821 3666 4002 3618 2946 3141 3786 4296 3687 3199 3339 4118 4405 4043 3481 3511 4375 4766 4284 3654 3847 4442 4986 4449 3941 4079 4714 5112 4693 3870 3960 4577 4978 4401 3724 3688 4285 4754 4209 3527 3320 3923 4351 3945 3245 3223 3845 4255 3826 3080 2850 3545 3868 3626 2909 2663 3272 3746 3369 2723 2386 3051 3477 3101 2447 2176 2847 3187 2940 2189 1921 2567 2966 2841 1991 1829 2330 2865 2613 1682 1584 2050 2485 2316 1591 1347 1742 2230 2001 1382 1060 1483 2011 1896 1125 719 1246 1782 1597 1000 647 1075 1698 1380 784 102 112 94 87 81 88 101 116 80 97 113 116 81 102 116 111 102 87 85 99 120 120 113 102 119 97 113 88 101 98 99 98 119 80 84 103 119 112 85 93 106 84 110 83 84 118 102 106 92 92 118 120 89 91 88 111 82 112 93 101 115 105 89 102 86 106 98 96 98 101 82 92 113 111 89 110 89 80 87 93
179 242 203 220 167 236 175 198 154 189 223 183 179 193 246 243 169 160 238 242 207 167 218 170 194 156 181 247 193 207 152 156 234 171 174 1036 1825 1979 1411 860 1399 2162 2168 1710 1205 1636 2254 2517 1878 1417 1679 2586 2735 2140 1710 2019 2764 3018 2412 1853 2212 3032 3109 2613 2110 2383 3104 3409 2789 2301 2674 3415 3719 3209 2638 2796 3488 3800 3482 2925 3077 3897 4148 3547 3165 3270 4002 4277 3960 3245 3556 4187 4616 4189 3480 3781 4493 4895 4400 3884 3966 4690 5121 4550 3983 4150 4889 5373 4891 4371 4428 5052 5610 5031 4355 4338 4997 5310 4864 4162 4101 4798 5092 4754 3930 3779 4496 4879 4461 3802 3619 4172 4611 4215 3454 3327 3915 4466 4058 3276 3137 3754 4245 3848 3097 2861 3462 3925 3658 2907 2640 3225 3682 3470 2664 2418 2933 3388 3146 2376 2160 2720 3189 2886 2144 1985 2378 3004 2697 1949 1628 2143 2778 2519 1789 1560 1954 2582 2297 1558 1319 1781 2265 2094 1440 1023 1477 2107 1923 1175 852 94 109 103 87 117 91 80 114 105 103 82 97 102 88 98 119 84 111 120 81 118 119 106 91 116 91 97 82 95 97 102 80 92 91 103 114 117 80 81 117 82 110 109 84 80 118 119 104 99 108 112 85 88 116 95 97 88 93 82 114 105 101 112 118 87 82 117 115 89 115 116 91 118 82 103 93 82 117 119
189 221 166 248 159 192 223 174 218 225 214 181 246 222 239 213 154 167 162 201 218 224 215 215 242 159 182 189 162 172 198 227 185 155 158 198 1816 1940 1257 916 1351 2046 2162 1629 1051 1534 2313 2496 1784 1419 1727 2370 2604 2001 1549 1929 2671 2795 2343 1767 2142 2902 3200 2564 2068 2446 3190 3350 2763 2289 2583 3360 3690 3038 2527 2877 3483 3910 3385 2709 3024 3810 4007 3568 3114 3132 3903 4305 3802 3304 3355 4124 4566 4196 3599 3756 4325 4856 4293 3751 3883 4703 5075 4607 3929 4076 4739 5216 4898 4198 4246 4990 5418 5160 4493 4300 4989 5332 4932 4168 4220 4724 5093 4775 3965 3865 4492 4815 4435 3809 3685 4152 4725 4208 3632 3381 4071 4355 4085 3276 3214 3819 4237 3840 3145 2994 3558 4046 3558 2826 2736 3222 3827 3413 2758 2535 3049 3414 3249 2567 2151 2653 3185 3015 2173 1982 2571 3105 2760 2095 1815 2214 2714 2627 1750 1435 1983 2553 2297 1658 1296 1777 2260 2187 1353 997 1403 1978 1905 1111 878 1340 108 91 94 87 120 82 107 89 114 89 99 96 108 97 94 90 120 89 84 103 112 112 109 111 105 115 89 80 107 118 98 119 99 106 92 80 110 102 114 91 94 89 87 99 88 84 120 112 91 117 107 82 108 94 86 113 99 104 87 113 85 100 80 103 97 117 108 80 103 107 82 83 96 109 92 95 118 89
171 152 194 207 249 228 204 168 187 244 240 246 233 217 199 151 164 250 228 238 190 242 240 220 165 186 203 244 182 160 205 168 190 235 181 204 180 1567 875 502 761 1552 1792 1077 726 1092 1756 1927 1480 1009 1249 2059 2261 1723 1258 1468 2150 2530 1974 1443 1670 2453 2630 2150 1567 1975 2623 2960 2453 1801 2204 2958 3262 2672 2136 2291 3063 3404 2989 2404 2664 3293 3564 3123 2604 2787 3480 3920 3353 2770 2938 3651 4097 3746 2998 3309 4048 4254 3965 3243 3449 4071 4633 4206 3544 3608 4293 4722 4469 3698 3902 4501 4943 4614 3949 4048 4712 5055 4456 3857 3775 4425 4709 4415 3713 3613 4079 4504 4226 3317 3290 3929 4309 3917 3266 3114 3575 4057 3782 2964 2835 3462 3934 3491 2720 2512 3172 3618 3323 2432 2355 2947 3461 3001 2346 2085 2608 3104 2866 2115 1820 2465 2802 2684 1879 1683 2152 2683 2485 1684 1415 1927 2498 2154 1400 1183 1725 2232 1954 1230 831 1388 1974 1738 1005 759 1175 1730 1588 864 466 959 1416 103 91 116 113 102 108 80 97 100 90 82 104 120 103 95 112 98 85 93 101 95 96 87 93 112 106 102 118 112 117 91 82 110 110 109 80 102 100 105 120 99 86 99 90 113 88 106 88 110 101 112 92 115 81 116 94 114 115 92 94 92 105 95 108 99 85 102 91 115 102 83 119 97 91 93 119 111
221 150 161 161 152 218 185 151 231 221 160 245 231 234 152 249 153 180 215 172 154 192 175 165 232 194 221 204 159 244 240 233 156 209 208 240 228 1042 378 100 361 1203 1317 612 216 575 1239 1545 833 406 758 1565 1824 1197 606 967 1669 2024 1341 939 1292 2008 2174 1595 1214 1367 2098 2407 1942 1488 1671 2381 2702 2258 1550 1817 2592 2888 2494 1941 2030 2861 3250 2730 2143 2298 2982 3426 2927 2376 2524 3300 3709 3223 2696 2723 3487 3782 3431 2931 2884 3728 4101 3599 3025 3149 3963 4276 4011 3283 3293 4083 4612 4225 3652 3665 4282 4542 4241 3530 3342 4026 4385 3874 3168 3219 3814 4148 3630 3016 2792 3541 3826 3454 2862 2650 3138 3645 3234 2664 2417 2933 3398 3075 2350 2115 2638 3176 2925 2100 1935 2484 2917 2577 1860 1604 2317 2695 2372 1640 1361 2026 2531 2188 1546 1141 1797 2229 1929 1334 981 1478 1986 1904 1126 725 1142 1801 1543 863 500 1002 1622 1323 556 285 805 1342 1191 421 100 387 992 948 116 101 104 115 84 108 111 100 92 94 116 98 120 82 115 111 116 82 104 101 103 88 102 102 85 113 92 118 86 103 109 117 90 87 118 89 112 118 90 114 84 112 102 112 91 94 86 98 98 95 106 93 89 105 95 94 96 93 87 80 84 109 92 96 91 80 81 111 113 106 120 92 95 91 114 104
155 200 188 162 238 221 196 224 191 183 172 217 200 190 151 208 233 230 212 190 216 175 174 150 150 250 213 181 230 237 185 214 246 183 166 189 246 153 254 100 271 1031 1178 606 109 453 1235 1373 882 275 727 1481 1543 1146 595 866 1593 1837 1368 929 1231 1895 2133 1586 1116 1362 2085 2286 1764 1278 1642 2258 2538 2117 1548 1863 2590 2902 2289 1851 1991 2819 3039 2679 2013 2280 2855 3223 2745 2283 2497 3075 3476 3127 2402 2589 3457 3720 3381 2672 2791 3663 3910 3555 2895 3170 3816 4166 3885 3146 3387 3929 4381 4085 3536 3595 4283 4633 4081 3313 3445 3982 4318 3876 3247 3035 3797 4145 3683 3000 2849 3452 3831 3593 2748 2706 3294 3610 3274 2640 2367 2933 3468 2975 2274 2136 2766 3243 2947 2199 1911 2407 2848 2694 1844 1631 2242 2762 2482 1753 1348 1887 2468 2210 1481 1148 1786 2225 2038 1178 909 1365 1957 1768 994 810 1222 1804 1661 879 409 1007 1488 1370 679 265 772 1244 1159 456 100 525 1100 931 81 109 116 83 97 94 97 81 99 88 86 87 80 103 111 86 104 115 101 109 92 101 88 100 104 102 105 119 110 103 106 93 113 118 109 85 94 115 106 113 102 86 116 81 112 113 106 117 102 106 93 95 95 120 83 92 88 110 90 99 90 89 87 83 85 111 86 94 103 102 103 90 92 112 116 80
245 155 222 228 213 208 163 173 161 216 208 172 172 201 247 175 186 168 158 175 205 155 237 207 218 247 201 183 177 232 182 211 245 175 217 167 205 185 194 263 604 1376 1404 842 368 885 1522 1730 1141 717 987 1763 2006 1438 904 1312 1920 2238 1634 1120 1519 2114 2490 1984 1435 1728 2404 2645 2190 1618 1975 2699 2838 2360 1870 2079 2933 3057 2563 2139 2265 2982 3462 2847 2288 2590 3352 3718 3123 2532 2656 3418 3926 3330 2762 3060 3733 4169 3658 3123 3140 3950 4374 3958 3307 3420 4149 4649 4208 3536 3617 4246 4862 4384 3687 3826 4626 5018 4478 3714 3683 4283 4698 4337 3696 3538 4093 4509 4014 3383 3309 3956 4347 3860 3203 3078 3551 4053 3624 2993 2758 3394 3807 3506 2640 2469 3156 3525 3350 2487 2272 2899 3402 3089 2294 1994 2590 3188 2854 2102 1892 2284 2842 2693 1849 1692 2097 2731 2479 1599 1428 1778 2419 2181 1464 1134 1675 2194 2018 1238 826 1422 1892 1828 1111 609 1102 1656 1468 722 373 959 1423 1248 523 103 92 85 113 87 109 83 102 112 85 110 114 109 113 117 109 82 100 106 116 94 119 115 103 95 97 102 99 104 99 87 113 112 90 113 103 117 86 113 101 85 115 93 104 108 102 87 96 106 112 90 114 91 109 112 94 87 94 89 116 96 111 96 113 106 89 91 100 81 95 100 96 80 109 115
203 244 193 167 233 178 154 165 159 219 239 182 178 154 175 167 224 199 228 232 187 169 212 188 154 175 190 182 174 205 211 248 225 168 226 155 204 177 177 194 1117 1858 1833 1272 847 1238 2060 2047 1674 1158 1435 2162 2420 1884 1383 1766 2407 2569 2032 1531 1928 2592 2879 2355 1840 2114 2770 3040 2593 2147 2363 2992 3391 2897 2318 2425 3241 3601 3065 2527 2686 3413 3724 3412 2792 2900 3719 4015 3529 2920 3182 3978 4260 3734 3143 3306 4098 4494 4076 3509 3570 4320 4717 4419 3658 3830 4448 5041 4626 3990 4014 4727 5191 4745 4183 4265 5038 5376 5072 4226 4233 4803 5235 4726 4017 3915 4544 5093 4594 3974 3738 4321 4754 4493 3699 3611 4167 4562 4176 3434 3349 3760 4260 4067 3238 3016 3667 4073 3795 3062 2819 3455 3926 3550 2737 2629 3145 3519 3372 2631 2390 2889 3312 3031 2293 2157 2640 3094 2873 2183 1868 2350 2859 2762 1869 1709 2061 2699 2527 1779 1309 1893 2518 2327 1517 1252 1533 2217 2122 1315 975 1267 1913 1744 1114 605 83 106 95 92 99 93 111 86 116 82 98 114 112 94 80 112 111 94 107 85 99 113 119 83 96 115 114 95 106 90 98 106 111 88 113 84 109 106 114 110 92 92 120 83 98 88 88 90 120 115 119 84 85 108 106 89 85 102 109 86 98 99 120 81 107 116 94 104 88 112 109 117 108 100
229 186 220 194 179 179 220 215 176 228 217 197 161 208 244 234 218 152 235 208 176 245 181 192 196 156 223 247 151 182 173 240 234 156 190 184 236 247 155 172 239 1935 1930 1404 893 1428 1976 2251 1672 1276 1497 2208 2443 1970 1355 1858 2480 2801 2117 1679 1932 2688 2883 2384 1975 2138 3001 3253 2644 2238 2385 3226 3383 2884 2453 2686 3451 3672 3102 2550 2888 3655 3870 3420 2860 3134 3812 4115 3749 3168 3284 3910 4376 3818 3296 3378 4161 4658 4202 3659 3620 4408 4764 4419 3806 3863 4669 5058 4761 4135 4149 4918 5267 4999 4214 4347 5115 5559 5178 4488 4400 4993 5477 5017 4258 4133 4726 5199 4852 4083 3864 4613 5041 4541 3766 3668 4322 4688 4448 3648 3439 4111 4408 4087 3381 3154 3715 4324 3848 3158 2931 3464 4026 3618 3043 2743 3188 3741 3433 2813 2578 2952 3573 3243 2606 2262 2792 3408 2980 2322 2050 2454 3100 2807 2132 1717 2302 2830 2598 1814 1638 2081 2655 2334 1646 1334 1785 2310 2240 1459 1023 1453 2114 1988 1273 854 1181 106 115 88 112 110 89 98 99 80 86 86 92 92 111 81 87 86 92 82 95 84 109 117 80 105 118 89 91 100 89 117 106 80 110 82 101 90 106 81 110 113 97 117 119 116 80 115 103 108 98 112 83 101 82 102 115 117 104 84 84 108 97 97 93 99 97 86 86 110 105 81 120 114
172 186 210 249 174 153 167 241 185 185 194 163 250 185 187 155 231 229 191 182 187 169 179 174 200 194 229 180 162 184 233 174 194 229 187 157 181 188 233 248 210 194 1737 1129 680 1040 1812 1929 1314 859 1203 1929 2090 1589 980 1466 2194 2446 1857 1349 1660 2382 2502 2065 1500 1799 2509 2865 2310 1851 2067 2698 2987 2645 2045 2313 3079 3276 2874 2177 2461 3317 3461 2971 2422 2775 3476 3822 3363 2717 2891 3638 4078 3654 3027 3113 3938 4249 3853 3203 3429 4032 4377 4005 3361 3463 4366 4668 4220 3762 3726 4446 4957 4576 4024 3974 4788 5145 4850 4170 4132 4835 5097 4617 4061 3986 4447 4941 4402 3848 3579 4235 4645 4222 3472 3380 3938 4499 4167 3304 3122 3770 4194 3760 3194 2952 3399 3913 3634 2990 2662 3241 3732 3334 2618 2546 2966 3573 3161 2371 2266 2840 3256 3070 2189 1888 2501 3001 2828 2129 1648 2319 2753 2650 1767 1580 1999 2609 2392 1560 1295 1764 2357 2131 1351 1068 1476 2076 1935 1087 786 1188 1914 1754 992 591 918 1588 106 105 120 114 98 115 100 100 83 96 99 102 82 90 104 111 119 84 95 120 113 118 93 109 80 95 89 92 116 94 85 111 95 120 99 102 108 89 119 107 120 81 103 110 96 86 87 91 112 115 97 120 111 85 84 106 85 117 111 85 110 83 115 92 111 120 84 101 93 108 102 89
250 249 192 242 167 218 155 241 151 187 153 245 157 170 250 159 231 150 209 215 242 153 183 203 219 163 153 243 159 192 162 246 209 162 186 240 174 192 163 174 155 248 1215 546 159 545 1191 1383 709 411 752 1334 1662 1134 478 859 1706 1840 1330 826 1019 1890 2040 1577 1062 1267 2108 2345 1769 1235 1490 2362 2582 2004 1500 1828 2533 2837 2200 1811 2017 2736 2930 2596 2029 2268 2821 3293 2772 2194 2380 3232 3475 3141 2480 2662 3375 3631 3336 2659 2742 3591 3957 3474 3023 2983 3764 4248 3736 3206 3214 4069 4494 4139 3470 3455 4146 4666 4398 3688 3691 4317 4793 4211 3536 3375 4000 4465 4124 3373 3191 3756 4308 3906 3193 3072 3559 4039 3721 2941 2758 3270 3852 3329 2697 2543 3030 3465 3271 2372 2305 2794 3291 2995 2245 1942 2498 3136 2775 2022 1747 2409 2807 2656 1911 1521 2157 2501 2422 1633 1327 1852 2262 2121 1336 1063 1477 2132 1839 1247 908 1393 1961 1736 923 529 1026 1608 1567 675 339 887 1376 1201 482 172 574 1144 1008 89 86 106 88 91 114 83 95 108 120 82 110 80 120 88 97 96 87 118 90 111 83 81 94 106 100 103 111 117 91 97 85 94 90 111 111 89 103 88 85 113 108 92 100 93 105 100 96 108 93 120 104 120 82 106 86 114 85 92 87 119 96 116 89 104 102 81 115 105 84 102
239 176 233 206 198 205 208 247 246 241 179 235 162 164 198 204 235 238 208 151 250 153 231 245 201 170 179 225 222 168 197 192 227 154 186 218 188 185 194 246 227 235 222 220 100 149 1064 1148 560 100 533 1267 1280 910 389 680 1350 1710 969 620 872 1543 1786 1410 740 996 1857 2154 1611 1057 1384 2008 2355 1771 1266 1469 2164 2572 2025 1490 1821 2388 2829 2271 1768 1974 2614 3042 2498 1987 2141 2826 3301 2833 2263 2308 3078 3559 3075 2498 2568 3401 3699 3232 2736 2861 3447 3878 3508 2865 3105 3725 4146 3869 3232 3185 3887 4467 4024 3382 3500 4114 4449 4017 3344 3303 3848 4295 3958 3153 3054 3665 4167 3737 2935 2738 3484 3822 3493 2716 2546 3175 3670 3237 2576 2244 2979 3441 3132 2279 2056 2687 3148 2854 2183 1860 2506 3008 2527 1900 1650 2082 2608 2330 1738 1363 1990 2426 2250 1522 1234 1586 2127 1947 1247 985 1358 1963 1781 986 786 1218 1767 1650 883 403 834 1422 1332 532 151 666 1228 1094 346 100 414 951 878 112 80 108 85 96 107 100 83 97 91 120 111 80 115 109 81 117 94 111 106 89 97 110 110 101 115 106 96 100 118 96 82 81 108 92 104 99 93 110 83 112 87 100 108 91 92 108 100 88 100 115 114 113 86 111 83 111 87 118 103 107 117 97 95 103 93 116 115 119 85 98
171 214 209 166 241 187 188 168 197 185 225 222 248 194 225 162 181 204 219 165 154 181 185 156 184 196 219 236 169 198 157 198 239 162 245 171 220 244 163 240 212 155 170 159 188 437 1210 1294 794 229 733 1491 1667 1017 491 858 1546 1802 1209 782 1125 1925 2140 1589 965 1298 2053 2365 1733 1230 1463 2274 2643 1995 1463 1695 2422 2866 2361 1786 2003 2614 2953 2556 1884 2239 2859 3265 2859 2181 2423 3107 3564 2969 2525 2552 3377 3717 3348 2608 2852 3495 4035 3638 3034 3073 3785 4264 3881 3177 3245 3926 4405 4012 3463 3538 4154 4693 4354 3593 3726 4377 4799 4334 3617 3673 4208 4578 4207 3450 3390 3965 4434 3968 3245 3148 3630 4099 3692 3003 2881 3480 3827 3647 2913 2696 3129 3779 3312 2533 2351 2986 3538 3117 2473 2142 2749 3298 2878 2254 1934 2509 3072 2654 1965 1633 2134 2772 2488 1719 1444 1981 2453 2263 1629 1304 1729 2268 2000 1285 948 1558 2069 1935 1065 822 1291 1721 1576 930 430 913 1567 1479 770 286 650 1314 1201 469 83 100 95 107 114 111 109 92 106 99 115 108 80 98 86 107 98 96 101 112 87 94 109 88 107 114 92 95 93 106 86 110 91 112 88 104 114 100 83 95 112 95 115 102 94 110 111 109 106 120 97 95 88 112 93 104 115 94 112 88 96 95 95 84 87 87 100 85 89 96
217 247 186 198 242 170 237 151 208 219 224 171 178 194 233 236 243 221 172 200 179 175 202 240 242 234 184 231 234 250 172 191 176 204 224 196 157 242 215 228 238 153 157 171 166 816 1705 1718 1171 837 1041 1934 2130 1441 1067 1278 2071 2239 1827 1212 1596 2238 2600 1977 1499 1849 2507 2674 2193 1649 1893 2700 2905 2500 1864 2106 2918 3143 2772 2170 2364 3112 3420 3074 2404 2658 3452 3641 3265 2677 2820 3507 3932 3583 2861 3066 3774 4251 3713 3124 3351 3895 4361 4036 3457 3473 4195 4690 4210 3669 3761 4406 4945 4574 3777 3954 4654 5088 4680 4069 4040 4800 5270 5033 4220 4151 4738 5137 4811 4091 3818 4386 4902 4450 3729 3584 4223 4592 4345 3518 3313 3978 4349 4008 3320 3117 3650 4102 3811 3032 2887 3422 4041 3619 2874 2657 3206 3679 3370 2690 2486 2911 3465 3307 2526 2220 2813 3336 2976 2355 1905 2478 3110 2810 2098 1758 2246 2745 2612 1843 1495 1951 2509 2368 1659 1360 1741 2371 2089 1445 941 1439 1970 1865 1175 744 1288 1754 1782 1046 661 120 98 86 102 112 85 82 119 102 85 117 118 115 119 101 105 84 89 112 117 113 95 106 118 87 108 103 93 87 82 120 99 102 113 83 97 104 81 93 88 106 87 106 99 116 91 113 90 92 120 80 118 81 88 88 91 97 82 81 81 92 80 100 93 83 101 82 83 119
170 243 150 171 230 225 207 207 168 228 172 189 203 203 170 249 185 158 237 245 244 241 159 183 204 166 180 190 189 214 155 150 238 193 157 191 188 248 181 209 192 162 155 177 161 229 1907 2020 1369 975 1226 2022 2339 1765 1285 1622 2219 2506 2038 1402 1778 2525 2634 2285 1664 1958 2809 2942 2362 1942 2155 3008 3223 2662 2094 2337 3242 3530 2879 2384 2559 3276 3751 3265 2640 2888 3655 3917 3434 2863 3131 3780 4209 3674 3216 3353 3939 4343 3993 3256 3388 4118 4601 4103 3664 3629 4373 4874 4514 3803 3860 4646 5117 4690 4087 4176 4799 5252 5013 4321 4326 5050 5504 5206 4449 4315 5001 5504 5088 4200 4268 4786 5132 4782 4006 3880 4445 4970 4673 3940 3678 4252 4669 4386 3698 3531 3933 4529 4147 3491 3204 3762 4220 3908 3240 2942 3526 4036 3750 2940 2747 3208 3743 3593 2725 2516 3056 3482 3321 2659 2338 2677 3276 3086 2405 2033 2450 3119 2819 2056 1781 2260 2864 2716 2007 1551 1943 2546 2514 1622 1335 1852 2400 2135 1427 1028 1596 2105 1994 1336 800 1259 98 120 107 88 108 105 88 112 115 98 109 81 82 107 96 99 81 85 107 85 86 101 119 82 119 113 117 106 118 115 82 80 87 85 103 103 101 108 101 113 87 112 98 99 116 86 102 114 86 106 115 116 86 89 119 118 100 118 80 118 120 90 100 92 117 101 91 100
220 182 173 180 167 177 189 244 156 199 170 218 187 178 210 150 217 234 231 160 176 151 241 155 207 232 151 238 171 230 180 205 152 196 203 216 194 210 192 199 156 189 201 179 238 189 213 1701 1119 663 1135 1869 2101 1550 943 1234 2104 2291 1731 1113 1467 2341 2530 2012 1443 1768 2386 2732 2130 1740 1985 2616 2942 2507 1905 2182 2931 3241 2761 2176 2427 3041 3503 2972 2311 2642 3385 3705 3211 2712 2853 3569 3806 3428 2779 2977 3771 4086 3657 3174 3265 4049 4370 4028 3281 3409 4255 4678 4111 3540 3672 4313 4885 4374 3830 3922 4628 5148 4673 4134 4162 4903 5367 5029 4256 4240 4847 5258 4891 4197 4000 4523 4936 4612 3812 3780 4306 4750 4494 3614 3569 4016 4505 4239 3401 3208 3816 4365 3941 3237 2995 3554 4076 3719 3069 2734 3257 3942 3552 2885 2483 3080 3594 3373 2706 2292 2800 3440 3216 2314 2084 2614 3200 2986 2121 1818 2376 2961 2697 1925 1544 2116 2619 2479 1789 1368 1840 2363 2180 1631 1229 1566 2188 2147 1238 926 1384 1926 1888 1025 795 1167 1717 105 119 101 84 119 93 106 102 88 96 99 106 109 83 117 98 96 117 118 93 94 100 118 104 81 81 110 118 98 94 108 96 82 87 98 88 88 86 92 103 107 101 81 112 112 96 92 114 116 102 110 80 110 81 98 100 111 88 95 100 118 109 97 111 88 81 119
228 212 156 193 160 217 173 228 150 197 159 206 229 186 246 227 230 159 166 202 228 193 209 210 192 243 233 248 226 213 199 194 193 250 187 224 169 210 150 165 236 220 191 182 230 153 195 1339 738 200 480 1286 1534 910 365 805 1428 1740 1101 754 943 1763 1953 1472 835 1283 2007 2214 1618 1206 1476 2169 2523 2011 1414 1655 2378 2642 2278 1579 1782 2575 2870 2442 1947 2001 2729 3110 2708 2199 2190 3040 3293 3029 2416 2542 3172 3648 3278 2501 2708 3351 3807 3475 2924 2915 3722 4136 3738 3105 3059 3808 4286 4016 3289 3384 4178 4623 4205 3494 3615 4382 4689 4397 3832 3828 4370 4820 4499 3653 3588 4201 4651 4154 3552 3343 3958 4385 4042 3314 3183 3722 4167 3737 3130 2825 3441 3907 3467 2754 2654 3252 3743 3261 2548 2335 2874 3461 3081 2404 2177 2689 3100 2901 2154 1856 2447 2990 2751 1937 1659 2074 2741 2533 1651 1363 1995 2421 2359 1450 1167 1579 2283 1960 1350 871 1482 1920 1903 1202 746 1110 1679 1580 834 400 1013 1612 1390 728 212 682 1271 1217 100 87 114 119 83 98 91 89 103 105 83 104 113 120 85 82 104 120 102 115 106 82 94 82 80 112 119 85 114 83 96 89 111 107 85 85 82 96 102 116 115 100 80 109 112 99 116 100 117 90 89 82 87 95 85 100 88 93 87 82 106 83 94 111 82 86
191 235 166 175 187 157 158 173 163 160 209 213 181 232 156 209 250 186 179 213 244 192 248 225 159 233 238 215 244 171 215 158 214 207 152 171 199 199 228 160 151 229 160 169 161 161 175 217 378 100 270 897 1241 585 100 385 1097 1417 768 319 598 1355 1602 1155 503 779 1515 1852 1303 762 1096 1774 2198 1515 1092 1236 1980 2303 1822 1248 1414 2204 2663 2070 1499 1743 2564 2735 2277 1791 1862 2611 2963 2583 2013 2188 2906 3237 2827 2203 2389 3063 3463 3043 2475 2526 3384 3698 3443 2689 2783 3464 4011 3674 3039 3119 3823 4261 3929 3163 3290 3926 4512 4098 3553 3486 4133 4522 4120 3334 3320 3907 4408 3877 3226 3135 3649 4053 3741 2977 2906 3377 3826 3563 2683 2529 3107 3642 3299 2487 2413 2917 3324 3167 2375 2203 2559 3130 2856 2042 1916 2465 2822 2565 1916 1559 2152 2639 2425 1689 1314 1829 2439 2198 1569 1060 1611 2138 1920 1345 843 1315 1940 1849 1045 655 1122 1779 1558 881 438 919 1552 1413 568 242 706 1209 1186 323 100 491 962 928 120 110 99 90 82 117 92 93 90 104 88 104 112 97 82 118 104 96 117 96 116 82 96 108 100 95 94 84 94 81 88 100 82 82 119 90 115 117 120 104 108 81 110 86 100 117 84 101 86 85 94 118 116 92 118 109 88 119 112 117 103 102 81 101 112 112
234 233 214 210 208 249 204 194 211 196 173 215 166 157 236 238 248 205 157 205 194 176 169 217 207 227 178 213 167 193 187 201 227 220 202 239 208 151 209 153 191 153 202 204 230 204 177 180 155 100 405 1040 1344 726 158 559 1340 1401 900 515 688 1538 1792 1183 620 885 1671 1963 1529 933 1190 1933 2304 1718 1111 1383 2123 2509 2026 1437 1566 2384 2604 2116 1605 1831 2552 2954 2520 1843 1985 2854 3184 2720 2015 2295 3035 3406 2946 2420 2382 3276 3548 3266 2610 2755 3481 3788 3521 2873 2870 3699 4151 3738 3148 3119 3930 4333 4044 3366 3298 4140 4482 4168 3642 3659 4240 4672 4230 3523 3464 4016 4466 4128 3416 3276 3773 4186 3941 3162 2967 3591 4130 3634 2850 2726 3327 3821 3390 2792 2435 3114 3509 3166 2492 2225 2843 3238 2956 2253 1992 2551 3147 2749 2106 1792 2310 2827 2682 1834 1610 2052 2614 2343 1726 1333 1806 2374 2212 1501 1106 1604 2178 2036 1257 781 1355 2001 1713 981 614 1132 1579 1624 875 394 854 1479 1272 606 133 548 1173 1123 435 97 92 97 114 116 84 113 114 91 83 106 99 116 93 87 107 115 118 113 113 102 119 87 115 90 111 112 97 120 114 86 97 116 118 100 94 93 105 97 111 90 116 114 109 119 92 117 113 99 114 117 96 80 95 81 88 93 114 105 112 91 101 113 87 103
215 173 197 154 154 235 214 168 170 184 201 156 174 215 196 203 244 212 182 164 205 169 187 182 240 172 161 239 154 228 172 182 186 245 153 174 219 189 221 193 193 224 164 152 242 153 186 194 214 233 692 1461 1611 1060 712 1035 1669 2016 1405 877 1255 1903 2159 1639 1097 1340 2104 2414 1847 1402 1592 2318 2620 2140 1491 1775 2486 2821 2441 1855 2005 2850 3085 2523 2065 2150 2929 3284 2942 2356 2509 3153 3614 3185 2635 2716 3382 3827 3425 2791 2984 3699 4041 3637 3053 3175 3826 4301 3891 3268 3413 4121 4545 4095 3520 3599 4215 4744 4347 3782 3747 4464 4885 4556 4026 3909 4647 5090 4856 4161 4004 4595 4975 4597 3831 3733 4260 4722 4380 3568 3572 4166 4457 4089 3372 3272 3769 4350 3975 3217 2929 3501 4093 3720 2915 2878 3360 3825 3456 2722 2490 3063 3523 3302 2579 2374 2839 3279 3183 2312 2031 2622 3064 2813 2231 1789 2409 2912 2681 2039 1644 2105 2634 2436 1648 1298 1924 2444 2233 1534 1147 1482 2203 2060 1265 1000 1327 1985 1800 1121 643 1168 1775 1643 949 472 119 94 89 96 92 103 96 118 88 86 96 93 104 88 117 115 109 82 99 80 119 102 116 91 104 88 114 82 102 90 87 117 95 93 103 101 102 120 104 112 105 99 95 85 86 95 112 110 85 103 114 94 94 117 95 104 88 84 119 117 101 120 94 80
218 178 162 151 174 200 202 188 221 169 246 205 153 231 190 239 184 228 247 185 169 169 200 206 242 220 243 203 199 179 202 188 248 215 201 181 184 209 185 182 162 214 246 176 196 150 235 172 165 152 207 1740 1924 1464 907 1355 2037 2179 1702 1223 1568 2204 2392 1842 1480 1651 2466 2641 2235 1752 1845 2746 3016 2505 1984 2111 2965 3085 2690 2200 2281 3111 3329 2878 2445 2650 3240 3727 3105 2589 2761 3505 3921 3420 2873 3024 3679 4141 3725 3086 3262 4040 4287 4008 3289 3412 4175 4544 4190 3546 3562 4340 4783 4430 3763 3862 4603 5063 4619 4115 4119 4875 5255 4995 4336 4313 4934 5413 5266 4418 4327 4877 5457 4984 4299 4075 4643 5222 4730 4001 3863 4399 5007 4548 3748 3595 4204 4712 4453 3716 3462 3908 4439 4137 3366 3182 3764 4127 4035 3288 2870 3468 3928 3645 2916 2647 3202 3808 3452 2757 2554 3059 3515 3260 2479 2277 2730 3336 3015 2321 2076 2473 3118 2787 2045 1795 2147 2706 2723 2006 1609 2039 2616 2454 1730 1204 1743 2296 2271 1463 1097 1500 2055 2030 1304 849 1292 119 97 85 114 91 80 100 96 88 117 89 114 97 81 80 101 82 82 104 93 89 94 94 111 107 104 85 116 91 103 105 92 100 107 101 88 94 80 100 93 93 83 89 97 106 119 81 96 110 107 112 87 119 108 112 80 84 91 100 103 107 109 99
169 225 162 223 196 188 195 181 207 154 188 153 241 222 209 188 226 180 218 233 207 153 151 182 189 233 218 163 216 167 230 224 172 232 164 188 197 242 175 224 218 210 178 184 179 229 178 161 159 159 222 190 1944 1336 809 1091 1860 2215 1544 1062 1280 2095 2448 1921 1341 1659 2344 2537 2135 1516 1759 2502 2820 2312 1852 2100 2725 3061 2503 2063 2260 3026 3222 2883 2285 2456 3219 3440 3029 2596 2668 3457 3839 3416 2684 2812 3700 3945 3609 3050 3101 3861 4140 3850 3244 3313 4055 4546 3994 3515 3563 4359 4617 4405 3771 3734 4478 4874 4616 3851 4015 4696 5228 4812 4095 4262 4840 5434 5035 4435 4303 4862 5426 5016 4137 3999 4745 5111 4814 3994 3887 4526 4940 4568 3864 3576 4265 4724 4422 3632 3394 4008 4454 4031 3325 3059 3586 4155 3803 3070 2814 3510 3929 3674 2956 2749 3122 3681 3541 2778 2377 3026 3439 3308 2611 2190 2651 3205 3139 2392 2053 2407 2925 2858 2028 1726 2087 2714 2685 1793 1468 1909 2466 2443 1758 1272 1625 2228 2202 1359 1054 1347 2029 1983 1204 709 1171 1744 94 88 94 119 80 85 103 96 119 116 106 99 113 103 104 82 114 103 117 105 111 101 118 114 99 115 86 101 99 92 98 90 100 105 109 110 106 108 109 111 116 117 104 108 105 90 119 101 110 80 90 103 107 111 84 82 86 90 115 111 116 105
208 194 219 224 180 218 172 212 208 177 176 186 198 225 242 174 219 163 238 233 174 223 175 169 246 213 160 194 180 164 175 218 189 192 156 155 184 191 179 209 194 210 225 210 171 181 186 173 209 184 248 155 1426 848 387 769 1373 1742 1146 681 963 1556 1976 1443 936 1166 1852 2059 1623 1158 1240 2059 2345 1785 1401 1539 2263 2663 2059 1554 1795 2457 2807 2421 1823 1990 2680 3021 2597 2057 2142 2832 3384 2930 2241 2348 3089 3548 3132 2544 2665 3431 3798 3422 2707 2772 3486 3999 3636 2901 3111 3709 4280 3750 3294 3293 4052 4509 4088 3436 3481 4268 4744 4326 3712 3759 4319 4818 4585 3980 3842 4574 4958 4640 3839 3776 4378 4651 4259 3637 3425 3945 4524 4150 3420 3296 3731 4235 3944 3159 2918 3628 4087 3624 2987 2667 3371 3820 3546 2744 2555 3101 3639 3288 2529 2304 2855 3298 2973 2406 2097 2621 3009 2762 2157 1809 2262 2842 2560 1980 1655 2008 2670 2454 1741 1398 1859 2454 2189 1397 1072 1466 2106 1925 1170 912 1260 1805 1869 955 564 1018 1701 1585 829 493 684 1352 1275 97 100 120 109 96 113 101 88 88 94 88 109 113 95 117 90 84 83 119 104 119 88 81 114 109 108 83 101 107 87 83 86 87 92 90 110 112 107 81 99 85 110 103 107 114 86 102 98 100 96 85 89 98 80 111 101 82 100 104 100 91
167 221 241 216 241 172 210 244 183 218 186 249 250 215 180 161 173 157 235 227 242 155 205 221 151 199 175 216 162 201 242 226 195 152 220 174 175 210 210 170 226 199 247 198 213 191 184 175 197 175 221 177 237 454 100 347 911 1233 593 154 423 1234 1490 859 338 720 1374 1754 1212 698 961 1602 1855 1320 949 1145 1831 2109 1703 1062 1340 2062 2310 1956 1272 1524 2364 2534 2168 1689 1693 2567 2935 2504 1793 1966 2795 3139 2635 2063 2210 2925 3323 2866 2222 2456 3130 3599 3221 2615 2709 3427 3765 3503 2847 2874 3462 4070 3661 2985 3085 3667 4274 3857 3266 3299 3960 4480 4224 3496 3440 4134 4617 4195 3494 3311 3911 4369 4037 3283 3109 3772 4227 3781 3070 2786 3507 3820 3660 2919 2636 3205 3579 3376 2543 2288 2865 3459 3240 2331 2150 2583 3254 2985 2256 1874 2335 2976 2713 1989 1733 2197 2686 2502 1672 1394 1946 2554 2335 1545 1237 1675 2334 2123 1393 944 1486 2062 1794 1141 749 1139 1722 1578 839 540 950 1443 1444 757 279 669 1278 1139 544 100 484 985 880 93 117 115 103 112 116 85 104 81 84 92 116 89 91 111 105 83 90 98 102 104 111 112 119 113 98 108 103 90 95 118 88 83 86 99 104 95 95 118 91 83 87 85 92 107 110 104 84 109 100 100 80 118 107 108 105 97 82 108 115 94
182 229 159 157 164 232 195 184 236 183 239 165 250 197 229 152 212 193 161 154 249 240 224 163 159 206 242 184 222 204 154 202 228 180 217 233 212 238 198 233 197 205 192 163 154 211 161 232 202 248 217 233 188 211 100 293 959 1247 691 100 400 1259 1431 864 458 657 1467 1635 1074 515 931 1526 1899 1436 828 1038 1728 2036 1590 1106 1199 2039 2320 1944 1303 1410 2219 2538 2147 1637 1684 2494 2889 2425 1719 1926 2684 3081 2538 1962 2220 2979 3212 2811 2189 2288 3149 3502 3122 2421 2613 3323 3752 3331 2668 2828 3611 3939 3629 2914 2978 3646 4142 3888 3226 3325 3924 4349 4182 3584 3389 4212 4599 4206 3536 3301 3878 4386 4110 3339 3238 3625 4140 3806 3152 2921 3468 3936 3558 2832 2689 3200 3726 3395 2569 2371 3063 3470 3278 2375 2226 2803 3307 2981 2259 2044 2481 2930 2728 2062 1714 2203 2726 2631 1792 1408 2050 2515 2327 1531 1295 1768 2283 2212 1375 1081 1397 1948 1815 1125 737 1311 1813 1755 991 523 968 1642 1507 639 259 753 1237 1174 497 100 421 1100 957 400 117 119 105 108 93 116 89 83 116 88 120 88 88 80 111 84 116 92 104 89 111 85 80 92 111 87 89 113 81 98 100 108 99 80 97 80 118 85 98 113 107 108 104 105 101 109 102 95 106 88 108 105 98 92 98 119 83 90 112 113
229 212 245 162 198 239 213 169 236 193 197 186 234 216 154 225 157 199 228 186 182 215 170 208 155 162 201 216 165 206 207 177 209 214 165 191 166 156 249 185 181 186 163 238 218 180 203 220 210 217 207 161 227 203 188 576 1270 1494 1077 452 859 1491 1759 1325 713 1099 1754 1996 1531 919 1279 2074 2235 1764 1145 1450 2116 2396 2088 1472 1699 2424 2780 2158 1610 1798 2667 3008 2557 1915 2122 2768 3242 2753 2182 2406 3037 3468 2905 2429 2494 3177 3708 3160 2552 2795 3446 3946 3445 2875 2927 3695 4175 3662 3081 3218 3825 4405 3941 3336 3375 4116 4520 4274 3586 3651 4382 4776 4537 3773 3907 4563 5041 4751 4000 3781 4437 4759 4493 3810 3688 4162 4651 4274 3630 3442 3961 4300 4152 3378 3120 3656 4251 3912 3112 2896 3515 3856 3566 2876 2660 3152 3688 3432 2768 2312 2865 3486 3149 2506 2185 2720 3197 2930 2239 1910 2328 2981 2822 2004 1689 2068 2826 2605 1907 1465 1932 2432 2442 1622 1272 1623 2252 2207 1297 968 1389 2009 1979 1135 784 1163 1797 1673 1038 562 880 1481 1504 662 296 107 102 89 96 105 89 116 94 81 110 120 86 91 90 119 91 107 114 99 96 105 104 99 117 115 116 96 118 99 95 99 93 103 102 106 86 115 88 106 94 95 101 115 94 113 97 82 105 115 90 110 107 106 119 113 104 98 107 91
190 190 158 222 220 250 154 222 174 172 180 163 196 209 181 184 222 201 234 244 180 218 175 242 233 215 203 222 196 155 191 211 185 195 205 182 162 210 168 205 156 211 246 208 176 191 232 206 203 207 224 227 215 162 246 197 1649 1900 1359 913 1229 1961 2246 1647 1221 1347 2259 2336 1943 1428 1662 2359 2730 2146 1610 1749 2547 2952 2377 1885 2049 2880 3198 2706 2014 2303 2943 3265 2878 2352 2415 3163 3584 3169 2542 2742 3370 3810 3327 2748 2889 3705 4019 3566 3116 3140 3799 4388 3864 3295 3392 4097 4486 4096 3569 3673 4223 4730 4475 3781 3817 4469 4985 4660 3950 3932 4681 5176 4866 4158 4228 5003 5367 5050 4422 4365 4960 5239 4987 4222 4144 4547 5119 4772 3942 3825 4462 4946 4606 3723 3547 4039 4679 4339 3631 3424 3795 4318 4014 3306 3175 3680 4121 3963 3183 2845 3427 4008 3738 2984 2676 3156 3713 3362 2645 2353 2906 3418 3284 2494 2263 2681 3302 3070 2230 1952 2379 2881 2789 2166 1705 2096 2675 2689 1807 1484 1947 2422 2378 1643 1271 1577 2243 2259 1468 983 1323 1995 1845 1280 859 1187 90 97 99 80 117 107 103 101 83 97 105 99 106 80 117 98 82 97 104 119 106 118 108 109 101 93 117 117 112 98 115 111 111 97 80 84 120 99 118 85 116 108 93 104 108 119 94 87 112 98 117 88 103 110 115 111 90 81
190 220 194 186 159 178 242 235 233 173 169 213 234 179 213 188 229 202 177 156 176 184 186 248 166 158 173 233 188 154 249 248 242 235 213 161 178 250 245 210 183 164 165 200 194 152 151 157 185 237 188 228 237 207 185 181 154 1993 1417 838 1203 1967 2137 1566 1079 1444 2153 2446 1965 1389 1744 2336 2621 2188 1571 1798 2673 2926 2452 1802 1991 2804 3177 2659 2124 2218 2985 3376 2873 2304 2548 3345 3640 3105 2496 2791 3375 3920 3495 2742 2867 3686 4016 3680 3119 3135 3843 4258 3947 3208 3292 4198 4552 4108 3501 3570 4311 4743 4339 3809 3809 4548 5028 4564 4104 4130 4698 5305 4821 4326 4180 5043 5419 5216 4430 4316 4967 5368 5066 4336 4209 4763 5138 4929 4174 3852 4545 5042 4675 3872 3744 4207 4755 4373 3714 3364 4034 4571 4170 3402 3272 3798 4303 3983 3316 2947 3534 4064 3815 3058 2708 3290 3846 3481 2836 2432 3041 3556 3395 2502 2351 2769 3287 3177 2298 1938 2524 3107 3011 2154 1748 2256 2785 2737 2060 1616 1972 2543 2511 1669 1236 1638 2328 2206 1635 1188 1384 2091 2128 1263 879 1308 1823 99 110 97 90 82 117 120 109 81 80 101 88 110 89 98 90 115 103 96 106 87 87 112 102 120 86 109 91 119 103 107 100 103 92 83 111 82 99 104 103 85 84 103 90 87 101 101 95 87 85 92 86 83 117 111 98 85
240 178 240 226 235 242 237 223 202 194 240 227 185 175 179 167 154 199 155 200 239 173 237 217 201 178 208 179 157 151 179 161 250 211 163 208 240 171 153 216 232 219 219 203 218 187 212 235 198 193 159 246 162 243 150 200 214 1510 1042 488 850 1548 1858 1176 789 1005 1720 2102 1579 1042 1266 1951 2196 1766 1253 1420 2149 2545 1937 1386 1642 2446 2687 2236 1746 1879 2687 3001 2594 1853 2064 2815 3287 2778 2121 2265 3060 3464 3016 2474 2524 3203 3764 3286 2715 2819 3525 3933 3483 2961 2996 3769 4110 3747 3136 3137 3990 4361 3931 3358 3440 4201 4503 4193 3605 3544 4308 4919 4433 3779 3748 4618 5060 4827 4135 3979 4753 5038 4708 4007 3744 4359 4780 4497 3737 3504 4159 4542 4365 3582 3392 3931 4451 4056 3431 3062 3745 4160 3901 3151 2962 3322 3892 3701 2909 2671 3197 3613 3435 2772 2314 2896 3381 3305 2494 2081 2656 3221 2920 2231 1854 2490 2995 2887 2154 1781 2112 2694 2629 1917 1452 1912 2457 2281 1729 1164 1563 2246 2184 1470 917 1464 2095 1967 1199 820 1166 1720 1664 1064 542 895 1568 1465 110 111 99 111 111 106 102 96 85 98 108 103 101 87 83 82 108 119 113 91 84 89 101 110 89 93 115 103 83 88 110 100 92 96 109 91 108 88 107 110 113 88 98 117 81 81 87 97 112 111 108 87 103 120 92 94
197 156 198 204 230 226 207 200 165 236 181 151 199 191 157 172 155 240 219 184 221 240 246 233 204 221 175 184 152 185 211 239 235 243 196 188 162 198 177 244 189 223 188 192 192 220 213 232 187 186 168 153 225 216 162 236 247 198 558 100 405 1128 1383 791 211 560 1253 1573 1007 453 787 1484 1766 1290 720 946 1633 2101 1453 880 1196 1975 2315 1704 1230 1412 2226 2465 1996 1375 1533 2350 2645 2236 1599 1905 2528 2848 2554 1851 2062 2681 3092 2767 2118 2347 2896 3398 3084 2337 2557 3289 3662 3295 2587 2674 3443 3776 3460 2879 2968 3705 4014 3840 3190 3041 3827 4310 4019 3345 3266 4134 4615 4174 3643 3578 4264 4642 4242 3570 3357 4036 4467 4125 3253 3086 3668 4280 3792 3204 2894 3451 4061 3628 2988 2773 3191 3751 3547 2670 2494 2997 3454 3323 2578 2262 2703 3229 3045 2253 2055 2544 2930 2770 2003 1709 2316 2770 2603 1949 1552 1924 2494 2417 1733 1182 1754 2312 2166 1351 1043 1470 2167 1865 1210 770 1261 1735 1720 913 585 904 1578 1508 851 414 642 1345 1271 537 100 522 1095 1169 109 97 86 83 119 111 116 93 103 90 97 120 109 100 90 108 105 108 106 112 116 81 106 86 111 114 103 120 120 111 91 100 95 106 118 89 88 88 104 85 80 86 99 119 99 105 96 102 103 113 102 111 107 92 111 104
197 243 183 172 228 174 221 236 179 153 187 165 228 168 154 240 161 197 186 194 250 177 180 244 239 180 167 192 200 232 210 166 201 164 209 177 230 181 183 211 187 167 165 221 204 161 153 245 223 166 233 159 184 151 201 227 194 189 150 100 100 897 1067 696 133 274 1053 1324 827 340 626 1248 1575 1129 598 881 1491 1779 1298 726 1083 1832 2166 1537 1096 1278 1987 2222 1822 1277 1446 2200 2483 2125 1417 1601 2353 2753 2250 1839 1788 2622 3046 2683 2004 2094 2919 3253 2806 2202 2331 2996 3576 3101 2410 2469 3278 3697 3295 2690 2751 3457 3858 3520 2910 2935 3678 4160 3858 3246 3175 3821 4391 4051 3392 3319 4115 4606 4202 3434 3287 3857 4264 3917 3201 3107 3595 4070 3788 2998 2841 3468 3838 3491 2924 2652 3050 3570 3363 2530 2323 2915 3476 3193 2351 2225 2576 3112 2880 2120 1936 2408 2933 2658 2030 1700 2055 2765 2421 1763 1516 1850 2417 2220 1504 1226 1674 2264 2104 1352 1001 1298 2056 1819 1156 682 1188 1788 1570 1012 397 815 1493 1445 780 351 711 1355 1193 580 100 373 938 974 362 90 90 87 101 90 101 97 83 108 102 97 86 117 96 109 89 85 98 119 108 110 120 86 104 97 119 80 83 105 108 98 82 93 85 95 82 101 108 83 94 110 93 81 106 119 84 84 116 112 96 92 120 85 86 105
209 183 207 206 203 181 200 162 212 208 199 225 184 249 243 225 235 182 188 215 172 250 165 187 227 218 207 158 220 188 217 169 169 211 198 202 160 169 249 156 224 208 209 220 201 167 150 161 165 214 233 154 228 221 197 227 174 245 220 150 455 1096 1466 782 354 746 1383 1555 1115 540 944 1680 1811 1362 751 1084 1814 2201 1671 1061 1338 1949 2282 1821 1413 1472 2296 2512 2101 1476 1702 2450 2871 2349 1706 1919 2754 2992 2669 1961 2104 2871 3360 2974 2333 2405 3064 3543 3195 2470 2673 3380 3715 3424 2757 2910 3552 4078 3659 3085 2935 3643 4129 3841 3263 3318 3980 4372 4181 3575 3550 4231 4711 4345 3734 3743 4404 4846 4571 3849 3691 4214 4662 4404 3633 3522 4092 4461 4085 3309 3245 3851 4348 3983 3216 3026 3487 4070 3796 2952 2755 3266 3743 3585 2727 2426 3097 3471 3330 2474 2270 2699 3221 3056 2293 1924 2492 2989 2825 2169 1869 2287 2749 2683 1946 1456 2087 2652 2446 1666 1408 1856 2375 2244 1533 1127 1415 2026 2068 1280 919 1195 1829 1720 961 614 1002 1695 1546 779 480 746 1441 1402 613 115 93 120 84 104 106 83 119 114 90 89 113 120 82 87 84 80 88 97 94 113 105 115 115 94 115 114 84 97 115 111 89 81 98 85 113 96 83 106 85 104 104 94 117 111 118 117 81 110 106 106 110 89 87 107
224 208 154 244 162 231 196 201 169 214 238 203 150 231 230 234 163 232 190 244 237 247 150 171 195 226 165 182 229 198 204 239 152 173 156 198 240 226 226 194 189 196 224 227 198 207 179 180 188 243 150 204 245 186 239 226 226 178 198 174 176 1697 1821 1281 709 1160 1849 2067 1538 1063 1201 1987 2269 1758 1308 1454 2302 2473 2028 1575 1773 2402 2848 2220 1664 1867 2721 3107 2635 2006 2160 2961 3332 2864 2246 2410 3116 3541 2983 2506 2676 3408 3711 3301 2667 2848 3528 4003 3605 3036 2940 3694 4251 3797 3214 3155 3922 4521 4045 3443 3562 4192 4693 4386 3652 3673 4333 4797 4623 3915 4002 4622 5141 4840 4128 4223 4790 5291 5152 4333 4253 4804 5319 4808 4197 3927 4456 5051 4615 3847 3636 4291 4713 4376 3627 3525 4049 4444 4187 3476 3295 3814 4352 4100 3367 3022 3506 3995 3733 3135 2868 3174 3852 3666 2923 2457 3039 3536 3313 2701 2256 2748 3409 3103 2322 1994 2431 3083 3033 2200 1827 2272 2862 2656 2067 1502 2000 2669 2463 1843 1385 1697 2445 2358 1614 1155 1420 2207 2143 1272 986 1194 1889 1955 1203 637 996 86 91 108 85 82 93 102 115 101 96 117 120 90 103 98 87 88 120 89 113 120 96 99 85 87 117 90 116 94 115 113 82 101 95 86 115 80 112 90 119 95 83 116 81 117 97 108 114 117 80 119 96 114
168 231 179 171 176 211 181 176 224 190 207 165 249 185 171 212 238 199 156 179 215 221 232 231 156 195 180 239 221 233 232 215 219 169 163 226 156 212 242 173 213 161 244 184 220 169 161 250 197 160 186 173 221 195 152 249 171 190 153 153 225 178 1946 1561 1057 1159 1913 2286 1648 1213 1416 2230 2380 1972 1410 1649 2332 2772 2295 1667 1781 2704 2934 2464 1991 2049 2885 3087 2623 2179 2262 3077 3476 3018 2379 2553 3241 3731 3125 2700 2651 3507 3918 3534 2962 3032 3683 4170 3659 3120 3096 3844 4355 3963 3281 3469 4030 4610 4217 3615 3550 4249 4755 4394 3855 3930 4573 5133 4669 4094 3962 4717 5242 4938 4382 4340 5003 5440 5148 4587 4406 5071 5367 5038 4419 4087 4791 5246 4978 4180 3857 4486 4974 4755 4023 3780 4211 4739 4524 3784 3397 4083 4602 4224 3599 3196 3747 4359 4038 3269 2995 3565 4094 3914 3104 2815 3245 3801 3540 2888 2460 2997 3493 3418 2601 2224 2662 3415 3195 2371 2087 2475 3035 2863 2157 1882 2277 2852 2686 1935 1649 2021 2643 2520 1757 1402 1835 2299 2276 1640 1143 1415 2167 2009 1319 943 1154 1781 108 90 103 104 116 95 116 100 92 98 104 87 104 108 103 110 94 108 87 86 94 118 101 87 82 88 90 91 109 106 80 85 101 93 103 84 82 99 113 86 90 101 117 84 83 84 107 112 112 112 113 92
163 184 223 248 197 247 203 156 231 154 177 231 199 160 244 186 202 246 203 225 169 219 250 203 188 204 236 166 237 160 170 173 202 226 241 161 194 210 173 178 178 169 202 248 164 248 215 222 236 170 236 246 168 222 169 183 249 193 200 152 170 238 1630 1248 704 977 1690 1860 1429 817 1067 1959 2081 1594 1117 1386 2147 2319 1950 1458 1543 2374 2559 2157 1581 1849 2437 2976 2494 1939 2023 2660 3060 2581 2132 2267 2995 3326 2868 2237 2426 3254 3658 3238 2489 2708 3446 3788 3341 2826 2856 3602 4101 3688 2993 3159 3892 4213 3992 3374 3265 3955 4558 4175 3434 3561 4225 4820 4337 3712 3718 4532 5040 4627 3945 4069 4561 5177 4829 4323 4109 4710 5220 4816 4037 4051 4502 4911 4734 3881 3776 4310 4775 4362 3615 3516 4032 4622 4276 3405 3161 3776 4323 3969 3367 3017 3489 4058 3738 3129 2749 3229 3842 3591 2779 2485 3064 3558 3373 2567 2239 2768 3327 3150 2326 2089 2588 3065 2987 2256 1904 2235 2844 2807 1955 1528 1939 2690 2609 1876 1307 1782 2420 2233 1484 1224 1583 2152 2083 1267 883 1262 1897 1770 1069 604 1067 1721 1623 101 80 87 111 113 112 88 115 105 97 119 113 119 83 114 102 103 99 85 111 105 118 109 103 114 89 112 90 89 84 88 98 97 106 115 83 94 120 86 104 88 85 87 83 97 114 87 93 97 118 101
193 229 242 162 196 172 237 163 195 247 186 225 168 220 173 150 190 159 207 228 183 213 249 209 223 189 179 211 208 217 160 233 174 222 211 167 193 224 230 152 202 210 169 198 154 242 214 229 223 237 221 154 250 166 229 190 186 200 155 158 167 234 156 626 165 435 1170 1350 987 463 540 1277 1580 1173 606 754 1632 1824 1486 765 969 1856 2048 1680 1183 1297 1951 2359 1858 1356 1581 2277 2492 2170 1561 1780 2434 2798 2469 1784 1853 2672 3155 2606 2119 2052 2921 3270 2871 2357 2426 3129 3449 3050 2607 2570 3204 3766 3462 2809 2848 3405 3994 3658 3087 2947 3702 4215 3925 3237 3145 3824 4392 4128 3542 3547 4043 4751 4314 3706 3695 4329 4719 4384 3744 3591 4143 4629 4256 3432 3243 3885 4319 4085 3270 3035 3649 3994 3861 3122 2714 3292 3864 3604 2797 2502 3107 3627 3438 2677 2334 2755 3438 3207 2394 2180 2484 3107 2881 2251 1768 2313 2824 2640 1910 1697 2167 2688 2557 1776 1459 1815 2424 2225 1497 1112 1610 2187 2019 1330 979 1383 1975 1857 1198 606 1052 1775 1696 1004 365 727 1427 1343 730 165 628 1156 1182 111 82 100 98 87 93 85 108 91 110 84 94 106 113 98 104 99 87 93 96 99 114 105 107 83 118 101 89 101 80 98 91 101 83 108 97 89 115 107 100 81 110 103 118 117 116 81 98 113 116 80
228 230 164 157 216 248 156 222 249 165 217 178 200 172 178 212 219 238 152 243 195 184 159 233 239 209 161 178 235 230 220 174 169 166 174 233 197 205 189 185 153 233 234 156 216 190 213 155 246 231 243 182 230 217 160 217 188 178 214 216 161 196 184 168 100 100 922 1179 538 100 354 1126 1417 807 402 567 1245 1578 1175 504 817 1446 1772 1384 810 1020 1810 2033 1519 1091 1279 1849 2321 1920 1198 1502 2215 2617 2143 1461 1732 2287 2750 2425 1758 1770 2486 3019 2701 1931 2044 2735 3169 2864 2274 2197 3080 3441 3160 2518 2573 3151 3699 3332 2719 2751 3432 3848 3648 2892 2874 3618 4211 3777 3177 3149 3781 4313 4124 3373 3465 4108 4624 4175 3491 3366 3933 4395 4080 3204 3072 3550 4040 3861 3118 2732 3454 3861 3670 2911 2600 3201 3669 3442 2712 2312 2929 3320 3148 2389 2042 2700 3099 2930 2211 1945 2424 2997 2712 2057 1581 2132 2743 2548 1788 1349 1900 2489 2353 1522 1094 1590 2115 2021 1442 887 1462 2027 1823 1047 653 1195 1697 1704 1005 484 830 1394 1435 740 229 529 1229 1258 506 100 382 981 1078 270 87 95 94 98 112 85 109 80 116 99 101 89 119 106 82 107 114 81 85 114 88 118 91 95 111 118 85 119 120 82 95 94 89 109 112 108 108 83 88 89 107 119 117 101 102 84 91 119 113 105
223 245 245 165 221 173 161 203 202 237 250 244 164 169 243 217 185 202 249 203 159 214 235 236 229 192 211 162 246 221 242 183 179 156 228 204 187 216 199 172 230 192 220 219 181 217 180 159 184 171 206 222 181 152 195 202 169 164 249 197 190 187 171 210 164 241 1107 1283 728 252 534 1198 1548 1077 470 661 1528 1711 1208 795 1010 1615 1917 1431 948 1235 1944 2274 1704 1218 1372 2072 2500 2068 1354 1616 2406 2612 2201 1698 1795 2556 2882 2608 1872 1957 2836 3219 2747 2254 2334 2947 3339 2998 2338 2510 3212 3642 3177 2586 2580 3317 3962 3466 2840 2802 3669 4030 3816 3069 3059 3790 4229 4013 3469 3394 4110 4482 4241 3683 3582 4151 4846 4514 3672 3526 4130 4518 4299 3583 3387 3900 4412 4101 3219 3096 3588 4026 3888 3143 2849 3316 3922 3564 2853 2693 3125 3621 3354 2703 2453 2937 3408 3099 2452 2137 2566 3248 2881 2324 1876 2386 2855 2761 1979 1736 2013 2618 2489 1787 1419 1863 2405 2343 1633 1129 1676 2184 2167 1373 916 1425 1972 1925 1125 645 1028 1702 1734 1023 475 957 1535 1468 709 310 668 1236 1307 514 100 100 116 92 80 98 112 102 111 102 107 94 111 111 97 107 111 83 82 101 112 110 98 92 97 89 93 100 101 94 107 94 107 80 111 81 96 115 110 88 117 99 117 114 91 110 101 89 101 82
159 229 181 230 159 176 219 248 176 237 213 196 205 198 216 189 200 237 217 155 227 230 179 154 187 235 196 234 230 155 153 156 206 163 219 186 224 248 248 215 231 203 247 217 188 184 194 233 200 245 172 160 159 181 214 174 219 189 180 167 217 210 224 191 233 155 1438 1703 1250 593 1037 1737 2034 1559 884 1100 1884 2155 1735 1210 1361 2134 2456 1881 1328 1618 2339 2634 2198 1688 1725 2490 2918 2490 1788 2109 2748 3056 2682 2170 2222 2944 3464 2875 2274 2452 3143 3543 3149 2578 2620 3422 3922 3365 2934 2989 3641 4059 3795 3025 3180 3757 4293 3885 3264 3238 4104 4570 4165 3529 3489 4270 4675 4417 3761 3816 4363 4966 4738 3990 4068 4578 5115 4923 4271 4128 4716 5060 4843 4062 3891 4390 4772 4499 3885 3598 4044 4727 4389 3571 3411 3853 4377 4038 3327 3088 3651 4239 3889 3205 2908 3440 3841 3648 3057 2610 3070 3769 3523 2824 2332 2841 3495 3309 2545 2169 2705 3290 3011 2326 1966 2378 2904 2803 2060 1620 2066 2659 2710 1883 1458 1852 2447 2430 1677 1303 1636 2313 2176 1425 959 1296 2065 2004 1353 789 1078 1712 1686 1073 558 797 92 82 95 118 95 111 100 101 104 103 96 94 91 100 107 111 105 109 110 110 95 85 108 107 100 82 81 110 90 120 82 82 110 105 90 119 99 94 98 96 102 112 97 100 102 107 91 89
232 162 203 158 153 164 218 179 226 150 166 150 203 212 230 159 161 201 214 229 181 232 227 224 213 184 177 217 158 180 238 218 240 223 192 231 197 198 233 187 184 206 187 157 153 206 171 184 240 200 182 152 159 150 240 240 205 222 249 237 162 234 195 167 175 182 218 1909 1381 1041 1265 1964 2165 1671 1155 1402 2118 2455 1902 1399 1741 2354 2638 2167 1569 1885 2622 2864 2508 1872 2060 2885 3215 2667 2074 2360 3070 3428 2896 2403 2543 3163 3743 3145 2652 2653 3447 3835 3557 2798 2908 3710 4182 3782 3162 3238 3896 4414 3963 3437 3303 4050 4544 4257 3678 3672 4323 4721 4406 3906 3895 4556 5039 4780 4055 4098 4698 5156 4896 4297 4326 4913 5554 5240 4518 4365 4975 5481 5159 4323 4082 4631 5294 4927 4225 3894 4521 4895 4678 3845 3731 4163 4727 4421 3737 3502 4048 4493 4205 3429 3202 3770 4269 4054 3359 2978 3498 3972 3802 3141 2810 3273 3800 3573 2932 2483 3035 3508 3446 2702 2242 2686 3229 3169 2424 1983 2443 3088 2962 2197 1851 2145 2800 2749 2114 1548 2048 2596 2523 1906 1387 1743 2268 2365 1548 1126 1513 2026 2062 1400 914 1274 1784 107 94 100 111 100 82 116 96 101 117 103 81 106 91 100 90 88 97 100 113 92 95 81 118 90 83 99 110 109 95 92 97 91 113 93 106 116 95 120 81 117 83 119 116 105 91 80
187 162 239 186 197 247 207 212 247 189 195 232 234 201 198 203 182 238 239 249 164 181 246 204 191 187 193 228 225 240 217 162 178 230 159 185 238 199 188 167 206 228 249 157 216 225 224 159 249 180 207 224 194 226 204 234 236 210 171 247 196 226 207 171 223 198 202 1765 1247 741 1100 1697 1990 1545 967 1219 2080 2278 1811 1215 1490 2206 2569 2133 1474 1749 2407 2735 2224 1683 1952 2724 3003 2551 2014 2130 2830 3229 2711 2133 2419 3043 3422 3017 2424 2476 3226 3688 3287 2670 2792 3460 4000 3523 2904 2972 3655 4105 3831 3231 3181 3972 4440 4103 3454 3458 4140 4678 4219 3635 3689 4414 4830 4536 3816 3851 4624 5104 4847 4126 4031 4665 5336 5023 4311 4362 4932 5390 5016 4294 3965 4619 5142 4743 4062 3839 4372 4879 4559 3877 3550 4179 4656 4415 3699 3341 3782 4345 4106 3500 3038 3586 4171 3886 3119 2800 3381 3928 3812 3026 2640 3108 3741 3577 2805 2490 2903 3437 3216 2583 2266 2514 3259 3065 2406 1860 2273 2883 2764 2218 1749 2131 2809 2677 1986 1498 1876 2531 2345 1745 1274 1602 2170 2208 1496 927 1369 2079 1997 1217 697 1038 1709 1858 96 87 120 105 107 104 101 102 103 85 96 103 93 117 116 119 99 85 105 104 82 99 110 109 81 83 83 104 86 102 82 110 81 118 91 95 116 104 114 117 82 97 82 120 99 110
163 201 196 174 166 192 220 175 246 232 205 154 152 225 214 196 170 204 230 242 224 155 208 212 236 220 207 197 160 177 224 209 180 221 227 158 223 233 172 235 240 168 189 210 249 244 240 170 222 176 167 235 152 156 196 153 224 213 191 217 182 161 181 244 229 218 222 164 869 341 554 1255 1502 970 493 820 1435 1790 1389 805 893 1627 1962 1484 978 1243 1864 2238 1778 1236 1430 2061 2581 2032 1493 1559 2304 2628 2331 1801 1734 2599 2880 2546 1845 2070 2790 3093 2724 2167 2316 2950 3519 2952 2341 2556 3116 3588 3359 2661 2651 3328 3944 3615 2870 2869 3559 4080 3724 3152 3071 3777 4270 4075 3439 3359 4081 4599 4276 3693 3672 4232 4816 4568 3798 3835 4393 4920 4609 3851 3628 4256 4637 4376 3706 3368 3904 4492 4132 3474 3140 3667 4203 4036 3141 2886 3388 3893 3766 2913 2635 3177 3678 3536 2861 2506 2973 3496 3255 2573 2192 2721 3251 3098 2253 2058 2375 3100 2810 2140 1695 2220 2821 2669 1938 1472 1851 2490 2482 1764 1292 1619 2376 2295 1424 1121 1439 2128 1938 1321 860 1158 1790 1706 987 648 920 1563 1590 894 356 688 1227 1371 114 120 110 118 86 115 99 83 95 103 116 86 107 116 100 102 98 106 93 80 80 114 91 102 92 96 109 101 111 100 82 83 90 82 101 120 120 80 97 82 91 90 89 88 104 106
232 157 168 153 233 200 232 202 218 219 209 242 218 217 242 220 224 241 188 249 172 213 205 156 151 218 219 181 175 217 177 198 232 232 208 161 230 250 177 158 169 227 171 206 154 211 231 238 228 167 199 207 210 236 178 205 173 172 174 160 199 217 181 192 190 237 155 229 232 100 164 901 1159 637 144 416 1125 1495 834 359 494 1252 1672 1127 689 707 1580 1767 1325 782 918 1795 2043 1638 975 1260 2017 2340 1826 1301 1414 2189 2484 2062 1506 1627 2289 2710 2357 1814 1906 2671 3040 2744 2040 2066 2804 3206 2950 2213 2396 3092 3548 3226 2539 2617 3142 3665 3350 2861 2738 3516 3992 3697 3069 2905 3740 4131 3936 3304 3152 3860 4456 4136 3399 3360 4152 4664 4344 3543 3272 3893 4321 4068 3357 3011 3715 4217 3838 3031 2814 3366 3964 3619 2809 2692 3025 3557 3512 2748 2317 2921 3367 3149 2361 2130 2557 3082 2966 2216 1867 2428 2897 2672 2086 1601 2160 2720 2604 1825 1350 1827 2407 2339 1591 1108 1679 2188 2141 1416 1015 1404 1954 1963 1261 722 1158 1792 1727 875 524 951 1451 1424 841 343 586 1215 1268 619 100 378 921 926 236 117 112 105 105 80 115 90 94 98 109 104 95 80 106 106 104 90 97 98 113 88 109 83 92 88 85 97 97 103 111 119 81 98 94 110 118 93 83 87 88 94 91 115 94 97
202 235 171 223 204 188 233 177 219 182 244 155 222 241 211 229 158 230 169 186 240 187 160 164 165 162 197 161 185 205 157 183 232 183 193 179 223 154 211 224 243 200 172 238 228 159 232 220 176 156 172 169 176 231 233 184 215 157 243 164 209 157 161 228 166 193 182 250 207 230 238 965 1178 631 256 483 1231 1467 955 390 505 1403 1744 1126 669 853 1553 1948 1484 951 1120 1801 2139 1724 1034 1308 1960 2279 1846 1296 1461 2184 2570 2245 1595 1599 2351 2902 2505 1887 1817 2655 3159 2662 2122 2137 2752 3270 2941 2223 2300 3145 3600 3187 2603 2597 3230 3664 3526 2839 2874 3483 4068 3692 3098 2971 3679 4135 3867 3365 3307 3942 4462 4249 3445 3465 4123 4750 4309 3740 3535 4068 4496 4213 3400 3121 3676 4326 3898 3157 2996 3456 3958 3656 3082 2697 3312 3818 3470 2723 2427 3067 3621 3288 2486 2221 2795 3345 3018 2322 2008 2568 3057 2930 2058 1767 2202 2851 2691 2005 1454 2008 2629 2377 1687 1383 1788 2251 2332 1498 1001 1550 2032 1969 1308 898 1265 1855 1850 1008 622 896 1710 1481 847 493 825 1404 1419 709 126 540 1031 1108 379 100 92 110 107 100 106 109 84 86 97 97 89 81 102 115 111 106 80 103 104 98 99 80 111 82 83 90 92 116 90 80 83 86 115 80 108 120 88 107 80 90 115 116 83 88
229 221 197 213 202 215 150 161 193 195 245 200 195 231 238 201 182 192 200 244 207 164 240 185 236 209 183 214 242 225 179 189 237 237 193 173 173 195 182 175 196 223 232 234 213 249 186 202 198 159 246 204 189 194 192 175 191 158 190 204 184 199 195 235 224 172 184 155 181 246 162 1363 1592 1035 471 785 1475 1825 1341 832 953 1825 2135 1544 995 1189 1881 2223 1785 1198 1473 2142 2633 2093 1485 1746 2353 2869 2249 1715 1785 2528 2956 2645 2088 2030 2764 3201 2888 2253 2398 3016 3524 3097 2422 2456 3238 3690 3278 2684 2704 3512 4000 3625 3053 2904 3628 4167 3763 3168 3202 3879 4418 4073 3454 3455 4004 4644 4410 3656 3671 4297 4785 4545 3891 3810 4453 5138 4923 4072 3926 4567 4909 4704 3816 3601 4308 4636 4348 3674 3399 3907 4516 4152 3389 3200 3802 4182 3926 3273 2905 3557 4012 3855 3013 2706 3155 3818 3653 2882 2516 2955 3484 3377 2546 2324 2765 3252 3248 2460 1981 2494 3077 2968 2162 1885 2297 2834 2737 2025 1548 2014 2531 2504 1776 1430 1797 2376 2358 1476 1198 1541 2158 2150 1390 838 1121 1932 1801 1161 580 957 1602 1698 1023 485 752 101 96 88 83 107 114 85 106 117 88 116 112 110 98 99 95 118 95 101 117 96 87 96 86 81 81 107 120 88 81 98 106 81 102 80 98 94 109 109 99 94 90 115
215 245 156 235 246 217 171 189 169 190 235 154 159 176 161 227 158 240 190 161 178 183 178 235 225 199 210 236 172 202 227 151 245 166 190 239 181 171 179 165 164 217 163 194 235 153 175 170 246 219 238 164 201 152 172 183 189 183 199 213 243 228 249 240 158 222 208 218 155 162 188 204 1997 1475 824 1224 1941 2193 1733 1072 1329 2078 2534 2012 1343 1625 2415 2655 2115 1644 1854 2493 2873 2436 1883 2000 2825 3063 2790 2014 2199 2993 3281 2999 2281 2352 3265 3531 3190 2558 2749 3297 3813 3481 2910 2794 3599 4099 3685 3065 3087 3799 4236 3946 3375 3394 4083 4500 4110 3506 3572 4316 4740 4443 3720 3665 4389 4966 4758 4095 3995 4564 5121 5003 4390 4127 4843 5379 5197 4520 4451 4823 5302 5067 4391 4140 4726 5215 4871 4073 3921 4469 4971 4635 3821 3546 4216 4630 4544 3728 3385 3822 4548 4131 3572 3130 3697 4195 4020 3329 2996 3324 3904 3863 3118 2672 3197 3774 3507 2766 2390 2914 3455 3400 2704 2296 2580 3285 3116 2410 2075 2368 3088 2904 2291 1853 2084 2808 2709 1932 1534 1970 2618 2442 1728 1383 1589 2358 2229 1573 1075 1417 2102 2115 1427 884 1122 1889 119 113 120 87 110 112 83 84 104 87 96 94 83 112 106 84 95 86 99 111 85 80 120 90 89 83 93 91 86 83 117 110 95 108 83 97 91 119 81 107 106 104
223 230 245 179 224 167 242 213 211 165 168 220 237 218 224 216 232 203 179 155 201 156 159 250 235 250 247 235 206 203 250 160 196 186 209 187 191 155 195 246 202 250 214 177 237 229 185 179 205 224 154 182 237 173 235 156 167 175 186 244 183 249 229 236 239 160 222 203 249 180 152 204 1932 1311 892 1121 1819 2069 1618 1141 1298 2153 2448 1916 1413 1537 2373 2591 2177 1565 1683 2464 2785 2355 1816 1964 2685 3043 2747 2041 2148 2861 3333 2911 2317 2353 3194 3465 3168 2456 2608 3337 3871 3479 2834 2838 3593 4088 3640 3077 3060 3784 4193 3961 3219 3216 4003 4506 4152 3465 3544 4101 4680 4359 3804 3724 4350 4913 4727 3911 3900 4617 5112 4975 4204 4243 4913 5448 5092 4435 4451 4926 5401 5175 4422 4190 4670 5139 4807 4129 3900 4495 5010 4768 3960 3669 4274 4702 4527 3724 3521 3914 4446 4343 3601 3101 3677 4189 3987 3213 2921 3347 4071 3904 2986 2680 3278 3742 3595 2774 2555 2896 3583 3330 2706 2220 2724 3209 3213 2484 2003 2508 3007 3057 2202 1779 2251 2704 2699 2036 1585 1856 2564 2442 1857 1385 1662 2263 2389 1580 1034 1352 1988 2136 1448 870 1247 1749 1865 85 92 120 103 106 101 84 101 93 111 118 80 119 116 80 96 90 105 117 104 116 109 103 94 104 120 113 106 106 81 87 82 114 83 112 95 92 96 96 103 111
192 160 237 235 206 185 192 216 212 163 217 163 204 176 197 180 162 198 237 209 240 246 228 155 226 194 180 198 198 157 235 166 243 232 238 214 219 176 150 248 247 218 237 243 156 248 153 199 225 232 183 176 238 210 189 207 209 219 177 194 173 163 155 179 181 204 182 158 179 162 193 164 189 886 481 714 1333 1755 1276 628 943 1528 1883 1529 945 1151 1729 2262 1798 1057 1352 2048 2456 1861 1327 1460 2323 2540 2303 1583 1780 2370 2868 2368 1933 1896 2630 3007 2701 2138 2091 2814 3254 3002 2349 2423 3071 3646 3120 2591 2602 3267 3847 3489 2773 2849 3491 4045 3633 3144 2995 3751 4218 3940 3388 3215 3897 4574 4168 3612 3421 4183 4798 4356 3707 3765 4459 4976 4764 4123 3870 4480 5135 4749 4070 3804 4320 4785 4495 3737 3528 4005 4520 4216 3555 3274 3894 4273 4067 3391 3001 3489 4146 3833 3104 2807 3213 3924 3715 2890 2530 3142 3666 3551 2798 2429 2865 3415 3183 2450 2221 2650 3107 3117 2211 1988 2349 2905 2778 2138 1571 2145 2584 2541 1880 1329 1868 2471 2355 1644 1201 1622 2119 2121 1414 905 1391 2024 2023 1131 695 1073 1627 1688 940 413 815 1382 1422 99 83 96 117 93 113 117 91 82 117 80 118 109 80 92 99 91 115 113 94 97 113 107 109 85 104 94 107 90 96 96 80 89 116 109 99 85 115 84 115 101
191 224 222 238 217 165 195 235 205 191 171 197 159 170 204 193 164 230 193 158 193 230 204 242 203 222 195 150 162 184 155 180 153 174 158 192 153 170 216 155 193 215 204 206 210 227 226 184 201 224 192 184 163 219 228 183 250 225 182 181 222 199 185 162 182 169 177 185 155 246 216 186 243 170 100 215 966 1162 749 266 317 1066 1393 922 326 711 1300 1601 1212 686 899 1560 1977 1465 850 985 1871 2151 1717 1229 1245 2016 2408 1985 1325 1410 2265 2565 2243 1645 1680 2517 2908 2511 1881 1842 2679 3038 2805 2026 2042 2768 3273 2937 2419 2436 3040 3555 3329 2637 2479 3208 3854 3433 2819 2742 3385 4061 3635 3167 3082 3694 4282 4077 3286 3222 3862 4384 4285 3620 3528 4060 4712 4447 3546 3311 3997 4513 4056 3447 3200 3599 4094 3966 3256 2892 3346 3886 3676 2889 2677 3105 3765 3582 2695 2526 2895 3476 3328 2611 2141 2762 3186 3034 2231 2019 2323 3022 2846 2123 1815 2236 2840 2545 1830 1426 1900 2614 2383 1610 1337 1678 2354 2232 1527 1086 1337 1999 2016 1310 767 1165 1816 1704 1062 667 980 1453 1445 804 348 744 1327 1359 605 100 495 1026 1141 324 112 114 103 118 110 116 100 117 87 112 103 97 108 105 81 119 118 95 107 104 105 80 97 118 97 96 84 102 92 94 120 91 95 80 116 95 108 119 84 107
180 172 191 207 207 217 197 187 214 160 221 230 198 170 203 159 162 222 230 185 229 249 214 153 225 184 158 187 250 234 217 222 211 156 207 153 243 215 169 163 169 220 208 226 177 217 214 169 249 216 241 155 237 203 151 223 210 239 222 179 175 176 229 211 161 176 236 161 249 179 233 195 163 155 218 168 879 1080 677 123 219 1065 1418 901 389 563 1325 1544 1139 507 667 1438 1796 1321 870 1045 1676 2042 1678 1122 1203 1834 2263 1796 1339 1338 2023 2536 2161 1487 1552 2373 2765 2384 1732 1917 2573 2969 2553 1984 1993 2831 3221 2810 2197 2316 2947 3554 3069 2416 2514 3099 3715 3348 2742 2644 3481 3952 3736 2931 2965 3591 4209 3930 3205 3064 3735 4363 4159 3477 3285 3970 4653 4349 3634 3305 3912 4336 4048 3274 3040 3561 4258 3896 3071 2803 3403 3982 3623 2914 2592 3089 3666 3460 2734 2412 2912 3430 3186 2559 2223 2659 3271 3080 2332 2037 2488 2908 2755 2028 1740 2227 2762 2703 1956 1503 1852 2512 2443 1572 1214 1577 2300 2213 1385 999 1381 1943 1868 1322 691 1214 1727 1684 1019 582 901 1577 1545 878 344 725 1341 1383 682 100 404 1086 1171 444 100 110 119 101 115 109 100 87 94 84 96 97 86 88 114 86 120 118 107 118 100 86 83 117 99 101 103 87 108 100 120 109 92 111 118 94 105 115 92 110
163 228 168 241 223 232 176 203 240 239 212 241 213 192 224 180 157 180 232 224 194 167 237 184 162 160 201 156 244 169 230 176 184 196 186 226 215 227 216 227 180 186 171 212 190 191 229 197 205 209 210 188 205 178 159 197 186 216 152 246 221 153 191 190 237 193 200 166 171 207 248 159 197 212 189 212 1228 1381 885 350 577 1312 1745 1286 692 775 1643 1901 1455 817 1124 1873 2221 1757 1135 1238 2056 2369 1921 1368 1404 2327 2704 2268 1629 1788 2519 2845 2573 1881 2032 2747 3145 2639 2050 2123 2852 3298 2986 2430 2325 2987 3592 3216 2679 2581 3379 3692 3519 2915 2798 3507 3952 3682 3137 3026 3622 4161 3987 3257 3320 4020 4451 4165 3573 3441 4165 4784 4451 3798 3759 4255 4889 4641 4093 3706 4309 4830 4620 3689 3627 4061 4601 4307 3503 3200 3797 4390 4077 3442 3110 3533 4120 3863 3047 2724 3353 3959 3733 2853 2604 3097 3636 3528 2672 2406 2779 3289 3302 2472 2202 2616 3197 2980 2293 1915 2278 2885 2808 2159 1621 2142 2650 2566 1813 1338 1870 2376 2418 1623 1151 1531 2199 2210 1455 1002 1288 1927 1871 1192 741 1098 1661 1801 960 606 730 1477 1447 746 300 524 101 100 103 97 92 85 95 115 109 108 106 101 114 100 92 111 85 113 80 105 120 80 111 83 92 107 85 94 115 119 115 86 111 116 117 97 120 80
196 159 153 183 240 239 199 203 210 194 172 174 170 186 209 194 213 200 154 220 217 204 162 194 226 158 185 195 208 222 250 243 216 165 202 192 158 195 183 200 237 150 250 151 158 204 242 205 225 183 170 227 224 238 171 214 195 168 226 177 172 241 184 185 244 157 159 169 213 190 176 239 196 240 199 205 225 1976 1365 860 1003 1845 2099 1563 1015 1272 1994 2294 1821 1401 1444 2307 2606 2203 1515 1724 2450 2898 2422 1738 1823 2577 3034 2720 2100 2149 2866 3322 2905 2251 2346 3046 3462 3075 2559 2593 3253 3667 3304 2751 2794 3426 3935 3614 3064 2993 3698 4203 3928 3303 3269 4013 4418 4094 3532 3432 4161 4597 4344 3784 3612 4321 4820 4693 4021 3911 4638 5163 4850 4194 4164 4711 5443 5116 4393 4358 4895 5233 5039 4368 3949 4635 4983 4711 4138 3785 4351 4864 4543 3934 3489 4050 4540 4320 3551 3384 3735 4446 4155 3337 3020 3612 4116 4010 3178 2898 3288 3803 3683 2995 2568 3097 3692 3554 2767 2353 2785 3315 3223 2656 2235 2526 3164 3088 2328 1845 2347 2908 2862 2195 1635 2018 2629 2594 2015 1526 1856 2363 2479 1752 1186 1513 2269 2166 1612 936 1347 1979 2036 1319 776 1010 1787 81 117 89 88 80 86 98 109 83 104 80 80 114 94 95 82 93 90 95 117 103 100 99 94 86 88 92 106 105 87 105 89 86 104 86 100 90
235 181 246 207 210 156 184 232 174 190 200 188 192 174 245 170 231 178 179 163 193 164 192 165 175 230 247 197 232 242 241 185 189 229 193 250 214 234 206 224 208 234 176 183 214 166 182 176 207 250 151 166 187 202 226 225 221 197 171 239 166 216 189 167 176 164 163 169 216 198 159 231 152 216 231 192 239 2033 1438 965 1085 1854 2304 1761 1156 1418 2002 2404 1934 1485 1490 2304 2714 2131 1717 1710 2448 2970 2447 1848 1982 2638 3237 2730 2090 2198 3030 3330 2879 2434 2465 3214 3574 3180 2557 2646 3415 3816 3415 2891 2856 3626 4059 3685 3180 3088 3878 4370 3976 3368 3318 4011 4461 4145 3592 3588 4301 4848 4443 3809 3821 4351 5048 4734 3998 4067 4687 5183 4938 4309 4137 4749 5482 5248 4544 4428 5011 5421 5113 4453 4172 4811 5235 4976 4240 3874 4469 4960 4669 4032 3630 4311 4694 4526 3704 3478 3921 4508 4366 3604 3322 3786 4244 4140 3450 2933 3551 4079 3924 3229 2755 3186 3809 3762 2945 2592 3007 3522 3408 2719 2214 2733 3306 3269 2570 2037 2482 3163 3034 2366 1800 2121 2879 2782 2025 1567 1897 2590 2522 1869 1455 1670 2280 2388 1717 1127 1451 2054 2103 1422 856 1271 1958 2014 86 82 82 82 85 86 116 87 116 92 83 118 85 117 117 116 84 99 100 108 97 89 110 90 88 117 97 97 80 101 92 97 84 90 96 106
191 156 196 245 238 231 211 203 233 228 204 221 156 195 154 234 151 229 247 216 243 151 207 239 222 221 197 153 229 221 236 204 199 170 166 150 230 180 174 234 173 165 235 228 219 150 177 174 155 177 248 215 169 234 194 174 153 190 195 194 159 162 166 172 166 160 212 168 155 171 182 196 226 178 207 247 191 227 1176 530 709 1451 1846 1373 754 1087 1762 1982 1657 1045 1195 1876 2306 1925 1360 1384 2228 2520 2075 1464 1569 2428 2688 2382 1703 1875 2553 2932 2661 2043 2030 2894 3148 2952 2185 2253 3061 3450 3179 2530 2571 3121 3780 3433 2671 2788 3376 3958 3574 2902 2956 3608 4200 3833 3118 3252 3804 4357 4118 3539 3367 3969 4658 4386 3804 3676 4365 4915 4658 3977 3775 4511 5018 4857 4144 4089 4621 5238 4801 4119 3849 4408 4872 4586 3843 3596 4256 4748 4532 3784 3353 3982 4498 4231 3528 3272 3761 4260 4111 3202 2869 3458 4045 3775 3019 2819 3163 3731 3703 2918 2420 2899 3562 3383 2594 2323 2702 3305 3176 2351 1990 2376 3080 3045 2189 1893 2142 2737 2650 2066 1622 1880 2614 2447 1815 1331 1649 2210 2396 1564 1163 1450 2034 2132 1470 808 1112 1882 1759 1220 743 1012 1501 1624 86 93 93 80 98 109 111 106 104 104 107 88 104 104 104 106 114 114 88 106 102 89 84 109 117 82 92 102 102 97 111 87 111 105 95 83
194 215 200 195 221 213 218 216 156 208 197 168 240 240 211 197 151 192 151 173 167 198 156 243 196 225 176 152 219 206 217 161 183 199 181 234 156 211 230 249 207 244 167 248 218 213 216 211 246 248 211 218 204 228 159 236 226 241 166 174 152 221 152 241 221 200 201 218 176 227 176 197 185 188 167 207 185 216 179 100 282 988 1329 924 254 564 1156 1664 1147 517 706 1502 1708 1281 863 973 1686 2121 1642 1070 1182 1879 2288 1777 1187 1258 2091 2421 2171 1515 1611 2201 2748 2376 1714 1690 2469 2876 2617 1999 2030 2640 3113 2818 2225 2139 2829 3446 3084 2558 2403 3135 3651 3378 2612 2660 3249 3814 3649 2867 2829 3494 4086 3755 3292 3083 3852 4291 4170 3424 3366 4045 4467 4331 3594 3544 4242 4785 4406 3625 3367 4022 4584 4178 3441 3147 3788 4298 4061 3263 2998 3399 4065 3886 3063 2667 3202 3766 3700 2836 2540 2949 3615 3402 2579 2290 2686 3360 3174 2399 2109 2552 3023 2924 2134 1791 2193 2921 2733 1944 1503 2009 2597 2568 1735 1260 1672 2346 2278 1517 1218 1416 2116 2062 1300 830 1218 1908 1795 1205 645 1016 1636 1625 881 448 811 1375 1346 771 292 443 1064 1260 438 81 101 84 118 89 89 95 111 107 114 89 93 87 101 90 81 105 104 102 80 102 88 81 92 112 104 98 99 104 99 118 114 92 81 105
233 216 206 192 155 162 218 218 221 197 246 179 212 213 161 173 228 167 181 178 203 155 219 171 240 241 202 230 172 218 204 195 207 174 217 151 170 203 232 155 176 213 186 237 212 223 244 212 221 229 244 177 154 150 154 189 233 241 182 246 159 238 198 175 213 243 213 223 188 245 206 242 222 208 189 188 222 213 173 207 109 791 1157 675 100 186 917 1311 827 325 445 1288 1670 1165 626 705 1512 1821 1462 774 805 1732 2079 1681 1120 1182 1898 2173 1788 1287 1422 2147 2564 2087 1596 1529 2260 2777 2466 1726 1733 2435 3045 2542 1933 1997 2600 3240 2859 2156 2291 2942 3355 3174 2555 2379 3141 3673 3399 2669 2645 3316 3878 3623 3038 2800 3443 4110 3856 3127 3189 3715 4319 4084 3530 3397 3872 4626 4280 3521 3386 3873 4266 4064 3405 3132 3579 4200 3850 3236 2887 3350 3930 3687 2957 2530 3088 3562 3428 2719 2294 2798 3439 3195 2548 2108 2500 3254 2933 2363 1978 2298 3032 2899 2094 1773 2086 2776 2647 1782 1463 1763 2504 2430 1557 1146 1568 2288 2248 1446 975 1387 2020 2010 1159 826 1155 1782 1618 966 534 766 1521 1496 717 233 689 1308 1254 555 114 420 987 998 323 100 84 117 110 97 95 120 87 118 96 112 119 104 109 100 85 91 95 118 110 93 115 94 116 115 85 82 85 119 84 82 85 83 116 106
224 235 204 167 242 185 250 227 237 198 168 164 214 195 234 231 196 192 164 245 151 155 198 160 208 223 218 192 155 232 208 215 213 157 170 240 232 152 227 200 219 191 203 165 213 175 228 160 151 185 183 230 167 247 163 181 162 218 217 198 191 190 199 171 207 228 207 243 175 214 153 244 185 206 245 151 203 193 248 183 188 1052 1434 868 366 445 1147 1558 1192 609 803 1401 1874 1440 756 849 1721 1971 1597 1002 1129 1896 2306 1924 1159 1444 2172 2531 2093 1531 1489 2194 2685 2302 1716 1851 2468 2919 2621 2081 2106 2645 3163 2792 2161 2261 3001 3380 3168 2424 2509 3103 3583 3357 2741 2590 3307 3846 3536 2999 2957 3595 4195 3950 3195 3136 3821 4266 4092 3453 3273 4060 4544 4443 3759 3595 4251 4714 4522 3957 3641 4138 4642 4386 3579 3377 3912 4356 4155 3451 3186 3731 4183 4063 3164 2831 3413 3960 3795 3117 2605 3159 3798 3603 2814 2421 2863 3466 3283 2659 2317 2685 3221 3089 2346 2047 2468 2981 2984 2095 1789 2107 2807 2777 1984 1443 1883 2586 2377 1659 1212 1735 2246 2318 1476 1085 1376 1961 1977 1289 794 1064 1706 1744 1150 629 830 1464 1608 948 328 746 1255 1290 729 104 457 95 107 106 87 102 104 106 103 106 88 116 108 94 80 115 82 86 94 115 105 98 94 120 104 104 90 86 107 102 84 103 83 109
195 217 200 224 213 237 172 189 235 162 221 200 177 183 175 188 230 230 167 209 208 198 184 236 240 179 171 241 150 186 152 189 206 171 229 171 241 164 208 163 173 167 212 204 222 180 216 228 236 240 189 151 235 228 217 250 156 221 163 207 158 177 248 215 158 158 216 155 197 225 184 150 193 189 150 183 186 206 164 178 189 198 1695 1245 716 1024 1723 1994 1460 881 1202 1825 2202 1852 1146 1334 2071 2539 2126 1459 1593 2270 2667 2377 1623 1888 2465 3043 2477 1956 1969 2711 3212 2859 2223 2280 2848 3368 2996 2385 2398 3237 3703 3272 2572 2758 3273 3800 3642 2886 2960 3547 4040 3814 3114 3042 3885 4410 4014 3404 3301 3938 4472 4204 3547 3581 4291 4736 4640 3970 3867 4371 5097 4818 4063 3900 4693 5239 5108 4340 4208 4640 5186 4895 4171 3872 4414 4901 4738 4025 3657 4179 4813 4498 3660 3508 3940 4408 4342 3501 3270 3593 4155 4121 3251 3010 3363 4025 3874 3201 2767 3251 3847 3662 2935 2602 3016 3461 3448 2684 2319 2751 3208 3289 2491 1940 2484 3021 3057 2314 1724 2184 2776 2726 2044 1523 1903 2457 2552 1834 1326 1685 2338 2347 1686 1204 1520 2040 2074 1490 872 1201 1759 1795 1261 616 1003 1568 87 86 101 95 113 92 112 107 95 104 91 81 106 87 93 99 112 101 117 103 80 84 95 92 120 90 107 84 101 96 107 101
168 236 240 240 181 172 199 152 219 168 185 182 206 167 201 232 163 160 229 150 191 211 209 228 162 161 214 235 228 193 247 196 158 235 155 244 211 240 163 184 239 178 163 156 242 204 174 206 220 177 197 165 232 221 192 161 234 236 224 194 154 164 217 211 241 232 224 155 236 226 241 175 155 211 228 159 225 223 232 158 245 220 1980 1468 1048 1060 1927 2168 1813 1131 1262 2097 2388 1969 1452 1627 2318 2681 2284 1574 1741 2573 2842 2608 1997 1945 2820 3200 2725 2053 2202 2982 3477 2993 2350 2346 3068 3652 3223 2733 2637 3384 3901 3526 2839 2902 3663 4163 3843 3030 3013 3811 4248 3914 3371 3334 3987 4494 4347 3569 3637 4187 4796 4413 3859 3746 4482 4893 4706 4064 3930 4650 5207 4954 4292 4277 4824 5452 5313 4513 4456 4908 5505 5296 4464 4165 4762 5179 4930 4213 3970 4535 5024 4871 4123 3804 4151 4840 4616 3908 3426 4015 4586 4265 3711 3166 3716 4223 4197 3495 3121 3554 3971 3926 3185 2882 3211 3764 3704 3070 2616 2998 3479 3443 2730 2297 2731 3293 3185 2624 2124 2376 3178 3037 2375 1851 2288 2874 2826 2150 1692 1943 2539 2524 1976 1435 1651 2326 2296 1665 1155 1493 2026 2201 1559 938 1221 1952 1899 86 90 80 96 89 110 81 85 81 114 116 87 107 119 97 82 87 81 111 108 112 110 106 81 107 116 85 100 120 101 95
194 167 214 156 228 210 200 203 165 177 152 215 154 232 202 153 187 167 170 250 150 247 231 223 199 151 231 152 180 206 162 234 237 204 198 160 156 192 247 215 191 171 174 245 210 225 150 200 246 163 159 196 152 173 169 215 205 213 246 161 205 197 162 176 197 219 211 236 206 165 153 156 172 167 214 227 237 163 210 222 166 155 228 1335 776 954 1621 1932 1546 1024 1002 1875 2249 1775 1157 1320 1991 2476 1948 1403 1526 2258 2713 2337 1701 1732 2411 2893 2591 1961 2033 2634 3143 2718 2140 2191 2969 3280 2999 2316 2324 3113 3525 3184 2567 2533 3252 3735 3517 2905 2763 3577 4024 3661 3042 3025 3790 4331 3979 3422 3375 3873 4473 4248 3664 3561 4180 4697 4532 3853 3697 4371 5056 4840 4060 4011 4605 5229 4935 4410 4154 4815 5264 5002 4335 3928 4475 5059 4746 4076 3800 4359 4753 4521 3783 3584 3994 4662 4442 3662 3360 3739 4307 4080 3416 3160 3542 4081 3995 3156 2776 3274 3862 3842 3017 2688 3000 3696 3538 2801 2384 2853 3302 3334 2522 2135 2498 3102 3130 2428 1860 2249 2849 2969 2234 1759 2079 2635 2733 1993 1498 1827 2452 2445 1684 1276 1565 2223 2265 1490 1038 1312 1920 1993 1318 714 1134 1700 1863 103 82 96 113 93 110 84 86 100 85 93 115 107 109 106 109 117 85 85 83 87 97 105 93 87 80 92 106 83 89 112
212 168 189 150 180 221 197 179 168 243 197 216 235 184 197 227 171 218 196 158 219 176 215 189 187 238 233 210 213 207 191 200 216 244 189 164 232 234 177 229 220 221 193 167 161 157 191 188 246 216 203 201 234 225 154 174 219 158 166 241 245 179 164 207 159 231 219 219 169 158 172 247 203 208 168 223 186 224 238 219 218 226 190 202 132 427 1120 1357 996 436 624 1380 1672 1189 737 779 1572 1893 1496 883 966 1824 2242 1666 1113 1231 2060 2310 2088 1427 1425 2212 2569 2253 1621 1634 2404 2856 2492 1812 1886 2536 3161 2823 2166 2166 2712 3252 2996 2351 2236 2952 3591 3227 2544 2540 3230 3745 3491 2918 2763 3421 3908 3828 3161 3090 3744 4247 3947 3319 3150 3879 4481 4177 3549 3379 3994 4761 4425 3815 3629 4219 4890 4700 3850 3503 4046 4705 4324 3643 3401 3802 4355 4262 3511 3051 3545 4097 4008 3143 2828 3273 3928 3791 3090 2635 3121 3592 3440 2803 2390 2773 3366 3334 2589 2079 2517 3101 3089 2378 2016 2278 3047 2832 2246 1777 2188 2612 2697 1966 1528 1794 2385 2494 1813 1327 1564 2158 2157 1420 1023 1441 1917 1925 1249 747 1186 1647 1746 1049 535 805 1526 1505 798 241 609 1257 1360 654 85 88 99 104 109 110 87 113 108 86 104 111 112 113 89 104 86 102 102 103 114 87 116 99 119 104 95 115 117 89
208 208 191 232 217 237 196 214 154 188 208 174 217 152 161 160 170 151 247 204 247 189 182 174 233 208 222 187 195 162 245 219 165 221 195 185 172 249 188 234 196 243 150 163 162 236 237 239 232 172 219 157 189 246 228 227 233 199 154 231 159 207 218 163 249 208 243 158 178 153 225 188 158 249 170 227 219 170 160 231 186 223 159 211 192 100 730 1038 624 153 321 982 1269 981 406 485 1251 1559 1056 461 681 1395 1807 1408 736 859 1681 1989 1724 1130 1173 1822 2203 1927 1294 1286 2125 2534 2209 1461 1538 2166 2725 2318 1698 1756 2435 3009 2664 1973 2027 2770 3199 2947 2269 2134 2972 3366 3129 2574 2432 3146 3626 3389 2724 2711 3378 3915 3743 3027 2894 3513 4122 3939 3315 3113 3662 4251 4126 3399 3373 3964 4595 4290 3591 3317 3904 4388 4185 3394 2998 3579 4142 3904 3169 2937 3249 3878 3793 2981 2573 2998 3561 3453 2691 2397 2785 3423 3335 2477 2145 2609 3229 3009 2267 1873 2272 2886 2850 2143 1670 2038 2749 2547 1884 1417 1881 2501 2457 1748 1280 1505 2177 2259 1414 916 1308 2018 1934 1335 807 1007 1659 1637 1073 559 918 1448 1604 877 309 551 1323 1204 561 148 431 891 1088 460 100 90 116 116 111 84 81 104 103 100 117 97 86 81 89 81 88 119 91 83 120 100 80 98 82 104 109 91 104 109
217 188 244 171 245 244 179 182 201 238 219 169 202 190 239 211 224 176 185 190 172 192 217 205 178 215 187 188 248 201 225 224 203 205 201 195 151 244 224 174 206 165 229 191 221 170 189 170 183 217 239 218 234 164 176 222 183 200 214 240 154 216 207 200 232 169 238 216 230 222 193 183 239 154 152 185 182 151 232 184 200 155 154 200 204 166 902 1141 759 278 394 1175 1445 1095 355 483 1301 1774 1335 671 882 1481 1961 1464 1001 1024 1760 2156 1837 1086 1297 1999 2329 2104 1427 1495 2213 2562 2262 1643 1581 2436 2877 2590 1857 1831 2664 3151 2673 2199 2038 2766 3323 3087 2368 2277 3037 3516 3352 2637 2579 3225 3728 3469 2909 2780 3384 3896 3786 3141 2937 3661 4241 4085 3305 3274 3833 4434 4224 3570 3429 4118 4621 4499 3806 3462 4095 4516 4316 3614 3191 3733 4337 4020 3338 2975 3582 4045 3884 3213 2868 3182 3774 3622 3021 2521 2949 3557 3361 2675 2247 2691 3395 3205 2555 2090 2426 3126 2937 2271 1858 2238 2971 2800 2084 1543 2055 2617 2564 1926 1373 1739 2438 2441 1684 1195 1466 2099 2076 1393 981 1179 1853 1849 1178 650 942 1766 1607 1096 424 864 1348 1439 876 284 614 1113 1179 606 100 305 104 98 91 87 100 113 83 120 101 94 101 87 82 112 91 104 92 81 84 118 118 113 119 98 97 93 90 115
223 249 188 231 168 175 240 179 208 213 152 236 184 246 220 152 205 242 226 250 163 163 166 231 227 217 243 195 240 225 172 175 186 192 190 191 197 231 213 179 246 169 191 163 154 163 189 166 219 201 162 188 240 200 163 211 177 153 220 190 177 164 182 197 242 187 171 156 183 200 220 160 178 215 202 234 219 180 172 237 243 167 225 197 157 205 237 1661 1229 646 721 1468 1814 1399 933 1037 1756 2037 1787 1009 1294 1921 2289 1894 1416 1525 2187 2650 2151 1516 1692 2344 2863 2345 1785 1801 2673 3148 2630 2051 2040 2741 3345 2847 2354 2385 3043 3446 3150 2500 2589 3314 3796 3427 2741 2654 3495 3880 3774 3057 3025 3600 4140 3887 3248 3268 3903 4366 4216 3522 3451 3973 4643 4409 3859 3739 4197 4927 4649 4056 3885 4456 5095 4831 4255 3936 4621 5061 4833 4001 3682 4251 4908 4613 3778 3507 4069 4640 4374 3565 3259 3825 4315 4137 3423 3142 3606 4178 3895 3207 2883 3219 3892 3723 2950 2630 3096 3651 3486 2757 2389 2799 3360 3376 2603 2071 2435 3156 2993 2277 1847 2225 2928 2855 2066 1747 1965 2755 2664 1860 1451 1701 2432 2523 1783 1263 1549 2237 2196 1434 1023 1345 1849 1969 1352 784 1048 1765 1794 1191 582 685 1397 101 85 81 97 120 112 112 105 87 112 105 110 99 110 102 118 117 101 81 85 90 84 120 91 95 97 81
179 184 151 160 176 179 154 235 238 193 219 183 184 209 207 243 247 235 185 246 200 168 173 250 197 154 192 244 179 196 158 208 156 211 231 150 214 172 195 169 174 170 205 192 151 208 163 229 185 181 226 218 196 207 172 170 238 239 235 150 187 230 166 221 212 188 165 199 157 162 245 183 243 186 159 209 165 239 227 155 169 204 217 184 210 227 161 1887 1443 946 1094 1858 2160 1723 1178 1254 2137 2427 1950 1340 1456 2348 2623 2169 1640 1836 2506 2931 2503 1902 1875 2642 3115 2657 2082 2100 2959 3329 2980 2398 2360 3138 3603 3165 2629 2683 3404 3822 3585 2826 2839 3456 4016 3688 3061 3150 3722 4348 3975 3255 3236 3968 4507 4255 3519 3483 4153 4699 4480 3867 3686 4336 4939 4758 4034 3876 4563 5118 5070 4428 4195 4893 5359 5243 4650 4488 4959 5458 5130 4483 4224 4732 5137 4977 4220 3892 4447 5058 4728 4071 3607 4100 4737 4493 3852 3547 4005 4470 4335 3590 3133 3601 4311 4085 3426 3074 3456 4014 3940 3119 2799 3166 3823 3624 2981 2598 2863 3580 3525 2688 2203 2727 3284 3336 2546 2081 2359 3083 3009 2248 1927 2254 2763 2843 2220 1643 1930 2530 2522 1979 1425 1579 2215 2452 1700 1196 1422 2053 2174 1556 846 1221 1776 1833 116 109 100 109 112 111 85 102 81 93 111 119 89 93 91 115 106 83 114 112 98 83 92 105 96 107
236 178 174 190 159 197 179 224 216 249 168 219 215 173 250 237 165 217 223 219 167 212 156 162 151 209 236 229 206 219 221 233 188 204 189 242 163 245 249 166 213 150 231 193 155 166 237 241 181 234 242 185 150 214 209 198 184 196 208 243 187 207 183 189 179 168 246 220 224 216 181 215 241 245 187 172 210 173 189 161 186 220 192 164 193 197 233 154 1401 787 1026 1745 1982 1553 1146 1152 1888 2379 1860 1386 1316 2230 2540 2084 1466 1527 2315 2741 2366 1848 1820 2471 3049 2647 2033 2055 2859 3216 2797 2174 2281 3044 3549 3195 2416 2400 3098 3763 3447 2766 2647 3463 3989 3600 3028 2910 3599 4246 3852 3264 3168 3801 4418 4131 3420 3455 4037 4566 4471 3814 3521 4345 4807 4706 3939 3881 4378 5156 4828 4287 4063 4751 5185 5065 4446 4207 4943 5483 5189 4320 4073 4695 5139 4924 4126 3805 4306 4959 4634 4011 3733 4066 4606 4612 3855 3384 3839 4527 4265 3526 3205 3667 4194 4016 3423 3006 3365 3957 3763 3056 2616 3049 3648 3638 2927 2497 2863 3437 3326 2697 2238 2672 3168 3115 2403 2050 2296 2943 2920 2244 1714 2161 2665 2848 2004 1593 1857 2498 2521 1771 1365 1688 2350 2358 1622 1177 1374 2010 2142 1513 797 1081 1791 1958 89 113 116 95 120 106 115 102 114 111 117 109 96 91 114 107 96 114 93 90 92 86 117 113 119 84
222 249 209 232 241 168 227 178 193 230 214 176 171 220 150 208 208 227 185 226 168 193 208 173 215 235 211 237 194 183 215 223 241 223 202 211 231 170 245 244 198 200 205 231 171 193 169 193 234 196 204 234 161 188 228 177 208 229 160 171 160 220 208 165 167 181 171 210 245 211 178 224 204 223 198 163 203 163 193 235 238 180 244 221 158 218 199 244 151 288 533 1215 1508 1136 531 717 1497 1921 1378 879 884 1631 2074 1698 1057 1224 1774 2224 1807 1313 1434 2099 2474 2124 1514 1555 2224 2818 2401 1831 1769 2579 3047 2685 2029 2078 2775 3150 2904 2250 2144 2858 3451 3060 2500 2467 3142 3671 3390 2790 2667 3371 3983 3725 3019 2846 3535 4095 3984 3196 3129 3748 4432 4149 3430 3446 3946 4584 4436 3649 3486 4183 4871 4652 4008 3745 4380 5072 4811 3946 3621 4151 4730 4579 3760 3487 3929 4609 4356 3554 3207 3688 4377 4065 3446 2948 3516 3965 3808 3127 2733 3212 3712 3755 2923 2444 2989 3544 3557 2775 2397 2760 3292 3277 2547 2117 2385 3011 2979 2243 1948 2140 2774 2844 2030 1604 2060 2538 2673 1857 1359 1773 2378 2375 1626 1086 1534 2160 2061 1413 960 1241 1949 1992 1265 690 1018 1557 1611 1094 556 705 1427 1423 862 100 105 115 87 105 95 87 86 111 115 119 107 115 101 117 82 120 102 104 89 109 119 109 109 86
169 218 249 188 185 173 223 213 246 224 231 228 187 202 206 246 217 220 192 181 221 213 179 230 168 178 194 184 180 239 166 182 218 210 187 245 209 227 171 188 229 211 243 224 222 220 209 195 176 243 215 238 198 154 168 215 211 236 244 161 217 170 198 215 153 159 198 197 206 168 246 168 157 173 161 181 208 175 175 235 196 194 153 182 150 177 227 187 249 199 100 716 1222 672 100 203 1027 1427 930 286 491 1259 1635 1138 679 656 1375 1833 1561 915 967 1676 2038 1742 1056 1062 1850 2329 2015 1262 1332 2084 2589 2296 1617 1652 2236 2862 2376 1876 1866 2418 2929 2654 2011 2030 2667 3262 2931 2347 2192 2978 3501 3173 2541 2564 3176 3649 3431 2728 2614 3327 3933 3686 3043 2817 3617 4243 3912 3389 3079 3808 4464 4199 3579 3304 3890 4605 4299 3654 3333 3843 4339 4204 3339 3150 3524 4154 3991 3270 2898 3434 3895 3745 2928 2676 3011 3757 3448 2736 2363 2930 3524 3302 2621 2248 2520 3151 3172 2353 2049 2282 2950 2920 2256 1626 2111 2794 2651 1851 1414 1758 2507 2380 1754 1250 1580 2256 2247 1444 1055 1414 1896 2036 1277 818 1174 1768 1833 1166 608 930 1566 1568 819 291 618 1259 1416 766 202 421 973 1091 421 100 89 113 100 87 89 104 98 103 116 93 96 106 92 110 120 99 103 106 102 88 117 120 83 110
189 170 181 225 157 212 177 198 204 175 193 233 204 218 176 249 164 226 163 199 245 244 175 213 212 231 153 229 182 199 174 211 162 228 163 177 182 249 232 188 210 157 168 244 172 189 220 159 182 170 157 223 181 150 179 179 170 236 229 180 160 196 176 238 185 204 201 205 173 214 235 200 185 197 190 152 155 160 217 167 214 172 151 184 211 233 221 161 168 174 184 783 1158 701 143 225 967 1450 1034 294 560 1107 1594 1197 631 636 1357 1788 1381 825 920 1704 2015 1655 1101 1105 1867 2216 1845 1219 1253 1971 2522 2198 1550 1590 2168 2662 2524 1836 1798 2470 2948 2767 2125 2062 2655 3256 2938 2238 2316 2928 3376 3117 2546 2531 3054 3588 3429 2786 2707 3311 3825 3719 2968 2869 3589 4050 3870 3275 3127 3669 4433 4171 3615 3294 3958 4576 4367 3638 3328 3960 4365 4222 3552 3098 3711 4192 4037 3202 3043 3315 3988 3765 2986 2758 3082 3830 3666 2893 2563 2922 3587 3324 2624 2242 2619 3194 3211 2420 1999 2388 3001 3015 2173 1879 2145 2748 2773 2029 1449 1872 2554 2476 1824 1419 1670 2237 2380 1645 1073 1427 1986 1971 1412 765 1226 1753 1917 1104 725 988 1468 1662 932 471 756 1300 1344 749 190 415 1128 1202 524 100 113 81 92 120 115 119 115 85 85 90 119 120 99 105 90 94 83 105 98 93 85 99 86 87
165 201 186 244 239 186 203 192 183 201 174 250 205 221 249 234 243 167 177 199 165 162 231 157 163 176 165 164 161 204 178 197 199 214 215 221 164 190 239 225 190 199 199 244 243 244 188 183 242 212 200 195 165 195 236 178 220 194 211 173 175 241 172 162 175 175 168 187 229 150 238 233 175 222 180 242 162 212 194 188 174 238 194 193 167 171 172 232 219 207 218 155 1617 1076 522 586 1365 1675 1363 655 748 1651 2045 1487 895 1127 1789 2312 1868 1136 1275 2030 2477 2046 1439 1540 2249 2631 2317 1593 1649 2374 2833 2549 1999 1888 2565 3114 2820 2170 2141 2938 3414 3055 2357 2323 3079 3679 3355 2679 2646 3192 3760 3544 2886 2772 3527 4093 3845 3151 2993 3636 4367 3999 3332 3314 3996 4526 4381 3582 3496 4097 4803 4646 3837 3776 4383 5019 4718 4093 3906 4338 4935 4635 3890 3550 4020 4682 4554 3671 3295 3925 4495 4277 3517 3213 3700 4139 4075 3332 3008 3383 3981 3909 3146 2778 3129 3674 3676 2898 2422 2843 3459 3329 2691 2299 2550 3242 3260 2357 1959 2307 3059 3036 2259 1844 2180 2768 2824 2041 1482 1813 2459 2561 1802 1244 1538 2274 2356 1573 1172 1343 2065 2042 1410 856 1048 1771 1813 1187 725 973 1577 1633 966 416 607 1184 108 114 99 87 102 120 83 97 104 101 104 119 85 105 93 99 119 107 111 86 89 104
231 192 221 231 249 171 161 158 192 194 237 207 172 193 191 228 234 186 236 188 182 158 171 183 151 213 204 179 195 177 167 181 235 218 184 223 160 184 231 156 225 190 226 224 170 240 205 244 223 225 167 157 244 209 195 209 221 233 205 154 160 210 171 227 165 232 193 201 210 231 232 221 176 159 240 200 159 163 152 172 201 242 165 180 216 173 153 243 179 228 210 156 1951 1552 976 977 1828 2138 1651 1195 1178 1892 2413 1879 1434 1480 2128 2653 2120 1647 1703 2395 2809 2368 1935 1908 2695 2981 2712 2163 2146 2732 3273 3022 2239 2380 2932 3445 3265 2516 2522 3289 3791 3537 2719 2845 3480 3930 3670 3148 2938 3626 4246 4029 3214 3127 3883 4458 4200 3631 3461 4006 4569 4356 3699 3685 4298 4929 4719 4079 3806 4504 5087 5015 4323 4202 4805 5397 5279 4513 4364 4795 5343 5068 4487 4149 4572 5158 4963 4140 3820 4348 4999 4719 3934 3597 4022 4682 4547 3856 3472 3778 4442 4282 3499 3146 3538 4091 4038 3288 2833 3356 4012 3819 3190 2662 3179 3671 3592 2846 2487 2921 3502 3505 2626 2159 2517 3221 3283 2542 2092 2286 2900 2981 2203 1857 2109 2643 2664 2018 1644 1876 2424 2440 1946 1380 1510 2294 2290 1697 1192 1373 1971 2120 1368 912 1023 1672 1817 80 82 87 95 104 88 101 91 91 94 91 93 91 83 80 85 92 113 97 107 80
158 246 204 233 179 249 174 187 204 214 215 231 203 160 160 233 222 239 238 232 230 230 200 240 250 155 223 247 187 222 207 203 243 193 176 151 228 182 196 206 236 212 249 218 201 222 222 171 200 250 167 194 248 166 161 233 172 162 179 150 219 210 213 228 206 165 172 239 173 204 161 212 157 165 194 183 209 229 226 175 226 238 233 166 186 235 162 160 164 199 173 239 192 1415 918 980 1813 2064 1694 1195 1199 2016 2368 1954 1355 1527 2246 2518 2148 1521 1692 2424 2844 2399 1843 1888 2661 2991 2749 2178 2081 2918 3231 2961 2256 2299 3074 3571 3260 2561 2623 3165 3784 3481 2906 2788 3529 3989 3761 3115 2933 3635 4229 3992 3391 3285 3918 4380 4201 3575 3485 4072 4585 4425 3763 3593 4279 4997 4607 4095 3802 4548 5132 4976 4333 4087 4702 5348 5234 4558 4419 4832 5376 5331 4585 4172 4694 5244 5008 4261 3969 4348 4902 4911 4046 3800 4267 4672 4560 3865 3457 3982 4470 4447 3603 3203 3705 4355 4229 3359 3067 3419 4012 3998 3234 2723 3109 3694 3638 2941 2529 2829 3451 3445 2892 2270 2701 3356 3348 2626 2110 2397 3118 3008 2384 1879 2234 2860 2855 2101 1580 1870 2626 2635 2037 1357 1752 2236 2386 1791 1260 1474 2013 2237 1561 933 1133 1877 2034 117 82 89 92 110 93 120 119 116 101 80 114 113 115 115 86 110 105 119 101 96
235 174 230 206 196 205 206 215 184 182 196 167 223 203 163 212 172 250 187 157 209 205 224 243 242 248 225 243 152 208 210 243 176 197 242 171 192 199 166 190 210 182 214 153 172 191 213 242 193 170 232 231 160 238 187 188 237 242 204 175 173 210 250 193 172 222 219 216 177 160 215 219 166 161 209 182 219 154 162 230 202 183 222 218 226 173 187 227 156 224 160 240 243 186 542 644 1345 1688 1219 709 881 1614 1936 1535 1051 1006 1811 2139 1809 1197 1205 1977 2468 2078 1514 1405 2281 2598 2217 1709 1629 2324 2947 2588 1973 1987 2577 3166 2826 2249 2242 2895 3428 3095 2400 2451 3044 3648 3358 2754 2618 3331 3903 3632 2908 2903 3498 4029 3867 3166 3016 3704 4212 4063 3370 3224 3833 4393 4340 3647 3463 4064 4709 4595 3967 3800 4359 4894 4785 4109 3954 4441 5204 4974 4220 3921 4291 4938 4755 3926 3616 4089 4657 4487 3639 3330 3914 4342 4236 3554 3066 3669 4110 4120 3376 2979 3305 3841 3880 3153 2765 3074 3776 3695 2852 2497 2925 3405 3469 2721 2186 2595 3248 3160 2399 2047 2319 2904 3020 2318 1740 2061 2655 2764 1966 1575 1900 2387 2587 1907 1402 1686 2253 2385 1544 1096 1351 1920 1972 1336 910 1046 1652 1924 1154 593 880 1593 1682 1014 104 112 81 91 111 119 83 85 111 112 103 104 87 104 115 98 98 108 81 104
222 233 198 217 230 165 231 249 187 156 191 150 173 189 239 207 189 172 240 193 150 228 203 197 197 228 219 192 178 216 196 198 161 226 157 230 150 243 192 239 234 219 180 202 158 241 223 186 181 222 153 222 227 162 168 166 161 193 182 241 224 201 201 178 212 171 250 162 226 184 231 160 192 212 250 201 231 156 231 207 152 207 239 206 161 232 200 239 159 215 151 196 195 245 238 100 827 1269 885 243 265 979 1383 1106 388 566 1233 1812 1234 681 803 1574 1901 1585 997 1047 1661 2087 1749 1102 1243 1881 2353 2090 1511 1479 2155 2542 2284 1733 1571 2303 2845 2650 1944 1958 2628 3086 2730 2248 2004 2854 3385 3021 2343 2240 2941 3585 3404 2636 2466 3136 3848 3624 2919 2722 3461 3953 3767 3147 3026 3651 4294 4043 3376 3214 3780 4488 4328 3610 3511 3942 4747 4487 3653 3432 3880 4556 4365 3438 3199 3627 4234 4107 3364 2875 3318 3921 3851 3086 2802 3091 3809 3600 2897 2470 2969 3609 3379 2751 2188 2693 3372 3251 2415 2123 2397 3047 3019 2328 1747 2248 2788 2686 2026 1625 1902 2555 2574 1912 1434 1604 2321 2342 1688 1042 1413 2102 2102 1338 848 1075 1902 1820 1165 614 951 1666 1605 963 500 632 1343 1455 884 122 519 1155 1167 544 100 120 107 111 112 92 101 113 109 110 106 90 106 104 93 88 105 102 88 97
192 213 215 222 231 194 176 230 217 237 196 224 225 211 225 160 158 220 196 166 170 245 158 208 159 158 237 224 242 179 151 206 165 248 238 223 239 239 231 184 178 200 218 181 178 178 249 194 154 183 170 161 240 217 196 157 235 216 202 204 150 156 238 153 159 153 212 176 233 173 171 153 196 242 183 154 175 165 152 210 169 238 231 194 231 243 194 193 201 178 173 237 180 207 152 155 726 1018 737 156 101 939 1383 984 283 355 1114 1462 1245 530 619 1336 1754 1360 718 843 1455 2009 1749 1073 1148 1715 2236 1882 1212 1222 1931 2534 2129 1508 1500 2283 2797 2464 1696 1667 2493 3016 2679 1992 1893 2568 3245 2966 2228 2163 2820 3422 3201 2520 2352 3132 3536 3411 2660 2556 3223 3850 3671 2920 2765 3405 4108 3962 3202 3133 3715 4190 4148 3581 3187 3975 4599 4286 3694 3271 3757 4346 4214 3412 3165 3514 4109 3921 3301 2851 3305 3999 3712 3112 2604 3018 3664 3540 2890 2376 2770 3440 3250 2655 2096 2547 3143 3085 2407 1905 2328 2859 2930 2187 1672 2021 2685 2683 1954 1401 1782 2528 2474 1670 1201 1673 2235 2155 1515 1048 1414 2018 2045 1291 893 1109 1840 1775 1133 559 927 1423 1499 1010 278 697 1244 1386 635 190 425 1024 1146 423 100 124 93 116 95 103 107 85 83 93 100 93 89 96 101 111 96 88 118 107
202 201 191 180 197 208 199 163 228 193 219 238 236 219 165 189 238 173 232 244 229 170 230 219 192 164 197 171 167 231 212 198 155 152 197 232 224 224 168 227 248 171 205 206 245 182 250 243 171 169 243 208 211 218 221 243 200 232 185 150 160 231 244 206 212 250 161 161 194 196 234 241 230 171 178 234 194 249 171 217 236 181 159 239 182 168 160 217 167 196 170 152 212 201 221 198 160 1393 1034 286 548 1199 1616 1285 581 650 1350 1911 1370 796 907 1659 2056 1799 1131 1122 1937 2346 1915 1237 1346 2040 2601 2167 1619 1583 2300 2857 2494 1805 1755 2413 2949 2656 2142 2104 2738 3259 3001 2328 2309 2866 3496 3148 2606 2439 3210 3745 3408 2760 2634 3273 3809 3718 3077 2823 3444 4099 3917 3325 3028 3789 4362 4177 3443 3321 3920 4485 4451 3777 3616 4068 4861 4671 4105 3707 4125 4812 4568 3891 3396 4039 4438 4327 3562 3328 3796 4377 4061 3311 2994 3548 4138 3825 3274 2815 3193 3807 3619 2990 2611 2898 3554 3405 2694 2308 2769 3382 3281 2450 2053 2537 3023 2988 2398 1880 2166 2796 2894 2039 1678 2039 2668 2568 2003 1488 1690 2428 2412 1780 1266 1433 2028 2083 1477 968 1263 1826 1895 1315 746 945 1556 1653 984 515 643 1401 1409 940 258 567 1215 119 117 108 86 107 87 107 94 96 87 86 119 93 86 110 87 93
158 225 188 238 165 213 187 211 232 233 196 179 210 175 161 192 221 161 208 189 177 224 162 196 181 161 167 229 179 242 221 158 159 232 238 218 194 185 209 222 196 244 167 246 198 229 207 156 203 187 171 250 202 244 192 232 211 228 173 150 185 158 162 176 186 168 162 240 209 204 175 235 156 245 219 178 160 166 175 161 186 198 193 248 168 222 193 155 166 172 221 236 221 194 206 181 198 1812 1462 719 972 1705 2024 1716 945 1157 1943 2256 1966 1227 1309 2107 2491 2229 1529 1629 2310 2740 2374 1758 1873 2433 2900 2688 1902 1942 2729 3257 2896 2172 2159 2841 3399 3124 2476 2343 3215 3690 3385 2674 2763 3372 3792 3624 2987 2947 3629 4065 3907 3145 3030 3686 4356 4214 3477 3305 3937 4558 4290 3620 3526 4197 4765 4592 3969 3838 4400 5097 4804 4262 4088 4659 5134 5186 4460 4150 4714 5361 4978 4320 3946 4537 5073 4796 4069 3754 4120 4865 4613 3884 3436 3940 4512 4338 3731 3271 3679 4311 4112 3557 3132 3523 4016 3907 3235 2734 3213 3742 3849 3130 2586 2983 3517 3536 2902 2361 2662 3429 3394 2683 2140 2369 3162 3060 2374 1873 2248 2956 2912 2144 1612 1871 2628 2683 1934 1448 1693 2379 2496 1864 1205 1485 2029 2156 1531 908 1146 1895 1921 1446 709 1003 1558 1685 110 116 112 119 94 101 83 106 87 96 109 88 94 90 96 118
171 214 238 196 155 183 197 191 199 184 245 183 237 238 225 247 163 191 248 246 216 232 248 169 234 195 201 188 151 226 206 216 180 247 205 208 159 241 162 224 160 209 237 185 229 215 196 239 151 225 189 179 206 220 169 176 210 152 153 178 219 246 208 215 235 246 211 154 204 197 191 223 207 188 228 205 184 190 203 205 224 188 229 210 236 185 219 170 175 166 181 156 154 167 228 243 177 200 1541 993 1084 1784 2260 1874 1270 1295 2081 2440 1937 1419 1586 2237 2615 2329 1570 1618 2437 2828 2458 1983 1873 2618 3034 2683 2058 2164 2818 3352 2947 2425 2301 2996 3472 3255 2599 2601 3207 3715 3573 2903 2717 3459 4062 3685 3062 3090 3659 4207 3971 3383 3228 3958 4440 4225 3701 3409 4036 4726 4428 3803 3642 4378 4881 4764 4020 3964 4546 5183 5000 4275 4158 4736 5421 5226 4664 4443 4906 5580 5210 4597 4141 4768 5296 5068 4284 4011 4517 4915 4963 4030 3661 4272 4839 4739 3973 3615 4031 4458 4472 3736 3351 3661 4303 4143 3530 3152 3375 4146 3921 3183 2873 3263 3742 3761 3115 2671 2869 3563 3631 2776 2385 2759 3416 3372 2688 2199 2415 3023 3201 2530 1932 2137 2749 2850 2251 1628 1893 2607 2705 2091 1462 1719 2398 2507 1895 1185 1383 2127 2309 1590 939 1110 1886 1985 88 82 118 107 103 118 91 116 104 104 114 97 120 105 112 86
193 189 166 233 182 244 222 161 242 241 189 217 225 206 240 201 200 206 163 198 240 165 154 210 231 181 196 235 236 163 250 197 218 220 216 164 173 216 228 208 197 171 222 151 187 233 212 218 191 169 156 196 210 199 174 240 171 205 242 154 160 203 150 169 197 154 172 201 241 235 150 182 225 172 162 172 167 191 183 222 240 181 226 151 156 210 208 224 243 179 193 171 159 166 223 190 205 217 154 533 721 1469 1817 1438 856 1049 1615 2124 1666 1121 1083 1995 2423 1863 1363 1374 2174 2473 2281 1634 1704 2309 2834 2505 1923 1772 2524 3008 2790 1988 2100 2778 3293 3038 2395 2300 2947 3485 3293 2496 2513 3243 3707 3407 2832 2764 3446 3970 3744 3007 3015 3636 4243 4050 3240 3097 3782 4340 4126 3518 3295 3914 4659 4466 3806 3696 4151 4742 4785 4034 3794 4449 5006 4967 4374 4096 4546 5199 5060 4247 3883 4478 4949 4851 4084 3666 4184 4693 4595 3805 3488 3954 4462 4412 3624 3268 3762 4345 4186 3498 2952 3363 4132 3994 3325 2897 3286 3720 3682 3122 2619 2912 3569 3608 2919 2367 2800 3241 3313 2570 2204 2516 3115 3047 2493 1837 2268 2795 2951 2289 1572 1953 2643 2706 1984 1504 1664 2397 2484 1857 1286 1407 2095 2293 1576 995 1187 1788 2039 1394 666 1033 1666 1799 1098 82 109 118 106 95 100 112 99 115 96 97 86 115 80 95
212 172 164 167 198 211 175 244 247 185 203 209 197 211 224 197 196 220 213 201 227 168 247 238 245 247 246 185 164 250 232 201 150 213 190 210 170 150 162 178 243 194 247 168 162 221 219 215 210 177 178 213 216 190 166 187 231 222 220 184 164 151 214 176 178 196 197 230 231 160 164 163 161 182 241 202 209 154 212 246 175 186 223 164 193 182 234 225 186 169 234 206 246 239 218 242 172 215 184 231 247 986 1268 879 336 493 1084 1671 1109 516 604 1373 1808 1453 885 841 1505 1998 1702 1050 1135 1834 2332 1979 1367 1332 1942 2577 2252 1647 1621 2186 2719 2510 1729 1715 2526 3024 2648 2125 1909 2575 3216 2878 2347 2176 2812 3428 3210 2511 2457 3116 3717 3447 2679 2721 3181 3778 3654 3087 2921 3581 4196 3993 3244 3056 3667 4320 4128 3537 3267 3910 4603 4337 3699 3575 4099 4841 4708 3783 3490 4024 4571 4337 3606 3268 3810 4291 4120 3530 3093 3597 4189 4019 3305 2789 3162 3946 3706 3043 2511 3020 3641 3539 2858 2421 2815 3406 3260 2525 2129 2460 3145 3176 2404 2014 2318 2954 2963 2085 1732 2080 2615 2667 1896 1538 1830 2414 2385 1670 1133 1536 2137 2175 1489 962 1182 1955 2016 1321 866 1051 1669 1789 1072 488 730 1515 1530 925 260 489 1212 1240 685 100 81 100 109 106 116 88 85 118 87 105 104 89 88 82
169 175 156 165 230 210 244 219 173 155 236 233 214 163 204 219 245 204 247 204 245 227 219 156 170 216 188 161 187 239 150 250 150 244 215 224 244 213 222 234 206 227 244 241 198 163 196 223 224 179 216 219 166 223 240 194 200 202 243 180 208 157 211 158 203 217 163 186 174 233 214 172 242 249 190 207 232 225 188 177 163 160 171 204 190 240 247 175 151 222 232 221 213 172 187 159 176 206 180 213 186 620 1010 578 100 140 807 1212 1013 387 279 1182 1484 1100 540 681 1284 1857 1380 709 768 1467 1980 1654 973 1068 1760 2225 1996 1196 1335 1883 2407 2147 1548 1544 2120 2688 2509 1722 1674 2423 2844 2673 2005 2015 2599 3053 2851 2297 2180 2809 3306 3160 2487 2291 2976 3501 3338 2842 2587 3219 3727 3657 3054 2716 3498 3964 3898 3286 2937 3655 4209 4181 3535 3258 3896 4506 4422 3686 3360 3835 4274 4188 3539 3024 3572 4058 4022 3211 2767 3251 3993 3862 2942 2644 3125 3617 3480 2749 2340 2844 3388 3337 2667 2199 2498 3116 3016 2458 1842 2239 2989 2975 2259 1734 2132 2763 2577 1953 1404 1781 2478 2554 1828 1209 1461 2262 2164 1554 1113 1306 1984 1920 1337 712 1051 1697 1833 1033 575 779 1406 1517 856 248 563 1162 1342 730 100 405 1035 1074 456 100 144 98 100 83 86 88 109 89 80 89 91 104 82 111
182 153 150 203 242 153 229 210 222 234 154 225 178 200 202 150 225 211 151 192 244 247 204 238 212 194 240 221 230 184 181 204 173 249 232 205 219 206 224 150 180 194 193 209 180 234 181 160 194 160 227 158 153 187 218 235 238 224 243 158 197 224 160 232 175 216 160 183 198 191 225 203 217 162 187 159 203 227 164 186 204 206 178 245 177 150 218 235 230 222 196 239 150 211 166 244 225 225 227 239 159 230 1309 814 245 263 1085 1391 1157 440 585 1291 1620 1286 701 837 1552 1954 1599 910 969 1668 2156 1847 1131 1301 1873 2486 2074 1550 1467 2221 2712 2311 1638 1693 2401 2767 2569 1949 1863 2456 3082 2913 2166 2162 2705 3378 3154 2418 2331 2985 3573 3396 2770 2525 3128 3870 3604 2852 2840 3326 3943 3832 3195 2922 3548 4240 4137 3483 3264 3775 4529 4325 3700 3448 4003 4576 4606 3905 3513 3967 4569 4429 3742 3276 3847 4341 4313 3597 3073 3563 4245 4119 3279 2850 3267 3990 3785 3131 2669 2975 3688 3599 2940 2400 2801 3410 3441 2596 2174 2554 3226 3132 2535 2043 2290 2977 2912 2145 1714 2132 2701 2652 2001 1526 1847 2541 2448 1796 1228 1648 2310 2175 1579 1110 1239 1982 2069 1485 900 1128 1627 1777 1153 623 856 1462 1640 910 309 597 1325 1324 815 184 388 888 83 108 100 94 96 85 105 113 111 103 96 107
176 162 222 239 228 162 195 173 152 204 190 214 213 192 212 216 217 236 167 204 192 170 197 180 202 185 203 173 199 165 244 231 236 194 188 194 158 182 195 248 159 151 240 218 169 170 176 204 160 155 193 220 241 203 174 209 244 228 177 158 226 193 160 151 196 204 197 189 165 151 181 190 227 237 207 177 180 232 247 181 217 249 205 237 201 240 213 219 171 209 227 227 227 175 158 214 172 172 153 215 188 157 1697 1184 584 840 1432 2013 1578 861 1036 1774 2241 1801 1220 1114 1886 2485 1966 1339 1458 2114 2637 2337 1619 1711 2424 2815 2528 1974 1921 2464 3141 2841 2186 2075 2799 3277 2929 2369 2244 2996 3603 3230 2602 2466 3142 3755 3551 2771 2759 3327 3920 3694 3101 2974 3666 4251 4040 3392 3153 3888 4441 4191 3630 3433 3936 4730 4444 3824 3555 4218 4831 4662 4029 3834 4529 5194 4992 4336 4080 4492 5205 4893 4240 3949 4422 4916 4791 4008 3538 4144 4756 4539 3875 3451 3890 4390 4400 3602 3264 3645 4248 4061 3322 2862 3329 3892 3849 3211 2684 3153 3661 3656 2934 2483 2881 3502 3423 2716 2219 2486 3127 3322 2612 2099 2300 3026 3064 2319 1866 2146 2649 2791 2135 1483 1813 2403 2512 1969 1375 1518 2181 2347 1683 1213 1276 1957 2204 1450 846 1029 1725 1977 1267 711 749 1406 1636 87 96 84 111 91 89 107 93 94 105 104
177 207 241 223 153 232 180 231 232 235 159 227 225 163 224 213 248 250 242 153 177 194 193 169 235 241 156 163 234 193 225 212 186 173 153 179 153 201 212 239 207 173 249 159 232 186 160 204 153 203 231 207 213 156 169 243 244 175 241 185 203 177 153 209 158 163 198 211 157 198 206 198 229 183 193 237 249 244 211 226 175 176 219 202 169 208 205 197 173 246 189 194 233 184 238 162 152 188 155 209 191 208 205 1561 1021 1060 1747 2272 1766 1239 1321 1901 2459 2140 1353 1504 2219 2726 2389 1688 1684 2359 2930 2442 1974 1932 2549 3160 2775 2180 2110 2853 3401 3045 2400 2293 2932 3633 3200 2670 2509 3298 3745 3545 2934 2744 3359 4030 3727 3223 3069 3726 4185 4089 3292 3150 3774 4566 4309 3693 3434 4135 4684 4546 3823 3675 4341 4925 4838 4173 3995 4505 5068 4944 4349 4123 4800 5339 5237 4692 4310 4923 5500 5274 4565 4279 4718 5237 5183 4311 4029 4447 4910 4851 4169 3699 4194 4745 4717 3917 3425 3888 4450 4416 3816 3374 3646 4285 4180 3511 3076 3386 4027 4093 3251 2798 3096 3697 3879 3080 2677 3014 3516 3647 2920 2378 2727 3400 3248 2738 2145 2409 2965 3191 2383 1910 2208 2810 2948 2327 1637 1992 2616 2757 1985 1400 1607 2283 2468 1863 1180 1362 2009 2208 1520 938 1091 1795 2002 82 111 87 106 102 90 102 84 109 85 106
231 150 244 202 170 240 222 165 167 243 237 216 217 198 197 171 196 182 239 186 167 187 191 186 183 211 169 205 167 244 180 222 214 226 165 242 165 228 153 247 232 234 163 215 218 158 161 217 185 206 155 168 234 176 226 192 227 203 182 201 216 171 197 190 234 216 174 243 242 229 172 238 201 246 170 196 202 183 191 153 219 187 190 172 198 238 248 170 202 213 170 170 202 163 194 188 202 154 211 193 176 208 204 174 711 923 1593 1910 1685 914 1048 1704 2178 1852 1246 1342 2001 2548 2187 1519 1531 2272 2639 2388 1706 1693 2462 2966 2682 2025 1963 2553 3125 2892 2111 2160 2904 3464 3155 2468 2426 3074 3543 3393 2615 2511 3304 3896 3655 2882 2770 3541 3955 3760 3117 3089 3751 4196 4126 3440 3255 3906 4553 4367 3618 3562 4135 4753 4562 3983 3702 4331 4959 4879 4146 3849 4584 5162 5069 4517 4185 4674 5341 5190 4512 4079 4531 5220 5044 4194 3913 4199 4860 4751 4062 3689 4125 4741 4580 3821 3363 3753 4323 4314 3512 3128 3489 4125 4135 3369 2924 3394 3835 3967 3244 2618 3124 3666 3748 3059 2508 2733 3396 3349 2833 2309 2635 3283 3263 2470 2115 2322 3035 3039 2282 1738 2053 2678 2752 2042 1487 1767 2544 2504 1824 1353 1494 2178 2425 1726 1186 1401 1914 2158 1565 797 1041 1730 1853 1181 89 93 85 95 88 98 83 119 112 120
174 180 221 189 155 208 195 210 187 162 235 162 246 223 221 227 208 220 165 170 234 155 156 225 248 168 197 157 192 209 248 193 172 159 211 164 156 214 234 226 174 221 158 170 169 165 169 189 243 166 168 245 172 194 185 214 175 210 191 237 198 224 196 207 153 167 242 226 201 169 197 215 246 250 153 210 151 152 157 180 211 200 158 248 152 173 236 186 216 243 157 197 241 171 230 171 170 189 153 210 225 187 211 161 237 293 984 1503 1153 543 611 1307 1636 1442 731 716 1471 1977 1578 1059 1070 1672 2189 1868 1232 1179 1838 2355 2088 1432 1445 2098 2704 2313 1718 1727 2284 2841 2676 1855 1843 2599 3009 2907 2092 2130 2786 3371 3106 2456 2367 2886 3607 3369 2675 2605 3120 3820 3519 2986 2811 3420 4025 3777 3235 3043 3634 4322 4110 3330 3204 3757 4541 4362 3646 3363 4030 4734 4525 3883 3719 4243 4860 4735 3954 3740 4053 4611 4623 3748 3475 3833 4378 4288 3693 3212 3519 4191 4109 3314 2921 3443 4019 3937 3108 2636 3120 3758 3598 2878 2468 2909 3572 3553 2807 2198 2665 3235 3273 2467 2105 2288 2948 2953 2318 1775 2051 2783 2883 2071 1642 1934 2436 2566 1981 1458 1567 2192 2277 1676 1109 1448 1980 2150 1571 924 1223 1761 1832 1290 749 842 1451 1682 1103 541 631 1265 1547 796 323 96 111 95 118 86 94 120 119 109
193 162 204 153 181 217 161 208 201 197 169 216 183 197 202 231 205 224 160 194 199 168 156 207 243 160 243 248 224 202 188 217 182 195 180 213 196 231 174 180 220 189 191 207 246 153 242 245 150 170 210 165 233 233 240 150 151 236 159 246 216 191 230 239 249 225 247 163 166 155 196 199 217 248 206 215 181 227 233 212 168 219 198 236 224 200 156 202 206 249 190 227 204 195 170 198 174 181 185 184 241 200 168 222 191 237 600 1177 684 100 235 849 1254 928 272 420 1188 1578 1262 637 638 1312 1758 1460 772 783 1446 2107 1640 1031 1030 1758 2310 1955 1292 1325 1951 2537 2251 1656 1568 2067 2757 2508 1767 1654 2467 2866 2686 1971 2006 2625 3152 2998 2358 2178 2753 3360 3276 2577 2411 2960 3690 3425 2876 2598 3197 3936 3663 3076 2769 3480 3969 3839 3255 3150 3646 4185 4101 3591 3337 3818 4452 4346 3684 3327 3827 4458 4148 3432 3185 3569 4178 4001 3387 2899 3391 3947 3724 3023 2674 3007 3704 3681 2772 2334 2809 3456 3465 2600 2217 2465 3269 3232 2496 2033 2382 2952 2833 2171 1684 1974 2706 2771 2005 1439 1808 2372 2443 1836 1337 1612 2269 2296 1511 961 1331 1986 1977 1484 805 1133 1743 1792 1267 536 852 1467 1518 1034 336 474 1313 1301 840 100 320 900 1225 497 100 100 91 105 102 109 83 80 102 115
216 204 217 179 182 165 247 243 190 242 229 204 155 168 171 190 208 233 196 163 219 189 239 227 205 224 230 242 156 162 150 200 247 167 209 159 226 187 194 216 225 176 182 176 190 167 155 237 203 166 152 239 241 207 196 162 154 239 196 211 174 185 185 248 188 231 233 209 210 222 168 232 226 201 178 198 186 207 189 176 238 209 166 226 165 206 180 211 234 182 231 196 235 218 234 194 224 157 173 213 214 174 229 151 233 236 207 1073 675 100 200 932 1451 1038 348 388 1105 1580 1217 647 669 1350 1807 1571 892 813 1481 2060 1775 1072 1081 1795 2402 2025 1301 1386 2021 2483 2326 1558 1594 2153 2747 2431 1949 1845 2362 3013 2691 2051 2002 2558 3252 2955 2410 2212 2941 3401 3148 2518 2417 3094 3594 3395 2876 2755 3222 3966 3720 3160 2882 3562 4137 4017 3305 3080 3719 4370 4282 3592 3306 3888 4599 4455 3784 3435 4026 4578 4341 3709 3266 3753 4234 4239 3333 2922 3392 4065 3837 3251 2712 3175 3870 3626 2975 2533 2999 3631 3419 2870 2406 2684 3329 3281 2658 2026 2430 3025 3078 2413 1897 2155 2796 2936 2181 1676 1852 2664 2574 1937 1321 1689 2335 2449 1643 1086 1433 2019 2181 1591 942 1266 1912 1884 1219 790 1029 1645 1809 1134 402 774 1433 1530 951 210 409 1112 1265 586 100 236 824 117 88 101 87 110 109 84
241 152 223 234 211 167 247 236 242 202 158 186 243 211 205 154 161 194 241 183 248 237 164 183 192 152 166 152 228 242 228 196 215 187 165 235 192 162 231 188 244 165 236 234 184 210 218 213 152 159 213 160 183 234 188 249 206 250 180 209 189 235 161 168 211 211 196 201 193 242 170 158 223 163 245 190 207 163 247 221 227 225 207 193 171 207 233 151 239 164 212 201 173 235 224 163 164 215 241 206 205 205 244 178 185 194 239 1481 1093 506 576 1314 1734 1490 846 928 1463 1982 1641 1055 1090 1737 2345 1947 1354 1352 1917 2394 2260 1596 1457 2159 2781 2340 1844 1724 2450 2908 2682 2056 1967 2525 3233 3004 2216 2124 2859 3299 3061 2565 2480 2997 3610 3332 2814 2673 3283 3837 3564 3033 2925 3502 4001 3973 3294 3050 3697 4224 4189 3417 3348 3786 4516 4417 3803 3511 4155 4820 4661 3972 3761 4320 5008 4830 4285 4030 4357 5083 4834 4197 3680 4245 4738 4653 3875 3433 3987 4420 4451 3737 3253 3653 4289 4217 3558 3098 3396 4002 3994 3191 2755 3087 3863 3859 3013 2611 2980 3555 3621 2933 2390 2701 3227 3249 2528 2051 2393 3106 3143 2351 1952 2090 2794 2978 2139 1663 1920 2531 2578 2021 1372 1755 2295 2406 1735 1163 1419 2061 2287 1671 911 1175 1769 2003 1270 712 970 1614 1738 1116 603 595 1358 1450 102 83 92 88 97 94
248 203 151 150 232 177 193 207 161 218 193 155 202 207 242 191 181 227 246 159 184 207 168 193 198 214 221 154 202 192 161 207 210 236 245 210 232 189 181 245 151 190 156 236 212 227 228 192 218 188 198 234 237 245 160 213 190 189 238 188 152 225 237 247 173 214 164 180 201 243 249 209 171 211 180 150 219 154 154 232 211 233 219 176 166 248 216 212 220 244 188 232 165 239 224 165 192 161 193 242 247 237 235 250 162 171 154 181 1535 892 927 1732 2230 1758 1094 1120 1867 2432 2005 1303 1381 2151 2545 2277 1587 1626 2261 2910 2594 1866 1800 2492 3060 2697 2097 2158 2843 3214 2928 2438 2391 3057 3503 3241 2684 2545 3215 3841 3413 2939 2703 3363 3898 3781 3094 3018 3529 4152 4093 3446 3095 3907 4380 4205 3528 3345 3961 4578 4546 3749 3627 4194 4897 4677 4016 3816 4468 5114 5027 4392 4045 4671 5336 5194 4650 4404 4930 5354 5210 4533 4121 4500 5214 5044 4243 3955 4446 4949 4880 4042 3736 4109 4748 4640 3925 3507 3885 4473 4360 3725 3143 3602 4239 4161 3437 3006 3450 4026 3918 3192 2865 3151 3685 3767 2989 2522 2754 3569 3603 2859 2400 2627 3300 3265 2570 2174 2414 2981 3038 2495 1767 2093 2699 2810 2286 1729 1846 2535 2731 1956 1486 1709 2199 2347 1849 1111 1375 2070 2265 1592 1059 1069 1761 1916 101 106 108 96 99 105
176 164 151 158 154 219 179 159 202 217 174 161 160 191 180 159 174 198 155 175 180 178 227 226 182 192 223 231 185 244 179 242 177 164 209 250 216 166 192 164 209 188 209 169 236 215 195 185 228 235 157 161 214 245 195 171 156 248 245 223 242 169 176 239 218 163 235 193 243 226 195 180 231 194 248 171 245 163 200 229 231 177 177 171 222 204 219 223 166 162 209 215 187 244 150 175 162 184 157 188 217 229 231 156 249 178 195 197 216 837 882 1633 2043 1749 1090 1239 1948 2305 1990 1268 1415 2021 2601 2300 1585 1602 2179 2875 2547 1899 1789 2549 3077 2616 2115 2087 2765 3289 2953 2300 2142 2906 3504 3122 2521 2473 3171 3754 3424 2718 2723 3415 3877 3767 3020 2874 3550 4090 4008 3311 3113 3653 4365 4174 3538 3255 4001 4596 4407 3820 3619 4112 4758 4603 3968 3789 4331 5074 5002 4368 4034 4603 5287 5152 4550 4309 4835 5423 5236 4610 4165 4528 5125 4985 4414 3983 4411 5048 4892 4091 3726 4056 4769 4674 3992 3412 3828 4510 4377 3660 3240 3644 4302 4235 3514 3031 3283 3954 3949 3222 2842 3207 3823 3713 3122 2536 2776 3568 3512 2808 2297 2556 3216 3352 2680 2176 2369 2942 3178 2391 1868 2088 2770 2954 2147 1740 1813 2438 2754 2031 1489 1564 2265 2430 1712 1126 1375 2135 2178 1540 1070 1146 1889 1897 1343 115 82 91 105 109
151 165 247 222 209 235 242 201 152 243 199 223 233 193 208 151 181 204 248 184 171 190 231 194 171 185 234 168 178 222 174 152 171 225 187 226 180 172 164 170 217 246 194 225 222 152 248 175 177 162 238 180 214 202 250 229 150 232 183 183 235 216 238 246 228 163 164 161 198 158 246 181 224 169 247 232 158 184 162 213 224 209 187 174 239 222 168 154 226 210 163 187 190 155 181 179 166 242 226 233 188 171 209 182 185 190 221 207 214 233 563 1262 1708 1286 573 698 1426 1916 1545 781 858 1668 2054 1844 1081 1162 1851 2347 2100 1321 1247 2059 2510 2351 1637 1619 2194 2722 2581 1912 1882 2554 3021 2651 2161 2067 2679 3232 2956 2406 2210 2795 3483 3149 2499 2444 3008 3677 3561 2813 2649 3227 3979 3812 3111 2891 3464 4197 3973 3304 3094 3776 4271 4210 3562 3286 3855 4490 4546 3784 3620 4165 4708 4737 4084 3873 4436 5040 4966 4264 3806 4305 4873 4786 3895 3613 3999 4595 4401 3665 3277 3656 4355 4267 3596 3123 3450 4171 4088 3400 2812 3328 3800 3768 3145 2743 2929 3673 3552 2923 2420 2705 3393 3298 2702 2153 2564 3041 3251 2588 1899 2249 2860 2901 2250 1669 1910 2729 2816 2031 1517 1662 2440 2520 1843 1284 1601 2232 2261 1686 1123 1166 1886 2145 1475 766 977 1646 1775 1171 583 668 1452 1708 921 466 91 97 118 111
223 164 150 164 167 190 168 197 188 230 161 232 247 190 238 204 238 156 233 235 162 179 178 205 172 207 218 153 190 199 178 238 184 166 160 186 164 167 161 186 176 221 154 174 189 174 211 186 164 215 192 189 224 203 225 204 158 181 167 220 212 195 195 174 153 199 150 221 246 188 165 171 181 240 164 201 192 192 220 189 192 231 216 213 225 172 150 237 186 224 200 158 247 187 209 194 174 167 229 246 174 163 178 155 247 169 162 183 230 162 228 674 1236 791 100 284 871 1382 940 471 530 1049 1678 1212 631 675 1288 1818 1629 809 845 1608 2078 1687 1213 1156 1699 2387 2002 1292 1326 1994 2491 2278 1724 1600 2265 2693 2598 1946 1764 2405 2920 2828 2192 1927 2591 3309 3123 2426 2296 2751 3533 3196 2674 2385 3107 3647 3518 2946 2680 3335 3932 3833 3099 2841 3465 4199 4069 3368 3119 3719 4377 4352 3667 3428 3968 4503 4474 3706 3459 3814 4366 4235 3641 3213 3678 4290 4049 3382 2996 3392 4027 3916 3211 2666 3080 3679 3728 3017 2498 2925 3529 3470 2764 2286 2640 3309 3224 2538 2028 2414 2915 3070 2230 1842 2092 2674 2835 2021 1472 1902 2529 2482 1818 1302 1693 2228 2419 1644 1212 1415 1962 2045 1370 969 1045 1703 1836 1172 731 877 1469 1615 1119 473 645 1338 1362 910 184 272 1123 1130 569 100 100 101 104 110
210 194 150 240 157 170 176 211 238 245 171 163 227 212 228 239 209 205 248 183 247 226 189 235 160 211 247 152 151 200 244 185 216 231 187 158 159 175 226 210 186 248 223 194 247 153 151 162 204 184 214 215 182 198 173 157 198 194 224 195 174 179 247 237 225 216 196 168 237 154 213 210 186 198 183 187 181 162 204 226 232 174 182 174 193 184 167 249 191 213 175 171 177 231 250 218 156 152 163 218 212 173 217 223 201 195 179 177 185 152 172 161 1056 741 100 100 895 1229 913 289 286 1077 1526 1113 639 578 1172 1867 1416 781 751 1391 1992 1729 1055 1111 1783 2309 1932 1359 1203 1933 2506 2165 1493 1449 2105 2661 2520 1846 1675 2298 2883 2621 1961 1955 2561 3090 2941 2336 2154 2792 3297 3248 2593 2343 2978 3500 3499 2682 2652 3169 3805 3747 3009 2737 3307 4046 3835 3239 3006 3527 4227 4219 3565 3205 3853 4444 4340 3841 3309 3890 4419 4233 3632 3200 3571 4096 4180 3458 2949 3388 3899 3863 3138 2710 3004 3753 3689 2946 2476 2860 3525 3420 2687 2166 2692 3178 3297 2433 2107 2390 2992 3084 2331 1745 2193 2638 2721 2160 1535 1807 2593 2536 1844 1280 1523 2227 2251 1723 1154 1376 2023 2139 1382 831 1190 1750 1799 1225 628 957 1443 1658 1110 362 615 1314 1401 776 131 418 936 1129 678 100 100 706 94 109
231 240 206 199 180 182 245 158 176 246 187 207 172 227 247 171 241 229 224 153 220 183 199 171 184 222 170 156 170 220 195 189 194 165 226 228 201 194 232 219 212 230 185 204 198 190 214 250 168 162 186 205 155 158 172 156 203 233 169 206 157 229 153 160 246 239 224 194 157 170 190 204 189 155 161 189 198 202 187 197 156 161 182 174 181 203 194 231 234 151 203 191 212 239 201 199 230 160 213 183 234 174 197 242 189 228 190 186 240 163 193 208 1473 1072 388 493 1200 1592 1293 734 693 1337 1819 1503 886 876 1671 2022 1792 1144 1157 1727 2367 1939 1473 1400 2126 2625 2300 1666 1545 2248 2780 2468 1879 1868 2387 3101 2765 2116 1925 2715 3217 2980 2346 2267 2782 3400 3182 2635 2552 3061 3705 3576 2884 2648 3258 3970 3748 3117 2843 3446 4127 3923 3383 3234 3749 4425 4271 3528 3392 3899 4580 4535 3896 3510 4139 4869 4740 4202 3879 4275 4753 4707 3928 3607 4032 4574 4437 3781 3275 3844 4452 4221 3546 3108 3521 4051 4091 3323 2933 3191 3940 3785 3238 2763 2916 3579 3538 2829 2365 2721 3444 3417 2683 2128 2507 3132 3241 2510 2055 2304 2893 2940 2307 1846 2111 2585 2828 2066 1428 1867 2504 2506 1774 1333 1484 2242 2340 1599 1127 1313 1995 2076 1509 851 933 1584 1890 1290 693 835 1464 1556 956 307 464 1267 1346 85
227 183 193 173 197 152 176 243 200 154 206 174 213 244 224 246 198 210 169 165 154 241 219 236 191 235 174 208 180 162 245 168 235 179 239 199 154 201 174 187 206 227 169 163 169 181 154 199 196 203 156 244 166 203 204 156 218 200 169 150 165 230 233 200 220 168 154 179 205 167 169 168 215 151 233 185 235 155 229 157 159 226 234 152 206 177 201 160 181 201 243 247 224 172 179 212 245 232 171 198 186 233 196 236 178 174 182 187 182 191 230 221 180 1410 899 893 1669 2078 1634 1067 1063 1877 2329 1972 1315 1422 2049 2586 2259 1641 1511 2146 2718 2453 1734 1692 2417 3068 2653 1976 1951 2732 3236 3045 2363 2181 2942 3397 3244 2642 2361 3078 3739 3360 2811 2702 3256 3956 3748 2951 2934 3496 4073 3892 3312 3059 3752 4377 4193 3564 3417 3948 4560 4507 3839 3544 4081 4759 4668 4035 3707 4391 5037 4976 4199 3963 4643 5212 5145 4466 4158 4654 5310 5301 4437 4069 4502 5142 5064 4167 3762 4283 4901 4841 4125 3600 4011 4542 4520 3896 3457 3793 4359 4262 3604 3162 3502 4225 4172 3444 2957 3222 3834 3989 3205 2619 3100 3610 3596 3043 2515 2838 3348 3474 2853 2286 2444 3159 3139 2627 1939 2173 2901 3003 2308 1782 2076 2649 2828 2165 1545 1724 2396 2525 1939 1429 1534 2145 2418 1690 1071 1276 1940 2056 1594 964 1008 1776 1830 106
190 232 186 232 232 222 195 219 221 221 170 220 225 243 218 229 225 212 184 214 179 155 199 175 197 187 174 150 215 173 199 203 243 205 162 150 154 250 164 242 237 162 224 233 237 201 183 177 238 170 214 227 184 170 207 225 185 233 205 231 182 163 154 184 178 223 176 201 219 243 232 168 198 194 242 150 164 152 210 238 164 218 217 189 161 235 176 247 174 151 188 214 230 166 204 198 160 164 176 161 227 152 170 210 209 177 187 150 229 231 242 183 185 249 870 902 1725 2190 1882 1100 1177 1850 2340 1993 1498 1345 2048 2648 2303 1684 1648 2399 2738 2569 1806 1904 2529 2981 2795 2122 2047 2636 3355 2980 2470 2305 3014 3561 3211 2653 2528 3151 3741 3598 2787 2781 3373 3995 3818 3044 2944 3569 4238 4098 3265 3201 3744 4459 4298 3611 3310 4050 4716 4456 3920 3682 4208 4785 4845 4185 3870 4362 5135 5033 4367 4149 4662 5358 5248 4586 4383 4904 5591 5340 4565 4229 4696 5214 5237 4364 3913 4494 4982 4986 4198 3698 4162 4839 4634 4088 3512 3839 4606 4437 3724 3361 3642 4364 4280 3588 3128 3500 3969 4010 3328 2757 3176 3778 3886 3097 2718 2831 3576 3568 3010 2388 2577 3242 3353 2766 2086 2457 3012 3226 2599 2030 2132 2845 2898 2320 1646 1832 2565 2626 2192 1393 1650 2328 2546 1973 1274 1370 2114 2174 1748 1132 1152 1813 2071 1407
247 249 201 174 230 218 241 250 250 151 227 209 153 172 193 154 249 249 185 244 203 198 166 226 204 153 176 200 154 215 229 214 201 168 163 162 223 189 161 199 215 159 202 207 225 177 189 250 201 159 160 220 163 151 177 170 235 218 161 239 171 176 193 250 230 164 228 182 219 204 198 246 242 160 242 182 246 150 228 202 174 243 161 151 153 232 228 198 243 246 202 171 210 207 156 236 227 160 187 159 208 186 232 190 230 157 211 245 186 191 215 194 213 201 203 568 1272 1798 1470 789 858 1572 1963 1572 950 1027 1686 2160 1865 1344 1325 1846 2430 2143 1596 1410 2156 2761 2441 1665 1681 2406 2883 2727 2011 1995 2559 3139 2887 2183 2188 2850 3446 3142 2512 2432 3000 3601 3434 2774 2497 3224 3813 3685 3072 2745 3378 3992 3808 3326 3078 3623 4340 4083 3537 3258 3871 4394 4359 3683 3472 4057 4612 4609 4078 3776 4256 5023 4951 4138 3912 4472 5208 5093 4349 3876 4395 4872 4921 4194 3789 4101 4700 4627 3861 3540 3825 4529 4508 3676 3255 3679 4243 4129 3514 2929 3293 3961 3956 3325 2851 3189 3778 3816 2975 2519 2870 3471 3533 2816 2266 2621 3348 3260 2738 2070 2317 3100 3062 2525 1907 2109 2792 2896 2194 1616 1773 2603 2584 1960 1376 1650 2292 2354 1778 1278 1365 2095 2172 1554 1056 1127 1793 1906 1361 679 879 1488 1665 1238
244 241 239 192 244 217 244 165 176 241 189 248 175 156 224 239 195 163 217 157 238 237 219 242 158 193 185 160 221 229 203 219 229 242 152 183 154 227 202 240 216 224 216 247 180 231 221 161 219 163 157 161 220 198 190 196 218 218 191 204 182 248 172 154 181 247 222 153 215 248 175 213 214 165 244 210 189 223 206 202 210 218 229 216 250 181 225 218 235 235 247 175 246 227 220 175 242 237 229 163 239 211 225 165 243 229 238 151 166 249 212 245 151 171 231 249 871 1306 827 241 302 934 1422 1185 547 503 1290 1673 1454 755 815 1516 1895 1606 1088 1047 1718 2162 1895 1259 1170 1770 2444 2086 1581 1332 2056 2732 2452 1766 1577 2223 2878 2574 1949 1850 2525 3137 2881 2278 2099 2614 3327 3133 2484 2285 2962 3570 3349 2823 2597 3218 3667 3689 3007 2692 3240 4040 3933 3195 2905 3556 4116 4166 3370 3183 3839 4359 4309 3787 3363 3999 4621 4642 3838 3502 3851 4571 4400 3688 3242 3578 4313 4160 3444 3102 3365 4073 3894 3317 2862 3175 3809 3791 3131 2508 2887 3589 3494 2933 2290 2758 3274 3239 2681 2057 2359 3014 3164 2515 1942 2276 2797 2979 2266 1569 1978 2654 2659 2031 1383 1730 2257 2378 1883 1180 1376 2145 2154 1658 1021 1097 1915 2087 1390 772 946 1541 1770 1063 630 705 1300 1503 959 379 433 1027 1273 659
212 218 157 170 191 188 184 183 182 179 198 188 191 231 171 231 177 152 172 167 170 202 185 220 171 178 201 180 248 217 176 213 236 195 213 239 209 166 244 193 246 152 222 155 159 231 161 235 242 223 247 225 175 243 209 175 217 155 150 246 231 166 185 171 222 214 155 217 177 159 181 229 235 184 208 184 240 212 218 190 226 238 250 187 247 166 227 230 192 229 193 209 160 183 202 174 231 178 162 206 167 168 175 202 235 246 155 175 242 159 236 228 221 197 244 160 230 1116 623 100 100 742 1280 903 245 252 937 1563 1104 549 545 1212 1660 1416 847 679 1370 2040 1602 981 968 1629 2288 1916 1252 1147 1876 2483 2197 1527 1458 2031 2679 2356 1867 1645 2319 2819 2654 2096 1951 2503 3083 2873 2291 2104 2739 3366 3229 2552 2364 2849 3528 3472 2682 2448 3046 3683 3757 2933 2830 3274 3962 3996 3298 2931 3625 4154 4158 3427 3298 3766 4489 4451 3807 3400 3855 4439 4343 3520 3080 3592 4190 4053 3346 2988 3228 3877 3881 3100 2594 3027 3645 3621 3011 2440 2875 3336 3323 2628 2142 2618 3192 3142 2581 2078 2352 2911 3013 2299 1692 2001 2714 2700 2090 1627 1863 2386 2515 1830 1266 1594 2224 2372 1676 1176 1204 2025 1991 1535 910 1123 1694 1782 1271 526 780 1364 1558 1009 368 600 1299 1423 909 101 300 971 1122 696
195 208 211 166 174 250 210 238 215 184 213 165 161 206 193 163 223 153 208 174 158 245 237 223 219 246 236 155 217 244 154 221 174 162 246 167 237 243 207 235 168 162 239 237 165 164 213 239 152 200 223 200 182 241 213 163 236 164 191 215 217 174 180 192 156 182 204 193 245 175 197 152 189 159 239 167 242 170 242 214 225 202 185 220 174 200 224 192 236 165 234 215 211 203 174 173 168 237 219 207 169 209 223 183 199 234 217 180 167 184 150 205 216 229 231 158 197 1205 913 325 247 942 1517 1149 619 525 1236 1739 1332 768 674 1452 1996 1743 948 940 1618 2149 1928 1298 1198 1972 2346 2119 1474 1474 2087 2641 2420 1791 1698 2323 2791 2676 2049 1836 2413 3097 2911 2180 2113 2692 3417 3199 2571 2423 2996 3469 3404 2695 2480 3173 3777 3645 3025 2834 3320 3982 3811 3149 2937 3648 4171 4084 3477 3145 3858 4407 4351 3781 3507 4021 4617 4595 4023 3783 4155 4710 4553 3948 3426 3827 4371 4360 3745 3152 3664 4275 4101 3374 2977 3340 3972 3990 3206 2708 3101 3797 3718 2998 2452 2799 3457 3509 2740 2392 2550 3264 3318 2547 2127 2267 2940 3114 2415 1866 2146 2708 2852 2247 1543 1899 2611 2652 1888 1394 1599 2285 2389 1699 1185 1367 1996 2121 1542 865 1200 1749 1904 1326 814 780 1470 1698 1096 420 569 1355 1424 856
160 211 193 162 188 175 156 206 224 198 215 170 225 167 214 207 215 220 212 231 250 194 216 160 166 241 234 223 244 249 196 240 199 181 173 195 233 163 230 215 194 165 198 246 166 157 199 247 167 234 178 234 185 221 158 246 236 168 245 160 226 154 212 231 245 224 227 208 186 181 195 238 232 242 239 154 150 180 168 180 232 217 222 228 204 226 238 241 150 174 244 218 159 232 166 167 242 190 213 150 242 237 236 152 243 206 183 160 183 194 198 223 194 236 210 200 242 221 1407 753 719 1441 2049 1655 914 906 1752 2249 1863 1218 1157 1805 2514 2018 1377 1404 2069 2596 2302 1674 1717 2318 2928 2621 2057 1789 2522 3077 2772 2235 2054 2798 3328 3133 2383 2414 2913 3567 3342 2675 2634 3251 3700 3605 2870 2813 3403 3897 3872 3105 2939 3533 4185 3993 3492 3249 3703 4401 4244 3769 3416 4080 4754 4536 3894 3656 4139 4834 4862 4114 3902 4428 5017 5108 4403 4056 4590 5192 5159 4309 4021 4427 4986 4956 4137 3697 4026 4734 4737 3997 3535 3852 4529 4469 3711 3208 3599 4206 4247 3545 2986 3304 3932 4005 3248 2719 3179 3824 3801 3029 2514 2936 3598 3657 2844 2451 2576 3328 3373 2725 2194 2352 3000 3095 2433 1987 2222 2719 2839 2287 1690 1919 2615 2590 2064 1366 1644 2331 2525 1783 1142 1376 2081 2265 1624 925 1062 1756 2040 1425
203 151 189 181 169 204 170 184 199 213 245 169 188 227 233 237 178 245 175 209 200 181 177 240 170 151 165 215 200 183 193 228 235 190 240 152 178 154 226 225 214 238 199 164 206 238 180 156 185 215 156 199 194 220 151 174 167 225 154 214 209 225 173 233 245 211 206 223 226 189 154 226 152 151 200 211 194 216 199 171 190 241 170 168 183 156 228 208 187 158 201 234 171 193 249 189 177 243 166 180 156 190 191 222 165 177 204 173 167 183 220 162 150 152 233 163 150 205 217 1019 882 1755 2196 1863 1192 1168 1915 2378 2059 1350 1467 2089 2571 2254 1642 1549 2303 2934 2547 1922 1806 2528 3048 2899 2217 2039 2763 3339 3068 2407 2386 2843 3595 3308 2735 2453 3200 3845 3647 2985 2797 3313 4044 3782 3063 3014 3629 4282 4137 3304 3186 3723 4459 4223 3613 3380 3977 4738 4512 3985 3740 4252 4767 4777 4121 3877 4318 5183 5096 4415 4028 4726 5402 5278 4662 4238 4824 5572 5300 4657 4308 4631 5289 5239 4397 4063 4418 5009 4977 4293 3722 4242 4722 4688 3941 3655 3816 4563 4577 3769 3266 3575 4196 4233 3550 3175 3393 4024 4127 3472 2792 3172 3833 3769 3281 2739 2863 3558 3639 2931 2437 2611 3296 3511 2828 2231 2493 3084 3166 2528 1968 2099 2751 2922 2395 1831 1862 2544 2825 2056 1543 1709 2354 2563 1885 1230 1378 1994 2249 1634
192 166 186 213 212 209 242 243 195 203 154 163 215 169 181 150 218 221 208 163 197 175 232 172 185 191 192 245 200 156 168 212 225 212 181 178 192 246 245 239 220 241 192 169 166 195 151 169 212 154 161 237 180 230 164 170 171 157 188 228 200 168 208 200 203 234 177 200 244 197 150 212 249 186 229 157 226 186 185 237 165 236 210 151 230 159 174 153 237 192 205 242 241 190 204 230 174 184 203 229 160 172 207 179 213 184 155 240 186 155 236 235 222 153 191 247 153 209 169 230 680 1491 1936 1653 1022 902 1643 2177 1788 1199 1155 1739 2347 2013 1496 1394 1988 2484 2352 1607 1635 2223 2781 2529 1833 1869 2533 3041 2835 2183 1989 2771 3363 2983 2372 2245 2961 3495 3204 2576 2526 3115 3693 3540 2969 2614 3248 3994 3833 3227 3001 3621 4083 3984 3336 3195 3688 4339 4328 3550 3326 3885 4680 4427 3953 3535 4205 4776 4822 4024 3803 4293 5109 4950 4288 4005 4532 5293 5121 4435 4016 4479 5154 4925 4224 3863 4196 4735 4809 4150 3606 3989 4577 4520 3800 3327 3810 4372 4384 3645 3102 3525 4070 4140 3431 2959 3283 3900 3908 3277 2622 2958 3521 3751 3023 2471 2664 3295 3369 2702 2329 2563 3078 3175 2536 2098 2181 2906 3074 2362 1682 2060 2607 2812 2086 1538 1794 2354 2616 2011 1249 1577 2147 2414 1703 1195 1150 1953 2079 1471
229 217 185 225 191 218 180 207 229 197 185 217 206 176 237 183 164 172 185 230 180 203 153 152 219 217 155 227 229 150 155 221 190 172 159 244 177 205 164 156 192 160 159 168 250 237 202 173 242 208 155 161 250 153 214 174 202 228 194 240 156 159 153 249 187 155 244 167 168 193 159 220 208 246 154 225 193 197 230 248 160 216 169 220 194 173 194 212 169 233 213 199 240 246 249 217 207 211 178 158 170 247 151 183 222 230 250 231 158 225 210 152 161 163 203 213 231 151 209 198 194 863 1415 987 401 478 1161 1665 1376 606 677 1410 1821 1457 913 861 1567 2017 1888 1159 1162 1807 2384 2075 1482 1393 1946 2479 2240 1619 1618 2145 2835 2521 1881 1793 2432 2933 2822 2106 2014 2517 3276 2968 2366 2120 2880 3335 3308 2701 2412 3035 3607 3458 2934 2733 3282 3857 3838 3169 2895 3422 4060 3980 3421 3107 3627 4403 4215 3634 3270 3787 4627 4502 3854 3576 4126 4669 4785 4118 3629 4035 4609 4614 3779 3401 3787 4455 4376 3645 3163 3571 4098 4136 3400 2854 3295 3993 3903 3141 2613 3113 3633 3733 3027 2453 2842 3378 3543 2741 2295 2434 3243 3296 2663 1994 2242 2950 3036 2433 1753 2128 2733 2716 2086 1516 1817 2364 2647 2004 1245 1475 2136 2335 1777 1209 1215 1884 2059 1563 792 1014 1712 1939 1334 665 895 1427 1733 1097
159 182 210 157 229 164 203 160 205 156 231 218 156 227 213 227 239 240 222 179 227 193 235 186 187 202 206 166 230 175 236 226 166 192 193 221 199 160 241 189 231 213 215 214 214 189 173 195 244 178 167 203 178 232 224 194 205 244 190 179 184 168 155 176 163 203 249 185 174 245 217 207 182 222 236 224 181 151 187 176 225 236 247 188 171 234 241 161 206 216 187 197 179 238 220 152 153 219 187 204 207 190 190 204 202 166 160 208 236 219 196 214 204 199 239 192 211 205 189 166 215 166 1020 784 100 100 842 1280 932 307 219 1089 1552 1143 603 508 1231 1641 1463 825 697 1422 1876 1769 1027 933 1718 2172 2010 1327 1158 1886 2491 2131 1629 1500 2019 2626 2471 1831 1568 2317 2773 2594 2109 1766 2542 3169 2865 2344 1983 2588 3372 3253 2568 2278 2841 3612 3339 2742 2476 3146 3662 3592 3054 2825 3344 3962 3820 3200 2987 3604 4259 4126 3528 3186 3764 4502 4493 3775 3338 3672 4328 4387 3558 3203 3574 4190 4100 3272 2930 3189 3968 3815 3088 2608 2997 3674 3693 2898 2478 2775 3388 3460 2800 2181 2478 3200 3164 2499 2032 2235 3004 3075 2322 1670 2030 2689 2692 2154 1449 1682 2368 2503 1931 1320 1517 2095 2330 1712 1167 1332 1969 1995 1417 895 938 1737 1828 1312 643 887 1485 1651 1056 418 519 1102 1487 884
216 200 206 245 204 190 184 183 223 234 172 228 184 216 198 162 185 158 224 169 189 186 173 238 181 219 150 207 190 158 226 200 172 153 239 160 169 247 198 188 229 228 208 183 246 240 238 170 158 161 207 220 195 163 233 219 175 185 156 225 221 170 231 196 179 246 200 212 228 223 227 181 154 175 212 208 241 175 200 243 163 226 158 180 164 201 197 209 159 190 245 220 239 208 216 178 221 223 163 209 232 154 179 188 248 197 199 202 163 183 247 179 189 202 236 182 219 167 181 207 200 163 1191 762 183 141 807 1306 1111 370 404 1072 1610 1334 634 683 1395 1899 1504 997 848 1481 2175 1802 1186 1150 1784 2305 2020 1354 1212 1963 2555 2414 1647 1589 2084 2782 2500 1960 1774 2286 2932 2791 2108 1930 2668 3119 3021 2316 2140 2721 3489 3367 2648 2488 3083 3623 3575 2954 2645 3140 3824 3722 3075 2944 3395 4147 4061 3419 3159 3674 4245 4352 3587 3377 3807 4603 4455 3980 3553 4034 4568 4493 3712 3365 3742 4346 4251 3647 3026 3553 4092 4137 3261 2944 3310 3853 3856 3207 2571 2874 3675 3715 2994 2328 2816 3291 3412 2671 2178 2487 3037 3128 2497 1952 2261 2807 2901 2280 1801 1958 2715 2707 2022 1514 1678 2474 2486 1809 1327 1510 2232 2370 1749 1067 1300 1871 2079 1438 842 958 1661 1857 1337 558 651 1390 1590 1033
155 181 238 199 237 215 248 211 196 206 198 154 156 188 162 233 167 234 216 185 157 172 186 202 242 205 184 222 222 200 223 155 169 196 185 234 173 207 215 235 238 212 180 154 224 219 180 218 224 174 250 196 230 188 173 200 198 178 214 153 211 175 150 226 222 196 193 179 211 239 169 180 221 170 248 168 225 217 235 219 230 165 243 247 250 191 238 176 223 234 218 187 199 222 233 236 186 162 162 214 217 216 218 249 167 160 211 208 153 176 191 152 249 163 243 250 183 173 200 199 209 240 186 1171 696 595 1238 1836 1435 820 748 1496 1957 1709 1101 1013 1705 2237 2078 1407 1326 1873 2459 2198 1587 1470 2105 2732 2405 1781 1765 2437 3024 2712 2061 1919 2649 3148 2986 2250 2268 2809 3450 3201 2493 2475 2968 3616 3410 2812 2655 3123 3923 3812 3092 2791 3505 4060 3990 3348 3168 3576 4225 4226 3494 3255 3901 4490 4379 3727 3609 4160 4691 4655 4061 3734 4316 4987 5054 4244 3933 4388 4992 5047 4243 3832 4221 4934 4840 4095 3613 3975 4508 4636 3806 3385 3684 4410 4360 3577 3051 3544 4192 4130 3482 3010 3248 3844 3966 3285 2601 2976 3605 3605 2970 2509 2749 3419 3421 2807 2285 2500 3213 3284 2645 2073 2258 2902 2948 2376 1704 1900 2578 2849 2240 1640 1708 2310 2653 1993 1291 1531 2113 2276 1820 1159 1324 1986 2134 1475
195 174 181 244 211 188 155 194 181 197 247 162 237 164 226 225 207 197 248 185 249 198 207 218 164 185 228 196 192 225 215 236 225 229 232 199 240 165 227 238 211 189 247 151 170 179 159 150 156 192 211 211 231 173 248 211 226 231 203 195 160 249 219 242 249 237 160 234 244 160 204 168 196 177 250 243 238 228 188 217 229 220 169 232 180 168 170 194 192 171 241 227 183 180 167 247 214 174 164 232 195 172 156 159 224 239 176 183 219 184 192 237 238 213 175 233 242 246 186 225 175 217 225 214 912 963 1547 2084 1864 1179 1211 1766 2366 1975 1423 1372 2115 2533 2269 1582 1589 2223 2807 2506 1923 1729 2420 2955 2842 2201 2056 2609 3244 3083 2444 2241 2839 3492 3385 2549 2524 3204 3702 3508 2982 2747 3337 3940 3740 3216 3037 3534 4223 3972 3409 3090 3709 4319 4310 3732 3362 3980 4565 4561 3967 3606 4159 4817 4874 4043 3825 4343 5045 5074 4289 4076 4537 5350 5185 4646 4279 4809 5464 5315 4680 4285 4608 5211 5073 4454 3944 4279 5048 4986 4276 3679 4141 4688 4772 4079 3625 3849 4503 4464 3850 3251 3687 4184 4355 3602 3020 3404 4018 4080 3318 2938 3065 3742 3933 3195 2700 2883 3462 3531 3039 2360 2670 3240 3376 2711 2209 2465 2995 3172 2587 1887 2030 2689 2937 2271 1800 1894 2580 2672 2118 1556 1677 2238 2435 1924
178 212 198 217 157 160 191 240 159 190 200 212 185 163 167 184 244 155 216 174 236 216 250 181 191 218 199 155 204 230 150 241 153 154 163 232 177 193 188 185 232 151 189 206 165 234 167 168 245 182 236 227 228 168 185 247 190 219 162 151 184 232 238 175 198 209 195 213 230 223 240 209 204 184 179 248 240 233 230 154 213 238 236 157 226 192 184 158 152 159 150 164 229 196 201 171 231 246 197 238 207 202 237 193 194 218 215 152 211 237 245 176 208 203 165 249 168 159 177 203 150 179 245 169 219 867 1409 1916 1735 1024 929 1772 2250 1882 1349 1318 1978 2530 2246 1616 1373 2172 2785 2350 1684 1614 2250 2860 2621 2110 1900 2470 3089 2851 2230 2103 2778 3347 3141 2429 2392 2972 3515 3503 2828 2502 3091 3832 3651 2953 2754 3444 4034 3968 3166 2954 3702 4223 4194 3518 3314 3807 4383 4308 3764 3466 3953 4725 4646 4072 3647 4315 5015 4904 4197 3926 4535 5226 5187 4590 4079 4710 5269 5410 4698 4253 4563 5166 5111 4458 4018 4307 4899 4938 4116 3800 4029 4727 4660 3935 3548 3726 4457 4550 3776 3264 3512 4117 4233 3505 3007 3356 3902 4070 3313 2732 3077 3619 3879 3196 2568 2727 3429 3634 2868 2410 2526 3290 3303 2720 2094 2366 3057 3066 2518 1845 1978 2770 2975 2191 1567 1774 2566 2589 2057 1359 1538 2230 2481 1877
176 216 157 210 250 203 171 169 215 161 189 227 241 178 182 221 204 237 188 224 232 176 153 191 202 163 194 196 183 205 174 166 150 243 160 222 182 208 169 239 152 178 214 188 192 150 158 162 243 190 167 158 192 173 162 222 227 222 191 200 205 207 206 236 194 202 245 195 207 208 181 179 192 244 162 191 240 235 162 214 224 218 175 245 230 245 206 196 208 153 166 179 150 162 170 241 184 239 234 159 158 161 195 190 203 195 242 164 242 191 188 171 155 155 218 222 159 197 169 231 158 193 170 205 212 154 1080 1482 1217 528 461 1161 1832 1414 824 688 1511 1982 1689 998 995 1566 2203 1938 1272 1242 1862 2356 2247 1632 1379 1985 2688 2515 1880 1669 2313 2818 2600 2017 1893 2408 3181 2959 2350 2115 2737 3405 3150 2623 2353 2892 3452 3498 2726 2645 3208 3860 3687 3077 2800 3380 3997 3853 3239 2968 3512 4238 4120 3433 3215 3718 4435 4430 3842 3417 3975 4689 4633 4110 3622 4167 4845 4836 4249 3723 4121 4661 4683 4039 3564 3802 4477 4540 3773 3265 3651 4334 4323 3650 3005 3471 4062 3962 3337 2830 3094 3844 3820 3144 2687 2827 3536 3582 2927 2318 2587 3315 3464 2647 2226 2305 3124 3148 2443 1896 2199 2747 2889 2278 1709 1873 2631 2792 2093 1527 1695 2383 2449 1934 1322 1439 2157 2239 1701 1039 1259 1782 2082 1430
179 236 245 172 207 205 208 187 167 165 235 171 175 168 151 248 245 204 242 187 212 150 217 238 156 239 200 167 235 215 156 237 176 191 172 216 234 235 190 173 235 190 152 232 245 194 229 181 160 216 186 208 221 201 186 173 215 219 195 202 159 228 179 231 159 175 209 207 151 206 218 173 223 189 218 237 194 225 173 163 218 237 191 250 177 237 151 176 215 192 203 164 215 165 243 233 248 168 194 150 202 190 193 246 203 214 247 208 212 233 181 155 250 180 181 216 246 165 211 242 186 249 171 247 179 250 159 991 869 134 100 838 1277 1047 455 254 1068 1488 1276 527 623 1189 1814 1427 778 813 1362 1979 1717 1018 1033 1677 2246 2006 1402 1231 1801 2524 2250 1663 1504 2053 2678 2495 1810 1667 2209 2998 2809 2032 1971 2538 3044 2960 2382 2191 2644 3361 3243 2552 2299 2862 3615 3417 2739 2588 3161 3706 3799 3053 2799 3395 3916 3903 3406 2978 3633 4201 4256 3576 3199 3852 4529 4432 3788 3447 3713 4378 4373 3699 3174 3576 4191 4121 3452 2995 3383 3929 3944 3262 2717 3004 3759 3632 2939 2552 2840 3461 3423 2805 2290 2621 3130 3268 2647 2028 2294 2975 3097 2290 1775 2089 2793 2804 2207 1668 1739 2405 2683 1999 1427 1481 2201 2394 1756 1164 1219 2052 2133 1428 983 965 1753 1890 1336 629 840 1507 1666 1073
150 215 215 171 212 217 236 221 197 203 199 193 154 209 191 246 169 188 232 248 246 177 167 245 246 163 225 221 153 240 250 186 233 188 221 163 203 246 185 196 181 166 237 223 162 225 181 170 232 219 192 181 242 170 236 173 200 233 158 214 181 221 198 241 219 226 215 185 203 172 230 169 151 194 226 178 172 241 150 193 209 183 210 188 170 159 211 166 158 227 213 194 164 184 250 194 229 157 248 241 209 199 152 152 172 167 166 237 195 204 177 238 162 222 188 202 192 184 201 176 233 191 195 228 187 195 192 1143 821 184 188 781 1393 1040 433 315 912 1569 1220 630 529 1174 1738 1427 898 693 1509 1961 1843 1067 935 1682 2300 2044 1255 1163 1928 2465 2167 1526 1361 1962 2685 2473 1776 1697 2188 2796 2744 2121 1807 2459 3194 2890 2376 2050 2769 3374 3211 2613 2250 2931 3535 3402 2926 2481 3085 3692 3790 3043 2717 3347 4082 3951 3400 3113 3485 4136 4265 3614 3287 3675 4467 4427 3868 3532 3876 4562 4468 3638 3253 3556 4169 4261 3511 3043 3369 3995 3950 3299 2848 3100 3757 3787 3011 2592 2813 3526 3581 2862 2380 2596 3249 3231 2743 2142 2370 3005 3089 2500 1778 2174 2715 2858 2232 1716 1942 2556 2631 2023 1416 1591 2223 2497 1757 1284 1445 1949 2111 1500 985 1045 1817 2065 1364 728 946 1480 1835 1130
250 203 219 179 170 238 157 204 152 185 223 242 196 243 198 164 176 219 243 182 227 238 189 227 194 242 179 193 233 152 242 183 190 217 165 247 193 188 217 154 243 219 151 180 228 250 206 239 162 236 190 163 154 240 161 208 225 193 197 195 163 238 175 198 199 216 153 176 245 190 182 175 246 162 187 216 180 215 159 162 201 185 186 179 206 151 209 236 172 180 178 153 194 250 225 172 246 210 171 162 198 217 221 230 211 219 183 248 240 227 185 179 188 157 246 206 222 155 233 249 168 168 166 244 207 229 182 230 1165 537 504 1134 1638 1393 667 717 1406 1997 1636 946 836 1678 2131 1944 1252 1134 1886 2336 2072 1391 1343 1992 2547 2383 1791 1493 2231 2901 2560 2024 1902 2461 2955 2874 2177 1948 2570 3239 3061 2529 2273 2944 3455 3417 2712 2454 3065 3766 3539 3029 2655 3346 3908 3935 3241 2874 3492 4253 4072 3522 3244 3623 4365 4394 3789 3294 3837 4644 4494 3992 3616 4064 4859 4742 4193 3933 4410 4933 4808 4253 3764 4156 4762 4563 3958 3545 3883 4446 4464 3777 3316 3565 4162 4235 3611 3063 3335 4013 3936 3374 2846 3080 3718 3724 3118 2530 2803 3376 3528 2951 2277 2498 3182 3411 2730 2054 2376 2950 3023 2557 1857 2166 2720 2786 2357 1625 1747 2503 2635 2083 1508 1577 2182 2458 1752 1244 1346 2016 2289 1541
218 155 241 212 208 241 154 179 185 188 171 245 159 202 211 179 196 158 230 231 247 175 162 221 171 201 177 190 226 189 206 150 168 226 225 225 206 221 172 169 217 156 235 237 168 156 155 246 161 211 205 233 246 179 224 248 156 243 174 184 216 156 210 156 250 193 154 243 172 193 167 163 157 156 191 193 193 216 247 180 155 205 193 191 153 173 207 204 172 198 168 242 207 152 185 174 206 178 177 190 243 209 239 193 195 172 239 186 153 179 190 233 150 173 241 218 179 241 246 161 191 155 200 163 246 160 229 231 175 840 812 1627 2001 1796 1218 1052 1798 2341 1926 1340 1326 1931 2615 2362 1529 1616 2138 2749 2578 1876 1681 2433 3070 2800 2189 2000 2658 3296 3072 2380 2255 2854 3345 3208 2675 2483 3045 3616 3576 2910 2662 3276 3800 3726 3086 2855 3432 4049 3955 3289 3119 3642 4231 4305 3649 3313 3890 4504 4472 3820 3614 4108 4735 4691 4175 3736 4219 4947 4944 4260 3917 4577 5172 5168 4549 4145 4672 5405 5427 4622 4153 4537 5238 5216 4315 3937 4198 4903 4808 4274 3746 3979 4567 4748 3920 3503 3699 4411 4512 3857 3164 3630 4106 4231 3569 3109 3294 3969 4023 3320 2829 2976 3775 3810 3205 2642 2780 3344 3597 2987 2282 2621 3201 3245 2749 2066 2297 2932 3062 2569 1937 2049 2719 2856 2241 1660 1827 2530 2704 2161
249 169 190 198 191 184 209 246 175 183 176 224 208 177 208 187 179 174 232 233 181 157 234 196 224 229 209 198 181 188 210 156 179 220 189 156 181 171 233 188 216 169 192 150 187 208 184 232 243 236 242 215 218 169 190 176 164 168 201 178 168 156 172 172 175 197 155 169 202 179 190 239 222 236 198 167 194 151 168 174 234 183 210 184 233 218 208 152 166 250 163 196 230 205 202 214 205 223 229 209 200 221 217 213 177 201 195 212 188 214 248 185 196 242 170 199 203 159 201 249 201 201 249 208 161 165 227 237 182 208 804 1606 1993 1872 1181 1124 1728 2402 2072 1444 1242 2035 2482 2188 1524 1436 2217 2744 2462 1938 1799 2466 2902 2863 2045 1978 2517 3229 3062 2456 2210 2900 3398 3275 2586 2368 3045 3655 3511 2875 2610 3322 3902 3670 3119 2844 3476 4060 4080 3288 3112 3754 4352 4336 3537 3367 3965 4483 4455 3765 3500 3990 4839 4764 4164 3710 4253 5067 4917 4346 3961 4482 5230 5238 4586 4169 4689 5497 5317 4639 4149 4633 5193 5255 4455 4015 4327 5074 5000 4355 3776 4025 4713 4830 4047 3499 3852 4430 4459 3762 3303 3650 4355 4217 3644 3091 3311 4033 4150 3374 2817 3151 3716 3793 3286 2622 2954 3612 3641 2915 2456 2698 3239 3411 2745 2189 2372 2959 3158 2500 1890 2142 2807 3041 2282 1706 1900 2439 2679 2255
203 188 174 162 150 182 183 190 168 181 169 198 203 210 151 248 209 227 233 226 242 244 151 160 152 215 200 172 174 215 224 217 205 239 169 222 151 171 225 167 199 211 158 229 213 172 178 156 154 161 213 221 192 154 161 179 247 171 227 230 202 151 176 214 177 196 157 155 167 185 150 176 175 241 237 202 162 222 174 189 159 164 158 195 170 246 152 232 210 191 185 197 216 217 185 187 237 157 220 185 152 172 248 175 187 184 167 194 244 216 240 156 179 173 240 164 196 217 198 229 194 234 184 165 234 167 212 199 210 207 173 1129 1605 1422 631 605 1364 1967 1586 1002 973 1633 2046 1904 1238 1174 1769 2261 2173 1507 1389 1971 2475 2338 1780 1533 2287 2880 2686 1850 1814 2449 3095 2815 2266 2091 2533 3271 3184 2479 2193 2857 3384 3246 2751 2379 2957 3586 3486 2950 2646 3149 4002 3886 3146 2865 3554 4221 4158 3357 3119 3713 4445 4331 3647 3316 3803 4600 4635 3997 3557 4005 4785 4727 4083 3923 4256 5074 5010 4260 3975 4294 4845 4804 4107 3742 4110 4692 4597 3896 3359 3708 4379 4459 3668 3187 3550 4186 4247 3524 2950 3306 3919 3997 3207 2718 3021 3722 3734 3044 2615 2858 3480 3527 2900 2247 2448 3242 3262 2688 2145 2259 2919 3149 2369 1884 1997 2712 2798 2194 1612 1761 2403 2714 2122 1365 1560 2243 2409 1767
198 218 174 179 247 218 183 168 168 152 179 211 244 220 156 247 173 165 161 163 177 223 188 249 236 211 153 249 165 157 244 238 212 158 239 155 221 189 150 204 167 188 196 233 154 169 162 242 172 163 208 200 235 212 153 183 176 198 182 180 239 187 182 175 224 222 159 178 235 188 249 205 171 221 242 164 166 198 200 239 233 245 185 242 202 239 164 212 233 214 160 242 233 226 235 205 215 229 218 247 244 166 187 234 198 188 211 173 223 155 172 226 247 200 210 213 239 191 214 209 163 160 157 248 208 187 195 238 221 246 160 192 1221 826 173 107 794 1324 1187 551 380 1151 1626 1380 769 713 1360 1796 1630 996 809 1503 2054 1779 1137 1097 1734 2210 2038 1470 1264 1966 2582 2403 1702 1478 2146 2755 2598 1973 1838 2301 3001 2823 2254 1915 2584 3246 3146 2428 2160 2722 3320 3320 2730 2504 3015 3588 3655 2858 2552 3101 3837 3902 3103 2963 3362 4017 4051 3476 3017 3683 4379 4313 3637 3422 3881 4532 4586 3957 3450 3817 4547 4386 3792 3288 3543 4302 4164 3583 2934 3435 3896 4097 3306 2798 3018 3794 3874 3156 2639 2895 3448 3477 2806 2264 2556 3194 3436 2584 2210 2450 3022 3037 2371 1887 2132 2687 2901 2217 1726 1905 2492 2635 2089 1398 1574 2238 2361 1868 1129 1343 2074 2132 1670 914 1157 1721 2037 1475
185 190 241 206 184 250 212 249 202 168 162 166 250 201 222 196 212 166 183 236 158 159 219 249 220 178 250 240 185 169 243 250 230 213 218 151 244 196 198 215 195 235 171 219 230 218 191 246 196 201 204 206 200 198 239 231 160 181 222 164 189 209 217 206 231 232 239 199 162 238 227 160 226 217 195 220 169 243 170 180 177 158 176 237 199 206 189 228 179 155 210 214 168 218 211 168 150 190 169 220 153 178 196 185 244 234 215 194 159 177 166 231 159 192 210 185 198 219 228 161 177 173 216 156 206 248 174 177 213 227 190 169 948 719 140 100 802 1198 972 247 167 935 1466 1306 491 444 1132 1713 1374 775 714 1431 1958 1775 973 889 1531 2195 1972 1339 1222 1672 2286 2222 1589 1295 1919 2524 2362 1890 1695 2234 2787 2758 2074 1837 2487 3044 3008 2288 2127 2577 3199 3186 2487 2188 2918 3418 3386 2690 2410 2998 3650 3760 3115 2648 3153 3985 4006 3194 2897 3439 4168 4100 3591 3260 3665 4306 4455 3804 3452 3777 4421 4416 3664 3144 3445 4262 4184 3542 3014 3360 3878 3900 3210 2815 3063 3593 3737 3081 2554 2754 3525 3394 2871 2179 2609 3098 3253 2574 2017 2244 2843 2967 2414 1765 2129 2794 2885 2277 1663 1709 2463 2622 2024 1366 1580 2140 2417 1734 1148 1266 1925 2081 1540 957 1097 1793 1951 1317
158 219 231 177 186 235 217 168 249 168 196 189 196 151 239 210 165 171 195 229 180 241 250 200 185 235 190 207 246 216 156 203 230 172 159 204 172 238 233 180 173 202 153 223 228 160 170 155 189 228 175 198 158 231 249 210 213 176 249 219 244 155 234 157 237 250 166 201 176 241 226 246 213 232 151 226 206 166 152 204 203 178 190 196 199 246 245 158 153 216 173 160 169 243 171 235 215 159 187 237 171 234 242 233 204 213 209 238 239 191 240 229 238 162 231 226 182 237 238 230 159 232 246 150 235 248 220 181 206 173 235 180 207 923 471 360 917 1494 1276 603 615 1278 1782 1488 824 717 1409 1949 1772 1159 937 1673 2272 2040 1388 1305 1863 2493 2250 1635 1433 2003 2605 2416 1821 1714 2256 2866 2816 2185 1843 2436 3023 3029 2366 2030 2697 3291 3307 2555 2356 2965 3607 3563 2852 2650 3056 3799 3679 3178 2803 3247 3984 4037 3346 2935 3583 4218 4125 3486 3243 3780 4462 4559 3905 3447 3938 4612 4604 4022 3763 4159 4727 4754 4031 3516 3805 4446 4530 3807 3275 3611 4243 4231 3657 3016 3458 3969 4155 3323 2958 3132 3822 3848 3146 2698 2858 3493 3568 2958 2500 2587 3357 3389 2804 2143 2332 3145 3102 2611 1918 2139 2734 2962 2318 1779 1937 2629 2713 2104 1474 1687 2295 2535 1843 1280 1334 2141 2376 1742
207 182 230 199 164 226 161 221 161 220 150 174 226 181 208 157 174 156 193 183 171 250 184 216 184 177 168 152 238 204 163 207 170 206 214 179 161 240 214 185 230 189 185 223 234 183 157 205 196 179 158 178 250 158 207 163 238 220 231 234 202 245 164 173 213 234 230 190 219 244 218 201 233 173 160 230 240 173 238 190 186 242 191 175 232 225 170 166 214 243 162 214 228 232 207 178 217 185 191 153 169 195 168 180 197 178 230 236 150 202 221 189 185 176 220 248 243 192 245 160 213 238 248 229 201 158 195 209 243 199 246 150 231 200 829 696 1410 1999 1787 1074 1081 1629 2183 2004 1299 1250 1822 2526 2278 1636 1441 2079 2740 2497 1791 1731 2191 2881 2741 1962 1927 2471 3067 2908 2355 2054 2730 3403 3101 2540 2384 2925 3576 3373 2751 2521 3178 3702 3681 3056 2825 3331 4026 3981 3167 3022 3492 4129 4165 3613 3190 3856 4434 4473 3732 3505 3955 4662 4642 3950 3716 4248 4843 4967 4307 4010 4418 5147 5109 4582 4220 4684 5342 5242 4632 4106 4434 5100 5006 4240 3883 4196 4748 4810 4043 3626 3886 4569 4664 3943 3372 3605 4278 4283 3663 3237 3489 4147 4200 3525 2949 3126 3906 3972 3304 2708 2854 3564 3682 3086 2396 2610 3309 3446 2875 2250 2372 3108 3298 2640 1943 2178 2923 3066 2351 1803 1993 2492 2857 2314
203 238 157 204 219 160 219 250 236 247 156 221 202 150 215 179 231 161 241 175 162 223 219 160 183 195 208 174 204 189 240 150 223 159 187 209 168 224 247 218 192 159 174 217 159 212 185 163 168 195 169 197 245 239 213 239 233 179 187 177 249 235 235 174 167 226 217 166 209 175 163 248 184 221 151 171 168 211 164 222 211 233 174 190 204 219 188 185 236 170 199 205 182 194 212 231 201 248 159 165 216 177 242 242 207 176 158 243 238 152 202 150 181 203 160 193 207 209 166 204 168 209 222 232 189 164 234 169 229 171 195 211 173 213 248 985 1536 2025 1772 1114 1030 1709 2309 2043 1365 1430 2041 2524 2423 1636 1527 2241 2739 2537 2009 1831 2440 2961 2734 2088 1996 2651 3317 3096 2338 2303 2750 3486 3248 2558 2449 3128 3611 3610 2832 2608 3241 3811 3863 3114 2832 3422 4225 4047 3468 3211 3620 4427 4232 3584 3285 3814 4639 4589 3931 3589 4088 4770 4767 4207 3832 4370 5027 4991 4387 3979 4483 5141 5235 4576 4377 4694 5546 5447 4771 4345 4693 5238 5167 4594 4000 4365 5109 4995 4382 3737 4133 4745 4792 4181 3543 3892 4471 4582 3981 3335 3531 4237 4304 3620 3197 3419 3972 4229 3551 2939 3224 3799 3994 3347 2743 2793 3495 3712 3112 2389 2569 3345 3452 2922 2170 2340 3004 3332 2623 1988 2147 2890 3059 2480
228 231 177 168 180 197 225 168 175 198 168 238 218 244 249 229 241 157 247 189 195 217 172 249 224 174 221 161 168 236 158 209 237 206 197 230 151 237 231 190 166 250 250 235 155 204 217 244 206 232 198 198 228 198 210 221 216 195 191 216 246 236 205 234 155 156 209 152 245 197 201 189 182 238 230 223 200 156 207 188 197 227 188 249 168 172 222 193 163 177 235 241 198 234 176 196 172 165 180 174 231 201 194 223 248 183 195 233 193 170 200 175 184 157 159 171 231 228 216 203 211 150 242 250 186 209 180 192 161 211 155 191 245 217 202 214 1317 1879 1475 946 700 1514 1976 1665 1193 1064 1708 2257 2085 1279 1147 1802 2498 2349 1546 1517 2084 2730 2540 1871 1656 2404 2882 2826 2124 1835 2443 3242 3004 2345 2159 2743 3417 3223 2673 2301 2954 3517 3470 2857 2648 3214 3722 3811 3120 2805 3271 4059 4063 3235 3133 3499 4333 4234 3524 3286 3861 4529 4536 3879 3433 4063 4611 4613 4142 3748 4304 4965 4908 4285 4009 4419 5147 5245 4495 3975 4456 5081 4918 4393 3827 4213 4687 4751 4185 3641 3963 4539 4625 3869 3372 3579 4302 4338 3678 3108 3400 4079 4141 3502 2979 3048 3862 3850 3308 2611 2872 3522 3647 3058 2400 2596 3319 3391 2760 2201 2420 3138 3211 2713 1976 2246 2904 3050 2323 1786 1993 2581 2846 2238
151 200 188 194 168 206 219 179 217 179 176 188 243 204 178 152 191 192 175 244 236 245 242 198 167 205 160 225 212 179 222 159 250 177 157 180 210 236 208 174 217 204 167 198 200 179 214 177 158 207 161 227 156 237 170 215 177 194 152 241 245 216 247 195 201 172 179 195 182 202 235 204 242 250 159 229 245 250 166 209 234 154 216 206 178 245 184 158 240 247 207 212 224 183 195 235 247 249 210 237 198 160 201 243 197 164 216 249 154 218 188 235 194 156 175 210 188 151 168 242 238 174 171 231 228 168 238 223 188 209 183 181 185 225 208 159 203 1284 1056 444 180 1013 1510 1193 532 552 1250 1807 1557 783 695 1323 1884 1733 1167 954 1550 2127 1929 1319 1226 1848 2500 2321 1637 1365 2052 2656 2413 1836 1561 2226 2804 2698 2024 1910 2345 2985 2988 2265 2146 2634 3354 3226 2634 2245 2755 3526 3464 2841 2605 3065 3770 3706 3151 2757 3359 4025 3973 3235 3010 3515 4275 4208 3606 3113 3627 4491 4433 3735 3494 3964 4678 4739 3979 3679 3865 4613 4646 3836 3391 3754 4418 4402 3727 3165 3401 4183 4121 3438 2862 3221 3797 3994 3298 2756 2999 3661 3714 3061 2507 2638 3445 3423 2851 2192 2457 3140 3201 2544 2028 2210 2856 2974 2478 1703 2020 2529 2752 2091 1494 1764 2319 2546 2041 1418 1495 2055 2376 1797
178 183 248 160 208 232 155 171 211 238 229 216 227 195 196 182 194 181 247 155 201 244 200 197 152 157 206 180 212 235 240 158 248 214 237 237 209 231 242 228 153 192 192 217 229 189 187 177 179 227 176 173 222 217 193 198 208 180 210 235 214 250 192 246 186 168 223 213 205 196 188 246 172 225 184 154 174 187 217 176 183 169 225 220 244 181 181 216 222 221 185 211 160 214 182 176 189 170 222 156 167 199 220 248 169 190 246 156 174 164 169 178 165 202 223 152 152 217 157 206 236 241 168 183 177 153 226 189 208 226 178 204 239 203 239 234 178 924 684 100 100 773 1255 904 273 180 889 1430 1135 572 482 1061 1700 1437 824 606 1400 1832 1623 1062 975 1528 2184 1899 1280 1103 1733 2343 2135 1548 1340 1976 2600 2492 1892 1578 2082 2823 2698 1959 1751 2393 2975 2841 2382 1966 2610 3257 3148 2472 2275 2733 3377 3423 2795 2544 2949 3747 3770 3075 2725 3254 3983 3989 3285 2860 3424 4078 4235 3456 3072 3606 4259 4316 3801 3444 3675 4289 4308 3720 3083 3495 4231 4244 3501 2970 3281 3872 3959 3224 2665 3053 3728 3757 3096 2481 2788 3378 3575 2845 2176 2492 3169 3286 2709 1933 2293 2986 2994 2468 1765 2107 2734 2884 2157 1492 1796 2479 2575 1934 1411 1513 2239 2301 1670 1202 1223 1993 2211 1563
158 196 212 175 152 152 220 164 245 185 153 185 212 203 244 226 242 246 236 233 224 222 165 150 181 178 229 173 156 189 210 197 203 175 232 179 181 170 236 231 180 163 203 170 238 212 206 150 189 246 164 244 240 161 165 172 181 216 238 159 197 198 215 187 250 217 169 175 167 222 236 199 153 196 157 201 248 167 196 207 188 202 215 169 193 190 221 218 186 245 208 225 240 214 150 164 152 179 201 158 163 235 193 250 163 243 183 167 164 175 210 228 245 225 234 193 244 158 174 216 184 187 228 163 167 234 243 168 223 239 190 184 236 207 221 212 192 162 966 346 100 934 1322 1212 475 335 1061 1674 1400 785 614 1194 1801 1594 974 788 1519 2045 1979 1295 1095 1605 2369 2083 1514 1344 2011 2446 2295 1760 1466 2059 2808 2711 2069 1660 2321 2894 2830 2263 2000 2575 3291 3052 2452 2119 2793 3355 3464 2809 2418 2909 3603 3604 3035 2600 3116 3864 3885 3170 2810 3327 4026 4106 3407 3174 3691 4360 4314 3725 3337 3727 4594 4509 3972 3510 3918 4681 4683 3943 3423 3740 4464 4443 3666 3110 3420 4170 4184 3506 2886 3251 4002 3953 3389 2681 2919 3563 3677 2994 2622 2760 3425 3478 2901 2234 2424 3127 3339 2651 2045 2252 2993 3013 2354 1841 2078 2584 2844 2297 1682 1699 2428 2668 2028 1463 1479 2270 2372 1782
208 175 235 173 246 249 199 209 197 183 178 197 230 246 178 207 175 173 172 154 166 231 249 185 238 159 158 161 246 211 203 229 176 177 176 193 236 174 235 156 195 218 197 192 184 203 239 244 205 248 224 214 158 238 223 193 247 242 206 168 151 205 199 222 196 206 232 151 207 163 249 220 229 159 158 188 233 168 202 226 220 218 166 186 162 165 232 187 249 214 209 156 235 237 244 176 165 230 195 177 247 204 170 213 187 152 249 219 206 152 178 224 181 187 238 238 164 228 229 151 174 153 229 178 233 215 153 174 158 184 183 243 202 200 176 242 168 214 179 650 590 1311 1923 1610 852 753 1429 2046 1818 1154 1118 1682 2333 2046 1421 1298 1881 2538 2313 1668 1471 2143 2732 2546 1908 1760 2399 2920 2902 2092 2005 2569 3293 3103 2495 2121 2860 3518 3292 2641 2469 2944 3732 3605 2927 2601 3213 3803 3721 3235 2952 3479 4100 4084 3342 3102 3648 4383 4336 3621 3378 3834 4532 4581 3953 3604 4093 4659 4823 4104 3780 4246 5027 5102 4466 3936 4500 5230 5115 4432 3946 4214 5006 4906 4212 3620 4005 4728 4735 4052 3426 3873 4513 4439 3752 3315 3451 4185 4354 3674 3046 3187 3835 4058 3401 2883 3106 3730 3807 3195 2557 2848 3362 3662 2931 2265 2566 3214 3356 2720 2168 2296 2954 3074 2515 1869 2061 2798 2888 2379
224 171 213 248 155 204 154 240 243 223 154 195 189 202 161 207 208 242 173 242 232 186 207 241 235 202 156 205 152 233 227 172 196 159 181 205 164 164 191 190 225 222 223 193 190 247 153 195 194 163 164 190 218 230 212 173 243 233 182 217 246 188 202 185 163 186 173 199 162 164 178 184 183 171 156 184 168 212 215 162 226 186 214 156 173 192 160 203 193 153 217 158 205 248 244 182 172 221 249 167 151 248 150 166 238 245 241 247 249 172 224 188 244 169 172 177 152 171 179 214 232 242 201 225 248 201 232 218 206 175 226 172 216 204 158 196 164 184 200 248 934 1558 2162 1785 1246 1138 1702 2284 2122 1475 1353 2044 2616 2433 1746 1501 2258 2795 2616 1858 1771 2396 2969 2861 2163 2028 2587 3287 3064 2513 2134 2845 3474 3390 2589 2506 3082 3702 3631 2871 2706 3155 3915 3917 3160 2994 3493 4088 4133 3391 3100 3753 4335 4255 3747 3415 3822 4645 4500 3943 3527 3995 4862 4753 4076 3773 4308 4990 5134 4371 4084 4449 5158 5241 4721 4312 4815 5421 5455 4685 4207 4628 5235 5214 4602 4065 4426 4927 5024 4381 3874 4064 4835 4830 4041 3534 3833 4519 4537 3853 3437 3588 4348 4468 3726 3093 3382 4033 4060 3427 2913 3113 3717 3965 3214 2754 2865 3614 3770 3181 2380 2641 3349 3478 2895 2328 2317 2987 3311 2691
188 215 170 162 152 199 203 174 187 166 160 151 175 189 216 219 222 242 229 171 232 206 250 171 201 249 238 243 240 150 157 216 161 170 167 170 221 182 245 228 229 151 224 170 242 156 227 176 180 248 167 171 250 150 168 216 193 214 233 243 197 150 246 189 157 230 217 243 211 236 249 225 190 172 191 171 248 173 247 193 250 189 217 249 183 240 170 197 232 242 164 161 238 185 154 232 218 190 249 160 202 178 158 175 249 158 230 177 175 215 241 232 230 222 247 220 154 160 176 201 228 180 195 200 197 242 224 240 211 176 212 206 205 161 204 159 226 223 234 201 197 1358 1862 1717 961 880 1466 2193 1923 1204 1097 1763 2414 2079 1390 1405 1913 2623 2341 1634 1580 2114 2876 2694 1909 1835 2327 3129 2920 2138 2078 2598 3246 3219 2374 2293 2756 3470 3321 2679 2565 3004 3780 3691 3001 2686 3150 3932 3845 3270 2944 3371 4095 4088 3502 3095 3600 4455 4432 3667 3309 3893 4502 4495 3902 3563 4018 4838 4823 4241 3858 4325 4961 5064 4427 4072 4424 5313 5416 4715 4148 4449 5105 5113 4471 3827 4267 4888 4914 4215 3703 4003 4660 4787 3936 3424 3692 4387 4489 3826 3312 3408 4148 4316 3631 3042 3159 3956 4075 3329 2707 3061 3694 3839 3144 2574 2700 3400 3485 2957 2349 2567 3199 3381 2826 2214 2225 2938 3140 2514
220 213 216 197 171 238 173 223 247 236 213 223 185 167 166 179 162 246 209 222 195 237 200 178 212 232 236 177 211 237 186 165 244 222 221 169 181 153 226 166 163 163 220 168 166 249 187 233 240 234 204 165 206 243 248 239 236 209 150 191 195 216 188 194 157 214 232 194 173 248 241 200 241 192 207 161 216 167 167 154 232 239 237 220 178 176 150 204 165 250 159 190 238 230 203 158 170 235 195 213 170 204 183 205 230 219 221 174 192 228 223 219 172 231 233 210 227 213 210 223 223 221 153 170 175 222 213 150 235 240 150 203 228 230 224 161 244 235 227 196 209 233 1443 1187 424 460 1133 1688 1423 644 554 1179 1763 1602 1070 907 1382 2158 1973 1296 1041 1754 2316 2201 1517 1273 1985 2555 2458 1722 1589 2188 2822 2683 1904 1792 2341 3001 2886 2142 1961 2490 3192 3161 2445 2247 2715 3463 3433 2684 2401 2985 3709 3632 3026 2636 3254 3951 3748 3213 2937 3445 4095 4039 3535 3202 3643 4279 4236 3644 3251 3719 4492 4578 3980 3658 3993 4717 4748 4110 3640 4076 4701 4614 4083 3592 3824 4526 4403 3856 3244 3617 4249 4166 3663 3046 3236 3922 3960 3417 2796 3021 3725 3779 3223 2549 2746 3472 3655 2927 2349 2557 3150 3297 2739 2139 2398 2906 3207 2551 1900 2070 2723 2853 2278 1708 1885 2383 2673 2208
221 213 219 165 224 165 181 216 217 194 182 182 202 151 177 232 186 234 205 241 239 200 170 187 150 243 177 168 240 158 167 152 164 234 170 152 187 179 223 199 184 162 209 192 217 231 211 174 191 202 186 250 202 211 204 154 237 182 198 237 246 170 184 178 180 207 205 236 169 184 165 160 200 211 158 184 249 211 205 176 224 221 197 204 157 237 154 201 171 176 238 226 211 182 205 172 178 198 159 161 197 168 214 151 191 190 194 227 236 185 189 197 181 202 170 195 196 157 225 222 195 156 237 231 236 202 202 211 178 211 207 215 242 235 249 190 213 238 171 221 151 184 1032 750 100 100 601 1173 1024 342 301 880 1534 1343 569 449 1160 1670 1406 768 725 1344 1876 1651 1073 830 1561 2233 2053 1280 1170 1738 2425 2294 1488 1423 1940 2601 2415 1815 1673 2204 2834 2666 2101 1915 2318 2941 3055 2339 2095 2634 3241 3270 2556 2303 2781 3413 3363 2789 2583 3050 3779 3621 2980 2806 3121 3853 4019 3270 3017 3462 4213 4123 3538 3094 3567 4409 4404 3784 3339 3744 4380 4314 3773 3188 3585 4128 4152 3459 2868 3204 3994 3859 3377 2741 3003 3577 3742 3068 2440 2748 3385 3444 2958 2278 2521 3255 3341 2669 2081 2208 2891 2970 2361 1932 1956 2761 2822 2243 1638 1846 2378 2680 2084 1305 1544 2168 2352 1896
164 160 248 206 188 230 222 167 195 183 167 221 208 164 153 244 163 200 159 159 216 243 243 151 240 191 245 231 195 199 158 203 153 152 221 231 172 151 223 223 246 190 185 202 235 162 224 223 205 215 249 158 164 184 241 163 166 225 175 236 213 208 203 205 182 242 221 198 242 182 203 245 243 249 157 248 221 195 178 221 248 208 223 233 150 233 195 210 220 202 221 244 240 211 205 170 160 156 227 199 158 236 167 179 197 203 203 241 193 165 241 210 219 239 160 165 195 180 200 168 233 240 212 189 230 158 237 196 215 166 179 198 174 207 173 168 220 203 167 224 249 168 248 813 120 165 753 1225 1154 421 359 928 1585 1284 646 621 1074 1834 1571 851 781 1336 2066 1798 1094 991 1524 2194 2038 1327 1287 1839 2445 2208 1717 1429 2037 2663 2497 1904 1675 2152 2943 2779 2210 1807 2440 3164 3103 2467 2146 2622 3236 3351 2570 2373 2763 3598 3512 2891 2621 3021 3758 3711 3052 2789 3267 3967 4082 3388 2923 3383 4167 4208 3600 3171 3780 4318 4503 3844 3386 3929 4531 4620 3744 3418 3710 4224 4404 3628 3035 3476 4061 4119 3446 2950 3210 3716 3889 3204 2579 2940 3606 3649 3008 2445 2561 3364 3465 2855 2119 2371 3055 3230 2528 1897 2078 2895 2896 2334 1683 1874 2498 2764 2110 1581 1645 2312 2571 1904
250 182 197 225 231 152 191 239 201 214 242 171 203 195 248 152 217 225 187 185 187 242 169 220 172 171 174 206 205 236 245 215 213 217 159 151 156 216 242 151 200 151 209 176 177 219 210 191 159 239 216 188 210 245 192 243 178 190 223 199 234 180 199 231 153 154 183 171 196 215 179 159 207 207 159 248 235 201 227 157 176 159 174 182 178 186 166 249 180 175 188 185 202 239 157 222 194 171 224 209 199 208 217 189 207 236 164 179 179 232 177 173 202 243 248 161 192 232 222 186 233 240 250 239 181 200 153 216 184 151 198 183 219 164 206 239 245 236 195 168 234 237 235 245 507 545 1098 1801 1422 846 621 1301 2022 1643 1106 835 1588 2207 1911 1226 1120 1689 2333 2147 1495 1420 2062 2692 2521 1865 1633 2104 2773 2669 2095 1783 2376 3124 2857 2298 2157 2527 3213 3162 2561 2205 2911 3482 3404 2861 2417 3072 3776 3656 2966 2736 3294 4019 3972 3298 2986 3549 4125 4127 3596 3160 3595 4402 4470 3851 3400 3811 4610 4703 4016 3637 4121 4802 4910 4192 3917 4313 5050 5075 4329 3846 4083 4736 4850 4139 3603 3821 4611 4570 3962 3322 3601 4280 4374 3779 3119 3359 4109 4145 3526 3003 3162 3745 3824 3244 2688 2947 3449 3629 2987 2541 2717 3289 3462 2807 2228 2417 3085 3282 2654 1987 2099 2894 2922 2448
193 182 161 152 206 170 165 243 191 202 155 193 243 163 197 227 169 246 188 230 159 191 193 182 246 232 165 191 159 213 194 174 227 205 230 192 151 248 189 178 156 165 170 178 184 203 224 176 223 228 182 194 193 188 241 181 202 238 175 166 245 196 172 213 184 244 250 213 229 249 194 196 190 234 240 248 220 249 164 189 217 175 174 217 159 241 185 244 199 212 180 164 155 239 213 190 155 219 230 231 168 173 205 244 247 176 158 167 158 224 162 166 152 161 204 158 236 226 248 170 151 168 228 222 220 169 183 169 225 220 160 180 190 204 185 204 166 190 157 163 185 236 192 161 168 922 1448 2015 1778 1166 985 1643 2363 1981 1332 1278 1818 2531 2326 1742 1485 2222 2708 2625 1935 1709 2388 3022 2893 2225 1881 2493 3150 3153 2408 2221 2682 3321 3347 2571 2407 2995 3528 3600 2954 2689 3215 3848 3767 3059 2892 3297 4019 3985 3364 3135 3675 4382 4336 3693 3337 3749 4554 4597 3841 3523 3994 4720 4860 4155 3759 4180 4936 5098 4421 3967 4529 5073 5159 4629 4271 4652 5361 5413 4793 4251 4455 5128 5152 4566 4091 4367 5037 5045 4261 3750 3997 4631 4866 4192 3550 3772 4359 4577 3854 3326 3560 4278 4286 3598 3011 3290 4055 4143 3575 2855 3056 3616 3815 3192 2681 2817 3517 3739 3074 2342 2656 3226 3525 2837
226 236 209 232 185 217 156 163 236 158 170 222 183 203 250 206 166 235 174 188 155 193 185 193 235 174 170 224 153 209 156 209 174 220 181 165 152 158 214 193 186 160 150 230 165 217 223 179 216 250 239 171 166 216 154 227 157 188 191 238 173 222 233 177 193 167 238 191 173 220 176 236 217 191 159 204 218 179 233 188 245 195 247 179 241 156 195 227 247 155 195 158 225 166 171 166 186 187 235 182 189 207 200 155 236 202 192 171 189 245 223 185 165 250 246 208 192 181 212 226 163 181 163 151 219 188 208 173 191 220 227 234 203 164 150 245 172 204 152 216 183 249 229 195 185 196 1326 1930 1741 1026 937 1673 2277 1966 1405 1258 1874 2438 2230 1608 1463 1991 2764 2567 1887 1605 2167 2896 2715 2132 1974 2508 3157 2945 2408 2032 2759 3249 3189 2641 2334 2877 3479 3535 2750 2603 3087 3805 3807 3088 2697 3243 4045 4002 3302 2948 3543 4202 4125 3482 3157 3731 4391 4399 3895 3451 4022 4684 4612 4014 3664 4219 4913 5032 4346 3856 4422 5198 5224 4515 4074 4663 5322 5396 4763 4271 4582 5157 5321 4625 4085 4269 4876 4942 4356 3858 4134 4749 4822 4050 3660 3817 4479 4644 4000 3321 3625 4134 4326 3662 3181 3394 3937 4189 3556 2959 3013 3696 3805 3248 2607 2753 3535 3610 3139 2512 2485 3231 3493 2879
226 217 180 242 216 207 237 198 206 169 197 151 158 218 183 198 155 246 218 152 155 182 247 153 205 237 202 169 160 192 167 181 201 248 199 237 232 197 221 235 194 210 221 209 185 182 234 222 156 152 199 183 163 232 235 244 178 206 224 205 189 160 214 186 186 229 185 208 218 166 248 182 155 242 159 165 155 197 228 211 196 163 203 214 235 155 220 229 238 229 230 189 154 225 217 230 195 211 182 218 224 206 228 210 247 166 223 184 228 177 189 167 241 212 231 180 215 194 237 201 172 208 176 152 164 204 236 153 206 173 177 214 172 200 247 169 174 176 218 250 219 155 191 184 199 193 193 1610 1333 662 511 1272 1686 1545 888 834 1427 1947 1841 1151 987 1592 2299 2114 1424 1249 1907 2419 2347 1597 1355 1987 2748 2501 1867 1691 2161 2847 2874 2174 1786 2427 3167 2937 2433 2201 2607 3252 3220 2650 2294 2800 3500 3552 2899 2541 3043 3785 3771 3043 2735 3342 3890 3903 3266 3028 3501 4295 4163 3538 3228 3772 4352 4540 3927 3522 3970 4598 4811 4022 3765 4217 4810 4869 4454 3968 4217 4863 4810 4237 3735 3935 4651 4558 3969 3368 3751 4314 4449 3820 3257 3465 4154 4133 3521 2886 3084 3864 4007 3322 2639 2845 3596 3647 3121 2493 2691 3297 3558 2872 2374 2366 3129 3390 2755 2067 2259 2924 3090 2442
177 189 163 172 156 206 177 194 246 199 224 165 164 183 158 190 247 164 197 182 187 187 219 199 232 245 204 231 250 203 166 172 228 160 180 159 217 173 213 153 219 243 182 219 243 221 171 183 184 204 166 185 164 157 187 232 221 181 190 158 250 243 213 204 246 161 153 196 158 184 205 166 190 157 191 169 198 171 243 164 164 219 162 247 182 198 214 215 248 248 238 168 152 235 241 193 238 162 199 160 164 219 232 179 239 151 228 224 236 209 191 244 241 235 202 151 191 230 163 235 234 176 175 184 228 202 222 153 245 206 193 211 158 196 155 235 191 240 178 228 199 201 175 217 189 168 193 1097 749 199 157 715 1384 1182 505 356 864 1508 1301 687 570 1118 1779 1571 857 669 1259 2046 1801 1083 1031 1583 2119 2136 1343 1274 1711 2417 2229 1698 1482 1917 2679 2656 1873 1556 2109 2949 2712 2230 1877 2451 3064 3011 2407 2152 2586 3344 3237 2696 2335 2724 3610 3619 3004 2605 3077 3746 3776 3195 2720 3262 4037 4107 3308 3095 3391 4175 4239 3649 3319 3711 4360 4504 3871 3453 3813 4365 4499 3726 3201 3563 4269 4192 3586 2951 3390 4019 4032 3370 2756 2955 3724 3883 3239 2643 2715 3471 3604 2914 2425 2643 3219 3366 2647 2124 2319 3028 3094 2501 1813 1960 2710 2828 2246 1702 1784 2396 2726 2109
198 217 200 249 156 212 209 170 227 188 216 244 177 161 244 223 238 169 210 184 183 181 226 210 236 182 213 230 233 162 151 240 219 177 250 213 231 177 205 178 185 168 197 153 159 248 157 233 247 155 159 236 222 184 226 219 187 155 185 218 201 203 215 152 224 237 169 226 208 221 172 164 153 219 185 159 235 219 152 240 158 226 152 249 176 208 157 213 204 200 200 208 231 169 231 180 168 247 235 158 174 215 218 196 247 169 221 205 156 151 247 177 207 225 209 244 167 245 174 162 179 209 189 161 158 230 214 196 224 237 162 155 208 250 155 234 172 208 176 226 153 221 170 207 220 169 204 171 710 100 100 561 1132 984 370 250 851 1487 1182 692 416 1058 1654 1438 875 612 1321 1807 1826 1191 939 1489 2043 2070 1315 1215 1703 2291 2294 1572 1418 1932 2535 2503 1886 1654 2107 2772 2816 2159 1793 2333 3071 2922 2425 1934 2622 3220 3188 2569 2275 2797 3501 3449 2826 2500 2928 3695 3731 3044 2759 3080 3863 3972 3345 2950 3451 4187 4091 3572 3221 3518 4323 4327 3749 3321 3818 4359 4430 3736 3351 3474 4191 4283 3645 3100 3229 3883 4088 3290 2789 3120 3689 3813 3149 2537 2701 3530 3491 2978 2372 2624 3278 3359 2802 2099 2322 2910 3079 2525 1986 2010 2708 2851 2387 1641 1772 2455 2590 2064
235 191 191 171 229 217 163 221 173 152 151 227 225 183 230 172 239 192 164 183 244 213 162 152 200 244 194 213 217 221 225 168 236 171 170 246 250 204 197 240 212 214 180 196 177 155 170 220 181 201 210 233 171 186 227 236 226 248 173 180 225 246 152 189 244 174 244 150 245 162 244 159 232 221 232 206 214 152 151 218 153 174 225 176 156 171 229 180 224 243 240 200 228 210 240 205 236 225 214 247 195 225 248 250 184 191 226 164 234 214 198 163 173 243 162 174 150 163 187 183 178 173 175 224 243 171 165 205 215 211 232 244 199 195 179 185 233 179 191 159 160 241 166 193 227 221 203 233 188 447 281 1013 1525 1294 602 632 1148 1759 1597 935 712 1361 2064 1844 1264 966 1701 2169 2114 1386 1265 1920 2518 2358 1772 1525 2094 2755 2614 1841 1651 2214 2954 2853 2223 1846 2424 3074 3164 2399 2240 2684 3267 3402 2603 2277 2832 3491 3655 2833 2655 3108 3767 3895 3077 2883 3217 4080 4100 3438 3068 3489 4173 4359 3636 3223 3656 4369 4626 3840 3562 3980 4567 4822 4212 3715 4196 4835 4864 4245 3582 3871 4559 4618 4008 3432 3721 4343 4480 3769 3252 3440 4211 4170 3640 3066 3160 3959 3921 3444 2844 3032 3539 3831 3230 2565 2726 3352 3570 2852 2376 2550 3166 3268 2701 2061 2265 2919 3175 2539
176 248 226 210 172 170 212 215 206 186 173 203 166 164 202 226 248 222 198 217 183 250 223 160 158 235 191 241 209 182 227 160 158 232 194 159 182 234 195 166 199 181 170 203 172 203 248 240 191 232 195 204 212 226 216 187 196 209 170 155 180 174 207 207 230 159 202 172 176 229 240 189 221 230 190 164 231 225 203 238 208 170 204 249 238 193 200 199 188 190 207 213 214 225 152 220 186 218 224 166 238 185 215 179 169 210 174 206 193 180 193 210 187 202 185 192 239 178 238 156 163 213 170 172 216 201 240 207 224 235 166 161 232 181 195 221 244 221 242 159 239 245 200 178 150 196 250 193 181 208 732 1436 2004 1736 1051 1013 1633 2121 1914 1424 1287 1883 2508 2252 1620 1506 2082 2733 2520 1863 1612 2186 2823 2810 2114 1911 2422 3021 2989 2434 2049 2671 3246 3145 2572 2247 2876 3639 3492 2929 2476 3157 3813 3807 3138 2824 3363 4013 4018 3241 3092 3553 4244 4182 3532 3298 3668 4323 4556 3820 3498 3988 4571 4777 4021 3649 4207 4909 4979 4331 3900 4402 5049 5115 4508 4133 4479 5243 5383 4685 4183 4365 5141 5199 4406 3960 4301 4764 4901 4320 3732 3900 4707 4750 3970 3386 3626 4415 4553 3897 3323 3490 4066 4186 3722 3067 3167 3958 4018 3342 2771 3022 3684 3717 3123 2629 2784 3396 3517 3104
236 237 192 161 208 166 188 167 227 160 250 166 184 233 228 176 245 221 244 182 241 173 241 171 230 154 170 245 218 212 163 237 157 175 166 225 185 199 180 215 214 173 203 157 234 170 162 227 221 176 250 232 155 203 171 157 231 183 183 225 225 235 205 241 197 174 217 237 242 191 152 213 248 200 241 199 179 187 218 236 217 250 214 202 245 214 191 208 162 199 228 172 159 151 176 188 230 244 208 236 189 223 207 168 191 211 200 234 220 159 213 153 240 199 219 197 214 156 210 208 153 151 247 160 226 158 232 168 184 166 160 184 225 240 161 244 196 236 250 173 219 238 187 172 239 192 229 219 208 240 150 1543 2015 1888 1199 1062 1767 2351 2069 1519 1336 1810 2399 2353 1760 1568 2042 2670 2571 1911 1738 2369 2958 2764 2168 1913 2432 3082 3145 2478 2112 2640 3384 3317 2742 2372 2846 3564 3506 2828 2691 3054 3874 3731 3182 2781 3283 4099 4119 3360 3160 3560 4236 4331 3581 3373 3821 4412 4477 3871 3457 3966 4712 4680 4069 3765 4187 4865 4934 4370 3944 4364 5139 5182 4710 4170 4697 5452 5508 4797 4291 4503 5146 5390 4699 4067 4309 4922 5084 4474 3935 4024 4760 4789 4163 3557 3766 4423 4630 3961 3394 3698 4217 4480 3735 3100 3292 4102 4240 3591 3003 3181 3803 3943 3386 2818 2834 3605 3760 3222
212 162 192 158 182 237 242 172 184 229 172 218 177 151 238 206 213 237 211 157 240 203 226 199 180 173 236 218 239 211 222 190 181 226 205 228 214 188 190 153 210 156 232 236 222 229 226 239 234 240 214 177 243 210 200 210 175 156 174 231 247 243 183 210 240 188 235 177 239 157 190 187 208 175 204 213 165 189 182 189 175 214 220 182 236 250 216 182 215 181 241 216 193 219 167 188 191 221 244 242 212 213 156 202 230 208 172 163 245 180 200 182 210 199 230 195 235 192 217 160 194 224 217 239 183 201 246 185 250 250 205 231 153 187 236 249 214 190 166 178 236 167 229 189 176 179 250 230 214 241 185 165 1646 1479 769 739 1228 1870 1678 1139 798 1432 2172 1933 1257 1109 1795 2299 2287 1452 1297 1948 2574 2516 1778 1619 2236 2883 2700 2027 1778 2372 2947 2990 2236 2101 2617 3270 3149 2528 2289 2741 3456 3329 2824 2516 2942 3697 3581 3056 2630 3161 3866 3844 3369 2998 3370 4130 4088 3499 3145 3611 4408 4387 3679 3298 3831 4521 4579 4076 3544 4113 4794 4775 4195 3875 4285 4979 5159 4556 4096 4266 4874 5079 4235 3830 4138 4701 4840 4032 3619 3790 4475 4518 4001 3381 3597 4167 4265 3716 3123 3243 4059 4174 3572 2886 3042 3766 3967 3317 2744 2783 3514 3660 3042 2367 2602 3315 3365 2947
225 179 206 196 228 169 216 189 183 173 194 235 190 199 250 184 217 240 166 162 152 207 183 224 179 205 244 248 217 158 192 216 195 232 182 161 190 236 201 234 206 160 197 164 201 150 157 190 213 250 194 169 154 230 181 161 219 171 179 154 206 203 150 198 191 225 154 219 216 226 190 150 240 221 168 230 205 199 209 188 194 232 222 242 215 191 248 240 202 164 203 214 176 217 228 176 154 235 209 233 179 164 199 204 232 165 235 186 242 183 175 176 198 240 159 222 194 224 204 181 192 168 183 203 243 178 162 225 244 150 154 215 225 153 242 219 185 212 181 184 241 213 150 188 168 193 184 226 192 186 221 221 1065 874 248 194 782 1481 1270 558 342 999 1685 1496 789 533 1232 1791 1643 1009 790 1463 1994 1993 1378 1079 1671 2340 2139 1501 1335 1807 2486 2521 1683 1422 2040 2698 2681 2001 1725 2316 2866 2934 2289 1942 2453 3191 3109 2448 2271 2712 3457 3432 2846 2483 2958 3540 3552 3091 2667 3194 3790 3840 3330 2948 3418 4106 4115 3578 3035 3513 4174 4444 3705 3271 3715 4491 4612 4057 3594 3963 4455 4642 3909 3409 3629 4219 4282 3655 3036 3440 3936 4083 3519 2935 3213 3829 3910 3236 2668 2919 3510 3628 2966 2548 2657 3377 3465 2881 2235 2448 3033 3251 2583 1933 2059 2853 3094 2505
191 216 157 226 174 208 176 197 245 213 200 216 151 183 177 170 189 181 214 157 237 230 235 165 250 178 174 210 157 174 231 175 246 241 160 225 232 205 207 250 242 206 199 200 222 188 183 166 188 187 153 201 205 195 186 194 234 189 180 156 151 244 213 216 167 175 247 151 172 238 211 224 225 196 231 223 209 202 196 237 180 234 246 192 201 175 211 188 185 169 227 224 162 230 229 169 222 241 244 245 162 195 231 150 249 242 216 179 218 243 244 226 217 248 193 203 184 186 193 214 183 191 212 157 167 187 222 168 168 185 199 190 234 240 203 196 220 163 161 198 238 202 164 224 217 202 162 168 212 209 227 189 158 647 182 100 546 1257 963 289 194 743 1425 1228 664 474 990 1567 1508 801 578 1300 1898 1787 1140 900 1478 2062 1957 1359 1019 1542 2232 2203 1526 1355 1851 2449 2442 1725 1546 1991 2793 2757 1980 1830 2274 3020 3031 2310 1985 2419 3082 3159 2475 2275 2746 3302 3398 2753 2467 2887 3686 3588 3069 2725 3050 3893 3925 3277 2887 3360 4094 4084 3485 3044 3561 4347 4454 3826 3370 3661 4462 4492 3788 3128 3446 4139 4273 3491 2959 3159 3983 4006 3423 2769 3087 3730 3725 3058 2523 2811 3428 3462 2925 2400 2532 3096 3288 2786 2187 2211 2912 3141 2530 1771 1967 2607 2943 2380
150 224 219 159 171 183 223 240 163 176 160 194 245 228 184 159 205 178 221 216 173 242 156 211 157 217 195 176 169 227 198 169 167 241 187 206 246 189 177 192 224 236 211 214 201 239 194 201 159 249 217 248 223 245 180 207 225 194 208 187 184 219 228 169 222 242 155 151 212 152 174 238 214 196 216 165 228 184 155 214 187 162 186 238 244 209 202 223 160 193 236 241 178 177 193 178 172 222 225 152 247 234 235 194 187 235 153 246 230 197 162 153 222 228 199 161 189 209 240 188 221 150 245 237 224 193 237 178 151 187 247 174 208 150 203 200 159 190 246 150 245 214 217 165 179 151 194 221 161 219 159 210 224 237 330 148 906 1431 1328 652 418 968 1625 1554 772 596 1198 1866 1697 1026 833 1501 2006 1956 1388 1175 1627 2394 2227 1628 1226 1953 2575 2450 1726 1505 2115 2788 2689 2028 1739 2277 2996 2925 2343 2059 2581 3270 3255 2573 2288 2781 3354 3386 2829 2523 2975 3677 3753 3098 2615 3097 3829 3954 3211 2994 3291 4090 4225 3604 3217 3613 4209 4396 3769 3392 3839 4611 4589 3955 3659 4000 4777 4815 4142 3579 3741 4481 4577 3803 3306 3477 4208 4292 3668 3118 3234 4067 4046 3464 2822 3155 3812 3903 3270 2701 2851 3484 3579 3106 2353 2571 3262 3406 2899 2234 2302 3056 3148 2675
222 167 178 235 200 197 201 232 194 189 236 182 180 176 218 155 234 217 199 169 168 232 169 185 188 215 174 226 165 206 179 233 167 200 173 243 228 185 191 182 241 207 249 207 183 183 227 194 180 234 232 175 156 172 180 165 195 182 155 241 174 171 172 153 163 169 156 240 181 220 193 243 232 206 205 235 170 250 194 215 210 231 230 220 154 248 195 218 175 170 190 185 206 168 155 235 189 245 193 238 219 186 235 221 228 178 202 184 214 171 152 176 227 193 240 201 236 172 196 190 193 214 152 165 204 236 165 243 166 162 230 216 197 225 155 237 153 227 166 218 152 230 176 213 249 247 163 199 171 206 230 197 222 221 177 665 1174 1781 1699 1011 835 1537 2153 1828 1210 1021 1789 2307 2125 1579 1368 1828 2459 2410 1790 1573 2195 2731 2677 2048 1795 2268 2971 2819 2337 2056 2581 3208 3077 2533 2165 2819 3331 3350 2789 2486 2920 3574 3718 3027 2604 3243 3886 3871 3146 2891 3433 4097 4087 3500 3218 3640 4343 4410 3785 3364 3800 4463 4607 3930 3494 3993 4793 4787 4288 3753 4287 5024 5118 4545 4102 4503 5093 5212 4652 4039 4300 4928 5139 4380 3884 3982 4830 4747 4258 3692 3909 4405 4536 3877 3465 3650 4304 4299 3807 3155 3307 4079 4246 3535 2961 3023 3691 3861 3343 2644 2860 3451 3736 3066
200 181 223 186 217 168 187 202 150 189 155 170 212 206 235 239 231 179 189 193 225 235 195 214 154 241 176 222 205 218 198 203 157 227 230 177 212 160 166 184 215 217 196 178 168 150 171 210 209 241 194 200 233 174 183 240 196 233 208 244 227 201 244 210 230 238 191 215 159 229 155 247 160 190 199 212 194 151 228 174 189 234 159 205 248 191 178 192 239 250 245 169 232 242 187 239 226 246 217 192 248 169 200 192 246 162 187 213 173 176 246 226 173 160 193 194 181 237 185 159 164 159 192 231 208 168 170 151 172 201 233 194 212 158 224 237 181 207 210 248 170 190 173 199 165 150 204 234 189 150 205 200 195 180 155 184 1473 2087 1852 1275 970 1572 2200 2101 1455 1301 1889 2452 2400 1637 1479 2159 2655 2658 1888 1650 2291 3019 2755 2227 1911 2495 3139 3106 2494 2238 2810 3381 3350 2703 2380 2908 3680 3597 2982 2674 3233 3934 3731 3162 2813 3352 4057 4014 3432 3025 3515 4289 4404 3714 3420 3866 4568 4524 4014 3458 4028 4806 4893 4161 3690 4156 4950 5026 4381 3991 4404 5230 5217 4773 4151 4729 5356 5550 4972 4387 4609 5317 5280 4727 4188 4389 5071 5140 4360 3800 4071 4847 4867 4256 3714 3805 4428 4673 3962 3487 3697 4256 4339 3751 3285 3369 4010 4222 3705 3049 3209 3819 4038 3476
219 162 156 236 213 216 241 180 161 211 220 218 173 165 212 196 203 223 203 172 168 191 244 177 165 174 210 225 193 174 224 185 190 227 202 239 163 243 167 230 212 247 161 196 191 184 164 216 195 249 188 165 197 165 172 227 231 241 159 215 215 248 206 206 241 176 235 188 243 217 160 176 185 220 177 183 152 224 246 206 216 169 216 224 242 177 214 246 208 231 187 185 201 243 194 157 168 192 220 220 208 195 247 193 187 225 194 213 161 170 176 153 249 187 175 155 211 234 218 228 248 167 218 243 181 230 242 218 231 184 213 224 218 188 191 222 207 194 172 154 164 172 189 171 212 209 230 159 188 246 202 206 195 162 233 177 178 1751 1696 1002 748 1362 2031 1751 1234 999 1624 2301 2079 1388 1239 1747 2394 2370 1662 1378 2079 2728 2620 1955 1771 2156 2960 2914 2206 1938 2530 3172 2983 2427 2164 2692 3328 3394 2713 2291 2873 3623 3514 3013 2517 3056 3822 3838 3095 2874 3281 3975 4002 3492 2997 3481 4262 4373 3643 3344 3698 4525 4608 3836 3613 3973 4566 4773 4216 3724 4132 4785 4947 4422 3926 4336 5199 5178 4737 4233 4489 5112 5200 4528 3906 4202 4823 5006 4247 3767 4007 4649 4699 4014 3409 3654 4334 4428 3819 3242 3461 4168 4333 3565 3033 3188 3802 4105 3435 2725 2970 3516 3783 3220
151 196 174 160 213 152 243 155 159 168 249 172 158 164 226 151 197 155 243 168 244 179 209 206 163 173 176 176 221 150 174 180 249 218 238 183 166 176 247 198 209 156 230 230 216 162 183 240 189 240 184 221 201 227 160 232 206 160 189 177 186 150 231 229 220 205 166 200 172 185 182 239 200 214 158 205 203 165 159 163 151 190 230 246 151 167 168 193 220 172 170 199 188 156 199 250 230 207 152 190 218 152 213 231 183 250 241 199 241 192 216 232 185 206 166 180 181 167 225 176 245 190 207 234 205 187 173 186 179 184 165 174 229 231 218 249 239 230 168 160 178 198 186 169 230 203 198 197 239 232 197 218 241 157 183 226 219 1347 988 483 252 967 1599 1415 576 460 1146 1760 1572 992 818 1407 1933 1913 1082 914 1534 2246 2047 1435 1248 1654 2420 2373 1567 1464 1962 2552 2508 1885 1538 2192 2820 2712 2242 1817 2381 3039 3034 2385 2143 2619 3274 3363 2645 2294 2769 3556 3574 2980 2499 3061 3727 3802 3124 2688 3298 3941 3921 3352 3078 3377 4118 4328 3628 3274 3538 4426 4572 3832 3507 3756 4563 4823 4116 3692 4038 4637 4787 4062 3468 3684 4409 4404 3892 3185 3500 4191 4327 3583 2971 3157 3903 3937 3391 2876 3069 3728 3780 3158 2586 2792 3294 3673 3010 2343 2560 3088 3443 2826
178 203 175 196 225 235 222 247 171 151 212 181 174 171 154 200 168 201 215 248 221 153 248 217 226 212 208 157 236 214 234 232 161 182 241 245 206 152 172 244 217 234 182 165 229 153 228 153 175 232 203 164 242 214 236 190 243 238 235 210 240 167 227 235 182 160 182 227 204 228 198 246 155 208 193 190 217 240 222 214 215 222 243 222 206 191 154 215 209 191 219 194 247 235 190 187 229 189 200 238 152 233 247 240 190 225 166 159 170 199 233 183 216 241 158 161 174 226 181 216 159 162 175 208 227 181 182 173 209 169 221 171 186 232 234 218 195 241 223 203 244 236 200 176 178 194 178 213 154 165 227 161 225 171 153 162 222 211 743 100 100 555 1154 1053 396 100 764 1476 1333 535 309 1034 1614 1398 741 708 1205 1842 1747 1055 819 1389 1993 1916 1313 1019 1641 2242 2240 1676 1384 1836 2448 2424 1777 1622 2127 2763 2711 2095 1751 2241 2951 2943 2357 1950 2377 3208 3225 2613 2223 2612 3330 3486 2912 2457 2863 3535 3738 3100 2773 3090 3726 3997 3422 2814 3240 4073 4167 3664 3187 3545 4266 4430 3755 3278 3676 4313 4460 3740 3178 3396 4183 4127 3524 2941 3205 3861 4084 3340 2810 2992 3567 3749 3229 2586 2749 3313 3518 2965 2297 2530 3181 3330 2650 2176 2268 2896 3167 2452
239 222 242 193 246 157 164 214 216 250 243 170 179 211 191 247 162 231 162 223 239 168 180 152 231 175 200 161 185 191 162 154 191 195 159 234 173 208 168 240 185 240 193 169 156 200 226 172 224 203 227 204 165 243 236 163 246 169 207 222 166 238 180 161 248 163 150 216 161 218 201 200 219 188 243 171 198 195 206 222 211 159 242 236 171 156 225 247 237 232 158 182 227 168 229 231 168 210 206 193 164 229 195 210 161 188 215 171 223 193 229 172 215 179 243 244 214 224 246 210 220 245 181 171 207 224 216 232 213 238 181 150 216 156 168 166 180 187 239 216 202 209 246 158 151 199 187 163 218 156 208 237 185 150 214 200 179 202 198 315 100 706 1311 1033 496 390 848 1597 1465 641 490 1159 1697 1634 960 785 1373 2007 1856 1295 1071 1441 2100 2098 1516 1190 1713 2431 2257 1775 1484 1989 2612 2521 1975 1664 2100 2897 2904 2293 1843 2325 3163 3187 2493 2021 2681 3325 3276 2803 2292 2704 3477 3642 2974 2474 3106 3774 3720 3230 2867 3154 3953 4057 3488 2990 3465 4091 4255 3686 3187 3550 4312 4610 4003 3483 3927 4563 4721 4036 3366 3681 4375 4368 3880 3302 3374 4035 4133 3595 2977 3255 3857 4031 3410 2797 3023 3511 3786 3215 2475 2639 3303 3488 2881 2396 2522 3062 3366 2673
197 174 200 200 248 219 200 239 169 240 244 182 159 195 210 183 182 201 209 224 168 185 231 179 240 160 237 184 182 232 248 188 172 181 206 222 158 243 164 244 234 176 193 234 215 156 184 171 172 219 188 190 190 180 168 168 240 215 214 215 204 187 231 159 209 240 163 216 213 181 153 176 159 220 217 215 234 159 173 172 176 203 236 183 197 250 157 160 158 215 243 248 237 183 172 158 205 222 211 159 247 241 222 228 230 156 245 224 181 174 201 181 212 201 202 208 205 187 232 226 180 225 218 224 152 208 234 230 184 210 241 155 213 179 180 244 242 197 241 182 238 175 200 185 174 168 241 173 184 181 191 155 201 247 245 220 210 164 180 218 449 1102 1695 1614 964 740 1390 1875 1821 1235 996 1636 2164 2150 1344 1226 1812 2493 2267 1715 1380 1924 2684 2564 1864 1691 2174 2751 2703 2050 1838 2326 3129 3053 2297 2183 2525 3369 3299 2671 2311 2735 3557 3496 2859 2598 3011 3763 3771 3077 2704 3322 4007 4027 3331 2952 3500 4235 4212 3680 3331 3679 4337 4438 3823 3560 3925 4685 4787 4112 3795 4107 4829 5011 4398 3864 4326 4993 5253 4429 3844 4259 4744 4974 4367 3663 4006 4648 4747 4012 3482 3703 4423 4395 3869 3235 3392 4120 4191 3641 2949 3166 3886 4035 3485 2816 2965 3551 3767 3296
169 204 220 159 208 244 157 186 202 207 220 231 152 200 185 232 189 152 248 191 209 216 191 183 219 200 184 154 158 168 183 184 191 187 217 196 239 229 227 192 244 232 169 242 152 168 182 234 233 165 182 243 176 245 232 243 249 163 239 248 168 153 227 175 170 209 174 156 231 214 205 170 190 150 183 150 244 191 176 165 189 210 245 179 243 191 216 200 239 242 183 244 179 182 225 234 201 164 196 184 243 207 219 174 182 211 247 151 214 150 163 224 151 226 244 235 190 160 165 240 185 248 220 162 207 154 239 211 169 177 213 156 243 173 166 154 205 157 150 235 209 198 245 151 150 181 190 219 235 197 209 231 163 218 229 221 191 236 212 182 150 1466 2052 1834 1115 1015 1609 2298 2163 1518 1277 1895 2405 2353 1649 1533 2136 2611 2537 2034 1699 2278 2838 2745 2100 1968 2507 3187 2999 2346 2141 2691 3344 3288 2672 2376 2797 3625 3565 2908 2586 3074 3786 3821 3144 2875 3294 3957 4073 3474 3171 3560 4324 4385 3698 3372 3708 4495 4588 3903 3498 3985 4696 4856 4161 3747 4120 4800 5004 4498 4093 4307 5136 5279 4726 4225 4644 5233 5425 4824 4399 4583 5134 5264 4726 4140 4334 4876 5070 4414 3845 3993 4664 4866 4288 3689 3879 4426 4675 4107 3334 3655 4267 4435 3858 3213 3226 3921 4219 3692
222 185 196 195 213 202 176 160 151 194 222 155 189 239 195 150 213 192 225 156 164 171 209 229 201 186 208 204 216 219 216 188 190 232 172 242 169 249 202 215 223 167 200 191 171 184 223 233 156 245 164 225 186 197 232 177 249 237 193 239 189 212 238 199 183 150 157 202 150 193 201 153 225 171 230 165 232 205 187 234 185 162 174 203 169 233 237 171 207 152 181 221 167 247 179 189 238 198 177 248 179 209 181 192 191 206 222 221 154 221 154 186 191 170 243 163 245 154 215 248 182 240 165 189 233 176 189 189 195 195 211 246 190 174 188 239 175 187 179 218 221 151 200 154 247 238 185 242 191 169 238 205 208 192 210 166 173 153 159 187 193 210 1793 1642 1068 913 1501 2143 2033 1324 1034 1766 2431 2170 1577 1298 2009 2474 2465 1804 1471 2085 2744 2800 2114 1874 2236 3004 2883 2369 2091 2582 3235 3171 2639 2225 2834 3483 3444 2735 2447 2960 3737 3625 3111 2664 3231 3848 3919 3299 2929 3451 4090 4219 3449 3153 3587 4394 4456 3700 3300 3749 4612 4716 4072 3724 3974 4668 4963 4368 3865 4200 5057 5195 4496 4049 4367 5275 5324 4867 4152 4589 5184 5247 4667 4010 4300 4915 5022 4386 3810 3916 4688 4843 4094 3500 3804 4438 4551 3944 3334 3499 4236 4375 3744 3046 3334 3935 4075 3553
165 161 211 240 247 201 164 162 189 164 168 212 181 158 158 205 246 238 154 154 183 185 188 250 167 230 170 244 237 192 204 179 236 152 213 157 230 170 157 158 241 208 228 236 213 178 239 241 185 248 231 154 196 199 182 236 165 241 203 174 207 239 238 226 159 191 201 168 234 185 199 178 180 246 177 175 184 198 169 230 248 161 180 231 245 181 236 154 195 194 195 234 197 240 224 221 199 216 242 219 157 181 235 158 212 228 151 210 163 176 194 192 171 250 157 186 250 168 210 159 159 174 233 216 226 193 246 233 192 235 170 150 164 199 222 236 200 155 218 175 235 167 193 224 197 154 234 185 216 239 169 174 209 193 216 161 250 188 204 208 203 207 1470 1209 627 360 929 1533 1572 924 633 1144 1936 1792 986 938 1443 2161 1993 1347 1096 1633 2379 2203 1657 1276 1802 2449 2437 1818 1563 2151 2675 2756 2084 1715 2241 3033 2854 2223 1905 2487 3114 3250 2633 2208 2614 3311 3514 2779 2403 2979 3591 3614 3033 2683 3051 3829 3834 3378 2990 3320 3990 4102 3515 3076 3622 4314 4428 3731 3360 3840 4430 4579 4082 3621 4003 4659 4800 4400 3856 4012 4760 4895 4285 3637 3804 4443 4669 3920 3331 3611 4237 4397 3736 3145 3386 4022 4256 3653 3020 3123 3828 3938 3274 2800 2869 3494 3812 3173
194 240 171 225 217 201 171 236 248 160 153 190 246 211 226 213 205 236 244 222 188 245 234 177 199 214 234 174 244 238 197 156 163 192 170 183 237 172 250 156 249 241 201 241 151 216 233 209 180 210 208 186 167 220 178 214 170 166 205 185 246 180 188 206 219 246 156 163 184 219 198 193 183 249 197 250 209 226 247 150 221 162 239 221 198 247 156 158 200 225 169 220 156 206 248 223 155 154 232 215 177 205 163 216 189 224 227 164 215 180 237 231 154 213 196 150 229 163 226 171 190 199 191 238 215 200 206 168 182 230 202 247 156 172 225 242 164 246 189 164 164 158 178 247 152 170 197 216 169 177 208 178 243 171 200 161 184 211 183 193 228 237 152 833 185 100 678 1149 1007 310 211 792 1514 1349 749 483 1075 1723 1630 827 659 1164 1788 1835 1128 882 1355 2028 1957 1294 1109 1689 2347 2222 1621 1403 1757 2623 2582 1946 1660 1997 2742 2736 2153 1702 2201 2956 2925 2319 1959 2463 3292 3219 2645 2333 2679 3482 3484 2947 2579 2927 3532 3813 3221 2775 3097 3846 4000 3317 2980 3340 4015 4227 3646 3198 3613 4274 4536 3906 3489 3778 4370 4546 3896 3173 3411 4049 4217 3734 3078 3287 3873 3975 3435 2800 2934 3584 3898 3300 2606 2658 3487 3674 3038 2312 2518 3139 3446 2868
164 197 155 150 226 157 213 223 179 159 169 170 180 230 193 210 236 225 179 197 178 192 235 185 194 222 201 163 205 161 203 164 170 174 233 207 230 160 164 249 204 217 208 198 159 163 221 177 239 208 202 203 193 239 201 226 172 236 238 232 229 246 186 168 185 151 228 226 227 166 173 233 157 216 202 183 242 238 229 178 235 167 226 151 157 152 202 154 152 221 200 169 210 150 178 174 241 155 215 217 191 174 224 208 250 203 163 201 160 166 209 157 206 225 211 237 246 199 247 193 247 201 228 177 237 235 183 240 182 167 154 156 189 204 234 150 202 231 199 186 243 189 203 219 154 236 155 200 214 156 237 200 229 224 169 173 199 250 195 200 154 237 160 199 224 100 599 1231 1113 367 145 750 1356 1316 643 352 1008 1582 1540 947 614 1177 1890 1855 1122 930 1479 2123 1973 1395 1050 1672 2264 2254 1570 1428 1824 2569 2489 1889 1646 2114 2806 2757 2166 1839 2179 3017 3029 2374 2107 2403 3142 3217 2602 2238 2661 3319 3535 2946 2476 2838 3574 3670 3200 2769 3177 3911 3946 3441 2884 3365 4088 4287 3538 3141 3439 4255 4516 3922 3424 3789 4412 4480 3974 3392 3635 4260 4376 3731 3087 3303 4028 4216 3528 2909 3167 3704 3973 3383 2744 2853 3439 3695 2998 2502 2508 3167 3367 2951
216 151 152 151 152 230 249 161 191 152 243 245 167 230 153 242 153 238 237 249 219 204 184 238 222 240 221 243 153 210 164 241 199 178 200 230 200 239 185 235 244 249 155 189 250 227 154 240 184 227 157 150 206 224 212 225 165 180 218 153 189 239 150 161 211 150 170 195 233 191 176 206 173 207 226 184 200 198 236 213 153 156 237 229 192 209 193 230 159 150 224 185 163 239 233 220 188 196 242 232 190 169 219 156 162 215 155 178 157 174 231 174 155 196 190 211 219 226 157 245 249 195 238 159 195 233 172 162 217 234 241 157 178 245 182 241 235 222 205 159 152 240 203 208 166 211 196 236 225 183 202 235 196 189 199 169 248 185 205 250 168 200 161 203 248 346 919 1575 1408 738 500 1084 1854 1777 1036 878 1460 1996 1919 1243 1024 1618 2233 2135 1487 1320 1866 2486 2365 1709 1472 2046 2711 2683 2005 1697 2256 2940 2939 2360 2014 2358 3135 3081 2541 2106 2706 3358 3384 2749 2403 2860 3554 3667 3092 2635 3128 3817 3790 3205 2815 3248 3913 4178 3513 3064 3469 4241 4392 3814 3294 3787 4464 4546 4041 3651 3971 4706 4876 4316 3744 4156 4807 5040 4279 3731 3939 4600 4769 4134 3554 3847 4420 4527 3856 3419 3529 4263 4333 3804 3130 3227 4033 4080 3549 2910 3104 3672 3893 3371
212 203 188 234 215 164 249 168 185 187 206 210 241 181 150 213 156 164 173 166 177 188 229 212 175 227 239 242 181 246 221 238 249 194 179 198 224 170 231 198 165 189 155 164 216 222 234 247 210 189 237 153 247 157 205 168 183 209 223 234 164 197 203 248 207 174 174 178 222 187 223 187 168 217 192 244 238 200 169 172 240 234 224 171 190 229 152 164 246 209 229 233 221 226 170 185 171 187 212 206 188 193 174 236 191 218 235 154 185 161 163 190 162 230 218 167 197 230 240 155 225 175 206 152 156 227 247 204 229 205 192 213 190 151 195 226 173 228 183 249 227 152 159 236 168 240 240 190 234 162 218 189 193 183 223 216 174 219 172 247 209 201 150 205 151 215 1343 1957 1831 1161 1000 1599 2211 2161 1341 1280 1824 2462 2409 1562 1463 1951 2646 2649 1987 1597 2271 2890 2704 2078 1881 2491 3165 2955 2401 2012 2538 3375 3297 2669 2385 2723 3473 3466 2812 2542 3104 3648 3822 3062 2739 3175 3858 3921 3436 3004 3427 4187 4217 3624 3293 3627 4327 4451 3931 3461 3875 4669 4819 4141 3779 4086 4785 4951 4317 3852 4215 5075 5302 4710 4105 4513 5262 5534 4786 4246 4525 5074 5219 4601 4116 4235 4869 5111 4365 3905 3962 4588 4767 4254 3589 3704 4482 4682 4074 3451 3490 4072 4393 3783
230 205 180 205 216 227 179 193 204 211 229 175 211 245 153 246 201 181 205 206 198 167 157 248 151 243 203 150 167 215 248 205 169 214 154 175 159 165 181 246 221 211 197 217 176 159 236 240 227 172 160 185 166 212 229 180 177 186 194 223 215 204 184 161 234 175 221 217 206 172 208 186 180 247 199 234 158 172 193 212 182 225 188 196 193 155 222 151 203 204 216 225 169 151 186 234 222 167 231 216 177 219 202 192 197 187 186 221 198 212 224 208 228 230 237 194 223 249 192 219 188 200 184 214 241 237 208 234 197 216 157 200 180 187 241 189 158 201 195 172 231 224 228 203 205 248 189 175 157 173 231 233 151 163 160 202 223 246 219 243 230 171 167 241 178 150 237 2014 1849 1189 863 1620 2283 2110 1481 1119 1698 2335 2234 1575 1393 2058 2673 2575 1949 1557 2230 2951 2825 2216 1808 2394 3103 3022 2482 2009 2661 3339 3343 2720 2230 2729 3602 3434 2858 2597 2968 3710 3743 3168 2760 3194 3856 3974 3442 3042 3505 4131 4265 3684 3284 3690 4353 4512 3944 3496 3885 4515 4633 4077 3729 4147 4727 5032 4444 3856 4325 5073 5217 4545 4199 4575 5188 5370 4857 4340 4485 5175 5308 4737 4167 4209 5060 5111 4506 3888 4158 4744 4847 4194 3620 3891 4454 4714 4066 3422 3570 4264 4534 3888
162 186 216 216 198 200 223 192 230 198 155 232 166 176 173 206 223 207 205 167 153 183 209 221 242 195 152 203 170 157 186 151 157 202 175 220 184 153 210 170 201 168 180 202 243 209 210 199 163 236 202 236 164 241 206 225 190 211 204 166 232 179 150 214 202 239 228 182 159 237 188 185 181 240 178 206 159 249 234 183 231 207 196 166 169 158 194 233 152 198 172 152 175 247 240 188 217 203 167 203 225 175 153 155 199 230 232 224 156 222 194 223 234 172 236 210 250 216 209 216 207 241 194 202 218 242 250 227 212 192 157 236 224 171 182 221 194 194 249 153 151 173 229 199 173 151 173 150 165 239 157 205 180 164 155 237 198 165 219 228 232 151 233 169 219 243 197 1459 1394 659 476 1106 1836 1608 983 757 1365 1926 1864 1198 1059 1513 2273 2051 1420 1171 1715 2390 2376 1808 1498 1955 2578 2579 1978 1731 2190 2847 2839 2197 1969 2425 3130 3135 2420 2062 2642 3327 3354 2663 2307 2792 3505 3544 2889 2610 3077 3809 3754 3144 2747 3225 4023 4101 3506 3008 3380 4237 4360 3744 3292 3761 4479 4490 3938 3426 3945 4519 4831 4301 3737 4117 4756 5000 4476 3899 4146 4918 4955 4447 3741 3921 4631 4854 4238 3507 3700 4438 4625 3857 3264 3393 4033 4261 3692 3055 3133 3812 4180 3604
244 165 217 241 210 180 191 202 217 159 247 249 160 201 204 244 173 246 235 170 157 200 187 201 219 196 193 161 199 181 209 238 192 172 209 183 196 158 246 167 171 177 210 205 157 186 237 188 156 209 191 220 226 155 214 182 202 227 227 180 182 223 184 176 236 191 202 189 224 215 216 162 150 220 242 177 197 183 202 223 179 157 235 247 209 195 242 163 184 194 208 155 204 193 159 175 179 225 204 223 188 223 223 238 151 221 234 207 163 227 218 224 151 171 165 165 201 187 183 203 211 206 244 215 230 166 227 191 249 153 222 172 189 210 197 162 226 231 194 160 216 241 163 162 245 171 204 180 187 213 176 160 153 250 238 190 227 197 167 185 155 213 232 245 235 195 218 164 830 304 100 595 1319 1066 405 271 887 1518 1493 823 400 975 1809 1611 1045 711 1281 1903 1904 1327 993 1409 2185 2130 1547 1155 1653 2397 2330 1661 1333 1831 2534 2589 1904 1608 2070 2791 2762 2163 1928 2265 3037 3078 2469 2160 2464 3279 3305 2828 2312 2663 3446 3677 2944 2545 2936 3779 3905 3305 2856 3214 3976 4107 3565 3045 3427 4110 4294 3716 3222 3580 4378 4474 3934 3546 3882 4477 4636 3920 3408 3531 4279 4436 3716 3061 3309 4031 4069 3466 2863 3060 3782 3926 3389 2753 2868 3558 3637 3152
184 201 230 221 219 229 163 217 213 201 191 188 164 246 249 218 182 230 180 190 212 162 210 211 212 176 250 162 171 216 189 202 169 215 159 156 189 218 181 197 246 154 178 179 197 158 231 179 189 187 156 232 208 156 230 156 159 249 209 227 240 197 192 189 156 150 206 158 153 186 224 226 196 180 246 150 237 181 242 240 249 209 230 164 229 193 224 225 204 165 174 200 225 237 233 181 185 224 225 218 193 220 189 198 170 213 161 238 210 235 177 232 156 207 152 208 169 224 237 173 161 250 171 190 164 243 159 156 191 171 191 175 169 151 182 162 202 195 219 183 205 238 229 199 154 232 176 199 244 156 166 239 204 201 203 158 152 199 159 156 190 218 173 182 210 202 195 208 237 100 100 477 1221 1040 422 224 679 1442 1341 672 370 973 1521 1500 912 528 1150 1813 1728 1199 874 1404 1961 2028 1359 1140 1645 2146 2245 1559 1266 1741 2470 2477 1763 1400 1919 2766 2626 2056 1692 2155 2867 2993 2325 2012 2413 3062 3267 2675 2148 2670 3425 3495 2789 2483 2869 3457 3626 3097 2566 3109 3840 4017 3307 2812 3257 3913 4170 3666 3063 3411 4137 4374 3821 3346 3709 4403 4443 3863 3360 3433 4121 4273 3717 3093 3249 3927 4005 3540 2834 2950 3656 3763 3171 2633 2798 3412 3565 3117
175 191 153 207 171 177 156 178 173 213 246 151 197 229 229 159 220 168 193 192 237 198 175 167 223 162 243 216 160 156 164 161 243 206 232 247 224 237 223 246 235 244 179 179 205 203 245 220 234 205 219 227 166 212 191 210 206 166 197 185 192 234 192 250 223 163 209 184 237 200 205 154 198 220 172 209 188 180 190 195 183 204 234 236 189 175 154 166 163 208 218 175 161 225 160 191 224 212 200 208 158 194 160 210 158 187 195 227 175 168 194 214 155 209 240 217 167 250 221 178 177 159 161 223 158 151 171 227 173 233 195 167 241 226 248 156 238 196 202 174 180 173 155 246 156 174 220 206 158 229 199 169 191 181 160 250 247 234 205 199 178 163 230 194 155 212 180 213 166 190 263 764 1460 1373 560 488 950 1739 1511 959 670 1214 1924 1773 1203 923 1441 2080 1992 1380 1070 1668 2311 2338 1555 1424 1943 2533 2509 1989 1530 2027 2679 2728 2118 1837 2178 3027 3062 2430 2114 2541 3202 3307 2733 2197 2797 3439 3541 2851 2466 2972 3573 3680 3232 2641 3067 3914 3922 3429 2978 3329 4065 4257 3581 3200 3562 4203 4420 3827 3335 3831 4540 4778 4077 3758 3974 4803 4917 4194 3590 3869 4574 4577 3997 3348 3532 4345 4372 3824 3117 3448 3978 4153 3609 2993 3114 3692 3983 3439
158 151 227 182 192 244 234 193 250 219 216 154 232 225 235 161 231 223 240 225 191 226 206 227 241 182 211 155 152 172 172 225 174 213 166 223 236 227 178 188 230 163 156 201 250 153 211 232 223 215 224 161 164 168 151 239 180 201 188 154 236 211 206 238 226 234 188 208 161 207 206 160 173 215 162 195 231 236 158 200 181 187 200 193 197 179 152 187 173 159 160 222 234 243 196 197 194 211 237 177 173 187 202 232 176 221 247 186 235 224 166 195 216 152 220 186 177 163 249 177 156 205 177 204 224 247 162 180 217 162 185 181 238 190 228 241 163 229 152 246 184 248 214 247 177 189 233 188 181 201 218 207 244 236 170 227 152 212 229 212 204 221 228 242 241 232 152 215 153 249 227 1277 1963 1720 1053 893 1441 2030 1910 1317 1017 1659 2360 2306 1600 1309 1893 2442 2519 1758 1593 1992 2787 2775 2015 1854 2199 2937 2992 2344 1962 2504 3208 3232 2520 2224 2624 3428 3545 2741 2444 2880 3644 3774 3064 2712 3178 3865 3859 3242 2860 3359 4169 4182 3613 3215 3607 4310 4340 3839 3407 3794 4470 4650 4015 3563 4045 4709 4901 4256 3787 4133 4881 5061 4528 4009 4305 5156 5453 4666 4249 4399 4959 5223 4503 4007 4209 4686 4966 4339 3800 3879 4532 4726 4139 3452 3609 4195 4551 3915
156 158 201 174 205 235 185 194 176 173 225 156 164 250 239 213 238 161 215 234 239 210 208 166 156 196 203 238 223 173 159 168 199 186 230 184 235 245 182 156 169 157 234 156 165 216 152 236 215 190 175 153 176 229 237 155 212 250 210 196 187 218 195 162 196 154 214 168 234 173 200 230 203 163 233 158 209 183 235 164 184 206 227 159 234 155 174 218 249 160 208 173 219 185 166 168 153 207 167 181 232 227 227 170 153 191 187 238 176 194 175 219 221 217 220 167 229 246 154 227 235 179 190 212 164 157 227 249 247 160 218 245 199 214 213 155 193 239 216 186 234 182 203 223 235 187 220 193 195 232 233 225 162 155 168 210 243 244 177 189 173 205 204 158 196 236 224 150 226 247 175 232 2058 1778 1225 974 1612 2279 2198 1530 1303 1774 2540 2453 1636 1483 1998 2743 2692 1922 1594 2133 2815 2838 2207 1872 2337 3158 3158 2541 2071 2593 3348 3306 2645 2394 2903 3542 3676 2944 2507 3139 3819 3826 3103 2851 3298 3953 4152 3491 2954 3484 4174 4308 3774 3189 3599 4502 4622 3876 3571 3826 4680 4769 4146 3664 4009 4809 5076 4504 3945 4342 5136 5229 4691 4152 4502 5217 5560 4987 4425 4596 5287 5405 4805 4112 4344 4961 5085 4503 3968 4060 4820 4958 4263 3618 3920 4499 4739 4076
176 207 150 181 200 167 185 241 213 197 168 202 235 197 243 213 192 215 174 170 152 159 224 198 176 182 196 154 165 248 205 209 165 171 189 152 159 221 163 189 244 229 224 176 238 223 153 180 193 164 194 230 199 243 216 249 237 246 221 204 162 151 166 158 198 247 228 163 225 155 244 220 240 185 157 190 223 234 235 224 207 169 171 233 196 194 163 180 189 225 164 150 199 178 187 205 193 221 166 219 190 171 243 216 186 182 238 183 234 224 192 157 205 210 232 246 201 175 198 158 222 231 239 161 209 222 214 211 180 229 159 184 208 228 217 180 159 176 188 193 156 184 233 167 163 238 165 198 202 237 203 223 205 239 235 229 174 181 224 183 178 228 191 244 214 208 167 231 235 184 194 198 1728 1491 883 712 1275 1802 1762 1205 904 1492 2203 2080 1376 1133 1686 2285 2263 1657 1382 1796 2630 2491 1881 1550 2121 2697 2786 2154 1813 2370 2923 2958 2342 2012 2574 3212 3314 2531 2321 2790 3362 3581 2926 2588 2897 3553 3722 3034 2701 3109 3880 4070 3303 2972 3258 4134 4268 3606 3227 3471 4239 4374 3827 3397 3761 4618 4683 4218 3604 4029 4829 5030 4316 3890 4159 4866 5127 4597 4052 4310 5042 5124 4535 3822 4123 4720 4862 4300 3618 3809 4586 4621 4111 3422 3576 4167 4485 3844
170 243 191 232 238 236 216 234 237 242 232 181 193 181 151 171 202 237 210 201 227 215 183 224 185 180 167 207 174 213 196 173 156 175 209 179 218 164 209 212 152 196 206 205 228 243 199 224 161 183 187 196 153 174 246 241 231 161 213 241 200 241 212 163 247 205 205 204 234 190 159 238 207 158 182 150 174 238 240 173 211 224 217 154 243 207 220 217 187 187 250 247 154 209 160 180 152 177 249 170 208 208 184 192 226 240 210 250 242 239 174 216 240 157 202 231 223 221 209 181 224 159 234 210 181 222 193 220 218 233 180 153 161 154 221 236 203 180 175 155 196 210 203 186 178 197 168 232 231 246 237 175 219 223 187 250 189 182 150 214 207 167 218 246 163 210 204 204 204 176 211 197 246 1095 329 210 811 1431 1360 572 391 994 1597 1606 871 503 1235 1846 1724 1078 873 1438 2098 1973 1359 974 1625 2245 2266 1589 1375 1800 2533 2575 1762 1419 1981 2772 2768 2037 1696 2186 2905 2970 2362 1984 2365 3112 3240 2538 2288 2649 3261 3442 2797 2378 2745 3618 3745 3026 2684 3120 3867 3979 3391 2896 3236 4045 4170 3678 3219 3515 4230 4443 3885 3312 3608 4393 4701 4065 3573 3803 4617 4629 4054 3513 3591 4325 4567 3897 3158 3356 3976 4267 3635 3032 3092 3781 4032 3429
223 214 178 160 207 243 201 176 156 228 186 201 203 163 225 225 248 230 179 194 250 233 236 181 209 181 159 198 188 209 170 172 239 172 152 217 206 207 226 214 168 199 220 159 194 152 175 181 164 215 190 207 193 180 183 171 225 234 200 186 189 210 239 160 235 229 187 237 226 154 173 190 242 176 153 210 159 161 167 215 195 207 239 220 230 237 154 172 223 179 171 217 151 248 164 209 191 170 188 223 222 181 195 229 237 185 155 165 165 183 222 237 177 203 186 206 202 211 241 239 178 172 175 213 197 225 209 219 161 167 206 224 200 237 165 248 151 242 205 228 240 213 163 235 151 245 174 198 182 233 209 162 210 211 177 151 151 227 170 179 188 222 243 249 211 231 190 238 242 191 233 219 212 211 100 100 549 1041 924 426 112 738 1370 1240 559 397 783 1645 1502 851 605 1073 1797 1835 1162 878 1324 1998 1959 1392 1033 1480 2291 2136 1504 1177 1624 2417 2452 1785 1516 1840 2576 2706 2066 1639 2125 2959 2867 2249 1845 2345 3128 3173 2575 2087 2636 3301 3497 2931 2460 2693 3581 3627 3191 2574 3002 3721 3885 3335 2844 3202 3967 4132 3518 3112 3415 4187 4304 3845 3269 3737 4292 4523 3792 3315 3449 4075 4282 3686 2986 3279 3793 4135 3478 2843 3019 3570 3871 3175
197 225 188 189 151 159 235 191 249 175 174 224 248 160 214 210 172 195 159 250 214 151 168 168 211 233 150 244 160 183 234 239 179 170 160 200 225 204 203 221 222 156 234 172 168 242 202 206 195 191 220 151 177 165 182 197 170 199 171 197 153 202 215 158 180 181 227 213 202 159 235 153 205 215 178 194 226 210 243 153 155 231 211 200 182 189 218 232 188 160 161 150 150 231 234 179 218 168 213 230 217 200 157 196 180 248 190 242 235 245 170 180 164 200 161 165 171 190 191 195 156 170 228 219 151 168 153 156 228 186 209 201 171 154 168 225 207 172 225 167 236 158 169 163 225 158 184 249 241 167 151 189 173 169 242 159 195 176 219 161 173 165 247 243 167 152 220 216 240 215 248 192 178 221 238 100 609 1399 1187 616 343 814 1467 1343 892 431 1102 1662 1696 1069 712 1210 1929 1948 1191 1021 1506 2247 2212 1605 1208 1721 2390 2508 1714 1515 1997 2566 2584 2005 1658 2179 2850 2841 2285 1863 2304 3061 3162 2560 2216 2624 3223 3467 2730 2269 2709 3518 3614 3046 2628 3035 3631 3864 3186 2818 3104 4029 4136 3626 3024 3479 4058 4292 3694 3290 3531 4423 4639 3945 3598 3769 4538 4806 4108 3504 3688 4385 4609 3854 3418 3416 4130 4330 3641 3103 3289 3811 4021 3581
174 184 194 154 212 162 211 196 205 197 190 163 160 229 211 203 211 186 245 168 190 171 217 247 192 177 235 185 179 176 225 230 160 160 155 233 223 230 155 249 210 205 163 231 168 157 237 203 203 233 185 226 199 163 230 230 222 159 196 174 209 156 196 234 189 209 217 229 232 243 150 165 178 242 242 166 213 161 223 195 189 196 193 229 152 164 221 232 226 186 155 188 197 192 210 229 181 227 200 183 174 234 204 214 214 197 239 214 227 200 246 190 196 228 191 163 154 217 223 225 211 223 230 213 213 249 197 199 176 211 166 187 218 154 250 200 223 243 244 218 234 171 234 159 250 234 233 196 210 162 199 156 166 183 167 250 183 226 169 239 190 172 231 244 193 246 211 191 218 245 178 198 235 209 175 216 1186 1841 1664 1002 817 1274 2050 1817 1315 1026 1598 2204 2027 1497 1126 1653 2491 2402 1645 1461 1947 2618 2614 2074 1622 2241 2794 2783 2290 1851 2281 3105 3123 2504 2016 2507 3301 3329 2723 2314 2686 3405 3518 2980 2615 3030 3649 3816 3175 2858 3114 4004 3993 3464 2975 3329 4249 4400 3790 3225 3536 4424 4493 4066 3528 3748 4517 4728 4129 3832 4098 4784 5023 4488 3982 4258 5041 5239 4689 4045 4191 4898 4975 4383 3820 3993 4657 4875 4150 3558 3670 4306 4631 3966
169 220 233 208 170 169 159 189 194 150 165 231 190 248 181 191 207 215 199 183 177 197 207 218 167 248 166 217 247 229 247 168 173 212 227 165 223 165 207 201 166 202 163 197 217 175 188 243 177 162 191 201 211 210 226 249 249 188 249 154 172 167 199 176 153 191 215 150 157 182 222 150 170 166 230 211 173 175 243 185 243 175 157 193 184 155 202 215 218 227 160 231 204 185 221 159 242 198 151 245 210 228 161 231 191 195 246 248 163 190 153 169 233 208 195 194 190 166 167 232 214 204 205 250 199 164 156 213 153 182 237 217 167 227 233 224 212 201 242 164 194 232 240 169 190 200 157 181 198 238 244 158 154 193 175 243 245 159 183 193 230 160 177 179 210 239 157 223 237 225 228 225 239 181 231 192 173 1927 1812 1264 1042 1647 2132 2127 1555 1125 1838 2454 2277 1694 1535 2027 2654 2682 2051 1704 2141 2942 2923 2198 1978 2412 3166 3040 2475 2180 2562 3278 3344 2790 2440 2858 3473 3660 3036 2607 3022 3705 3917 3285 2792 3278 3906 4035 3438 3008 3357 4092 4221 3735 3380 3577 4391 4646 3880 3591 3886 4620 4821 4160 3831 4129 4748 4996 4542 3958 4203 5091 5324 4757 4125 4598 5242 5547 5058 4390 4633 5276 5474 4873 4225 4323 4993 5199 4620 3908 4110 4709 5038 4277
